; generated by Slic3r 1.3.1-dev (Build 18ddd3a36dc69d81fb9b7440498bff9e1dde8b7e) on 2021-09-02 at 13:59:42

; external perimeters extrusion width = 0.49mm (3.88mm^3/s)
; perimeters extrusion width = 0.59mm (9.54mm^3/s)
; infill extrusion width = 0.56mm (11.95mm^3/s)
; solid infill extrusion width = 0.59mm (3.18mm^3/s)
; top infill extrusion width = 0.59mm (2.39mm^3/s)
; support material extrusion width = 0.49mm (7.75mm^3/s)

M107
G92 E0
M190 S45 ; set bed temperature and wait for it to be reached
M104 S226 ; set temperature
G28 ; home all axes
G1 Z5 F5000 ; lift nozzle

; Filament gcode

M109 S226 ; set temperature and wait for it to be reached
G21 ; set units to millimeters
G90 ; use absolute coordinates
M82 ; use absolute distances for extrusion
G92 E0
G1 E-3.00000 F2400.00000
G92 E0
G1 Z0.350 F5400.000
G1 X135.729 Y130.112 F5400.000
G1 E3.00000 F2400.00000
G1 F1800.000
G1 X136.307 Y129.569 E3.07210
G1 X136.776 Y129.188 E3.12707
G1 X137.113 Y128.943 E3.16495
G1 X137.782 Y128.519 E3.23702
G1 X138.315 Y128.233 E3.29197
G1 X138.692 Y128.055 E3.32984
G1 X139.429 Y127.764 E3.40193
G1 X140.006 Y127.582 E3.45691
G1 X140.409 Y127.479 E3.49477
G1 X141.188 Y127.330 E3.56687
G1 X141.788 Y127.260 E3.62180
G1 X142.204 Y127.234 E3.65968
G1 X187.400 Y127.225 E7.76937
G1 X188.400 Y127.278 E7.86041
G1 X188.998 Y127.360 E7.91534
G1 X189.591 Y127.479 E7.97030
G1 X189.994 Y127.582 E8.00817
G1 X190.571 Y127.764 E8.06315
G1 X191.135 Y127.981 E8.11811
G1 X191.685 Y128.233 E8.17312
G1 X192.218 Y128.519 E8.22806
G1 X192.731 Y128.838 E8.28301
G1 X193.373 Y129.304 E8.35515
G1 X193.835 Y129.694 E8.41011
G1 X194.138 Y129.979 E8.44796
G1 X194.556 Y130.415 E8.50294
G1 X194.946 Y130.877 E8.55791
G1 X195.307 Y131.363 E8.61291
G1 X195.731 Y132.032 E8.68499
G1 X196.017 Y132.565 E8.73993
G1 X196.195 Y132.942 E8.77781
G1 X196.423 Y133.502 E8.83278
G1 X196.668 Y134.256 E8.90487
G1 X196.812 Y134.843 E8.95987
G1 X196.890 Y135.252 E8.99770
G1 X196.972 Y135.850 E9.05265
G1 X197.016 Y136.454 E9.10765
G1 X197.022 Y193.358 E14.28195
G1 X196.972 Y194.150 E14.35408
G1 X196.890 Y194.748 E14.40902
G1 X196.771 Y195.341 E14.46398
G1 X196.668 Y195.744 E14.50186
G1 X196.486 Y196.321 E14.55682
G1 X196.269 Y196.885 E14.61179
G1 X196.017 Y197.435 E14.66680
G1 X195.731 Y197.968 E14.72174
G1 X195.412 Y198.481 E14.77669
G1 X194.946 Y199.123 E14.84883
G1 X194.556 Y199.585 E14.90379
G1 X194.138 Y200.021 E14.95877
G1 X193.835 Y200.306 E14.99661
G1 X193.373 Y200.696 E15.05159
G1 X192.887 Y201.057 E15.10659
G1 X192.218 Y201.481 E15.17867
G1 X191.685 Y201.767 E15.23362
G1 X191.308 Y201.945 E15.27148
G1 X190.749 Y202.173 E15.32645
G1 X189.994 Y202.418 E15.39855
G1 X189.407 Y202.562 E15.45356
G1 X188.998 Y202.640 E15.49138
G1 X188.400 Y202.722 E15.54631
G1 X187.796 Y202.766 E15.60132
G1 X142.392 Y202.772 E19.72994
G1 X141.600 Y202.722 E19.80208
G1 X141.002 Y202.640 E19.85701
G1 X140.409 Y202.521 E19.91196
G1 X140.006 Y202.418 E19.94984
G1 X139.429 Y202.236 E20.00482
G1 X138.865 Y202.019 E20.05978
G1 X138.315 Y201.767 E20.11478
G1 X137.782 Y201.481 E20.16973
G1 X137.269 Y201.162 E20.22468
G1 X136.627 Y200.696 E20.29681
G1 X136.165 Y200.306 E20.35178
G1 X135.729 Y199.888 E20.40675
G1 X135.444 Y199.585 E20.44462
G1 X135.054 Y199.123 E20.49956
G1 X134.693 Y198.637 E20.55458
G1 X134.269 Y197.968 E20.62666
G1 X133.983 Y197.435 E20.68160
G1 X133.805 Y197.058 E20.71947
G1 X133.578 Y196.499 E20.77443
G1 X133.332 Y195.744 E20.84654
G1 X133.188 Y195.157 E20.90154
G1 X133.110 Y194.748 E20.93937
G1 X133.028 Y194.150 E20.99431
G1 X132.984 Y193.546 E21.04931
G1 X132.975 Y136.850 E26.20470
G1 X133.028 Y135.850 E26.29574
G1 X133.110 Y135.252 E26.35067
G1 X133.188 Y134.843 E26.38850
G1 X133.385 Y134.075 E26.46063
G1 X133.514 Y133.679 E26.49847
G1 X133.731 Y133.115 E26.55344
G1 X134.068 Y132.397 E26.62557
G1 X134.365 Y131.870 E26.68051
G1 X134.588 Y131.519 E26.71833
G1 X135.054 Y130.877 E26.79047
G1 X135.682 Y130.161 E26.87712
G1 F4320.000
G1 X135.862 Y129.979 E26.74203
G1 F4320.000
G1 X136.165 Y129.694 E26.52236
G1 F4320.000
G1 X136.307 Y129.569 E26.42289
G1 F4320.000
G1 X136.627 Y129.304 E26.20330
G1 F4320.000
G1 X136.776 Y129.188 E26.10383
G1 F4320.000
G1 X137.113 Y128.943 E25.88398
G1 F4320.000
G1 X137.269 Y128.838 E25.78451
G1 F4320.000
G1 X137.620 Y128.615 E25.56499
G1 F4320.000
G1 X137.782 Y128.519 E25.46553
G1 F4320.000
G1 X138.147 Y128.318 E25.24607
G1 F4320.000
G1 X138.315 Y128.233 E25.14660
G1 F4320.000
G1 X138.692 Y128.055 E24.92677
G1 F4320.000
G1 X138.865 Y127.981 E24.82731
G1 F4320.000
G1 X139.251 Y127.827 E24.60771
G1 F4320.000
G1 X139.429 Y127.764 E24.50824
G1 F4320.000
G1 X139.825 Y127.635 E24.28858
G1 F4320.000
G1 X140.006 Y127.582 E24.18911
G1 F4320.000
G1 X140.303 Y127.506 E24.02712
G1 E23.87712 F2400.00000
G92 E0
G1 X148.767 Y189.627 F5400.000
G1 E3.00000 F2400.00000
G1 F450.000
G1 X148.477 Y190.026 E3.04487
G1 X148.140 Y190.386 E3.08973
G1 X147.605 Y190.801 E3.15130
G1 X147.001 Y191.108 E3.21287
G1 X146.532 Y191.261 E3.25773
G1 X146.070 Y191.349 E3.30046
G1 X145.568 Y191.379 E3.34623
G1 X144.896 Y191.316 E3.40764
G1 X144.221 Y191.120 E3.47151
G1 X143.618 Y190.812 E3.53308
G1 X143.219 Y190.522 E3.57794
G1 X142.859 Y190.185 E3.62281
G1 X142.444 Y189.650 E3.68438
G1 X142.125 Y189.024 E3.74824
G1 X141.929 Y188.349 E3.81211
G1 X141.870 Y187.724 E3.86919
G1 X141.875 Y184.415 E4.17012
G1 X141.936 Y183.926 E4.21489
G1 X142.125 Y183.276 E4.27646
G1 X142.433 Y182.673 E4.33803
G1 X142.723 Y182.274 E4.38289
G1 X143.043 Y181.932 E4.42546
G1 X143.423 Y181.618 E4.47033
G1 X143.984 Y181.286 E4.52959
G1 X144.443 Y181.105 E4.57446
G1 X144.920 Y180.982 E4.61928
G1 X145.588 Y180.918 E4.68024
G1 X146.302 Y180.983 E4.74541
G1 X146.979 Y181.180 E4.80953
G1 X147.605 Y181.499 E4.87340
G1 X148.140 Y181.914 E4.93497
G1 X148.477 Y182.274 E4.97983
G1 X148.767 Y182.673 E5.02470
G1 X149.075 Y183.276 E5.08627
G1 X149.271 Y183.951 E5.15014
G1 X149.330 Y184.576 E5.20721
G1 X149.325 Y187.885 E5.50815
G1 X149.264 Y188.374 E5.55291
G1 X149.075 Y189.024 E5.61448
G1 X148.798 Y189.567 E5.66991
G1 X148.233 Y189.300 F5400.000
G1 F450.000
G1 X147.995 Y189.627 E5.70673
G1 X147.718 Y189.922 E5.74355
G1 X147.268 Y190.271 E5.79527
G1 X146.761 Y190.529 E5.84700
G1 X146.376 Y190.654 E5.88382
G1 X145.993 Y190.728 E5.91934
G1 X145.579 Y190.753 E5.95706
G1 X145.013 Y190.699 E6.00869
G1 X144.452 Y190.536 E6.06181
G1 X143.945 Y190.278 E6.11354
G1 X143.618 Y190.040 E6.15036
G1 X143.323 Y189.763 E6.18718
G1 X142.974 Y189.313 E6.23890
G1 X142.709 Y188.793 E6.29203
G1 X142.546 Y188.232 E6.34515
G1 X142.495 Y187.695 E6.39414
G1 X142.499 Y184.455 E6.68882
G1 X142.550 Y184.054 E6.72558
G1 X142.709 Y183.507 E6.77730
G1 X142.967 Y183.000 E6.82903
G1 X143.205 Y182.673 E6.86585
G1 X143.472 Y182.389 E6.90127
G1 X143.784 Y182.131 E6.93809
G1 X144.260 Y181.849 E6.98841
G1 X144.637 Y181.700 E7.02523
G1 X145.028 Y181.599 E7.06202
G1 X145.589 Y181.546 E7.11323
G1 X146.185 Y181.600 E7.16764
G1 X146.748 Y181.764 E7.22092
G1 X147.268 Y182.029 E7.27405
G1 X147.718 Y182.378 E7.32578
G1 X147.995 Y182.673 E7.36259
G1 X148.233 Y183.000 E7.39941
G1 X148.491 Y183.507 E7.45114
G1 X148.654 Y184.068 E7.50426
G1 X148.705 Y184.605 E7.55325
G1 X148.701 Y187.845 E7.84793
G1 X148.650 Y188.246 E7.88469
G1 X148.491 Y188.793 E7.93642
G1 X148.264 Y189.239 E7.98200
G1 X147.699 Y188.972 F5400.000
G1 F450.000
G1 X147.513 Y189.228 E8.01078
G1 X147.296 Y189.459 E8.03955
G1 X146.932 Y189.741 E8.08143
G1 X146.522 Y189.950 E8.12331
G1 X146.221 Y190.048 E8.15208
G1 X145.915 Y190.106 E8.18039
G1 X145.589 Y190.126 E8.21006
G1 X145.131 Y190.083 E8.25191
G1 X144.683 Y189.953 E8.29430
G1 X144.273 Y189.744 E8.33618
G1 X144.017 Y189.558 E8.36495
G1 X143.786 Y189.341 E8.39372
G1 X143.504 Y188.977 E8.43560
G1 X143.292 Y188.562 E8.47799
G1 X143.162 Y188.114 E8.52037
G1 X143.120 Y187.666 E8.56127
G1 X143.124 Y184.494 E8.84969
G1 X143.164 Y184.181 E8.87845
G1 X143.292 Y183.738 E8.92033
G1 X143.501 Y183.328 E8.96221
G1 X143.687 Y183.072 E8.99098
G1 X143.900 Y182.845 E9.01925
G1 X144.144 Y182.644 E9.04802
G1 X144.536 Y182.412 E9.08940
G1 X144.830 Y182.295 E9.11817
G1 X145.136 Y182.217 E9.14693
G1 X145.590 Y182.174 E9.18841
G1 X146.068 Y182.217 E9.23206
G1 X146.517 Y182.347 E9.27450
G1 X146.932 Y182.559 E9.31688
G1 X147.296 Y182.841 E9.35876
G1 X147.513 Y183.072 E9.38753
G1 X147.699 Y183.328 E9.41631
G1 X147.908 Y183.738 E9.45819
G1 X148.038 Y184.186 E9.50057
G1 X148.080 Y184.634 E9.54147
G1 X148.076 Y187.806 E9.82990
G1 X148.036 Y188.119 E9.85865
G1 X147.908 Y188.562 E9.90053
G1 X147.729 Y188.912 E9.93627
G1 X147.699 Y188.972 F5400.000
G1 F4320.000
G1 X147.699 Y188.972 E9.90065
G1 F4320.000
G1 X147.513 Y189.228 E9.73364
G1 F4320.000
G1 X147.296 Y189.459 E9.56664
G1 F4320.000
G1 X146.932 Y189.741 E9.32355
G1 F4320.000
G1 X146.522 Y189.950 E9.08046
G1 F4320.000
G1 X146.221 Y190.048 E8.91346
G1 F4320.000
G1 X145.915 Y190.106 E8.74917
G1 F4320.000
G1 X145.589 Y190.126 E8.57692
G1 F4320.000
G1 X145.131 Y190.083 E8.33404
G1 F4320.000
G1 X144.683 Y189.953 E8.08803
G1 F4320.000
G1 X144.273 Y189.744 E7.84494
G1 F4320.000
G1 X144.017 Y189.558 E7.67793
G1 F4320.000
G1 X143.786 Y189.341 E7.51093
G1 F4320.000
G1 X143.504 Y188.977 E7.26784
G1 F4320.000
G1 X143.348 Y188.670 E7.08627
G1 E6.93627 F2400.00000
G92 E0
G1 X156.906 Y188.102 F5400.000
G1 E3.00000 F2400.00000
G1 F450.000
G1 X156.870 Y187.724 E3.03445
G1 X156.875 Y184.415 E3.33539
G1 X156.936 Y183.926 E3.38016
G1 X157.125 Y183.276 E3.44172
G1 X157.433 Y182.673 E3.50329
G1 X157.723 Y182.274 E3.54816
G1 X158.043 Y181.932 E3.59073
G1 X158.423 Y181.618 E3.63559
G1 X158.984 Y181.286 E3.69486
G1 X159.443 Y181.105 E3.73972
G1 X159.920 Y180.982 E3.78454
G1 X160.588 Y180.918 E3.84550
G1 X161.302 Y180.983 E3.91067
G1 X161.979 Y181.180 E3.97480
G1 X162.605 Y181.499 E4.03866
G1 X163.140 Y181.914 E4.10023
G1 X163.477 Y182.274 E4.14510
G1 X163.767 Y182.673 E4.18996
G1 X164.075 Y183.276 E4.25153
G1 X164.271 Y183.951 E4.31540
G1 X164.330 Y184.576 E4.37248
G1 X164.325 Y187.885 E4.67341
G1 X164.264 Y188.374 E4.71818
G1 X164.075 Y189.024 E4.77975
G1 X163.767 Y189.627 E4.84131
G1 X163.477 Y190.026 E4.88618
G1 X163.140 Y190.386 E4.93105
G1 X162.605 Y190.801 E4.99261
G1 X162.001 Y191.108 E5.05418
G1 X161.532 Y191.261 E5.09905
G1 X161.070 Y191.349 E5.14178
G1 X160.568 Y191.379 E5.18755
G1 X159.896 Y191.316 E5.24895
G1 X159.221 Y191.120 E5.31282
G1 X158.618 Y190.812 E5.37439
G1 X158.219 Y190.522 E5.41925
G1 X157.859 Y190.185 E5.46412
G1 X157.444 Y189.650 E5.52569
G1 X157.125 Y189.024 E5.58956
G1 X156.929 Y188.349 E5.65343
G1 X156.912 Y188.169 E5.66991
G1 X157.528 Y188.043 F5400.000
G1 F450.000
G1 X157.495 Y187.695 E5.70165
G1 X157.499 Y184.455 E5.99633
G1 X157.550 Y184.054 E6.03309
G1 X157.709 Y183.507 E6.08481
G1 X157.967 Y183.000 E6.13653
G1 X158.205 Y182.673 E6.17335
G1 X158.472 Y182.389 E6.20877
G1 X158.784 Y182.131 E6.24559
G1 X159.260 Y181.849 E6.29591
G1 X159.637 Y181.700 E6.33273
G1 X160.028 Y181.599 E6.36952
G1 X160.589 Y181.546 E6.42074
G1 X161.185 Y181.600 E6.47515
G1 X161.748 Y181.764 E6.52843
G1 X162.268 Y182.029 E6.58156
G1 X162.718 Y182.378 E6.63328
G1 X162.995 Y182.673 E6.67010
G1 X163.233 Y183.000 E6.70692
G1 X163.491 Y183.507 E6.75864
G1 X163.654 Y184.068 E6.81177
G1 X163.705 Y184.605 E6.86076
G1 X163.701 Y187.845 E7.15544
G1 X163.650 Y188.246 E7.19220
G1 X163.491 Y188.793 E7.24392
G1 X163.233 Y189.300 E7.29565
G1 X162.995 Y189.627 E7.33247
G1 X162.718 Y189.922 E7.36929
G1 X162.268 Y190.271 E7.42101
G1 X161.761 Y190.529 E7.47273
G1 X161.376 Y190.654 E7.50955
G1 X160.993 Y190.728 E7.54507
G1 X160.579 Y190.753 E7.58279
G1 X160.013 Y190.699 E7.63442
G1 X159.452 Y190.536 E7.68755
G1 X158.945 Y190.278 E7.73927
G1 X158.618 Y190.040 E7.77609
G1 X158.323 Y189.763 E7.81291
G1 X157.974 Y189.313 E7.86463
G1 X157.709 Y188.793 E7.91776
G1 X157.546 Y188.232 E7.97089
G1 X157.534 Y188.110 E7.98200
G1 X158.150 Y187.984 F5400.000
G1 F450.000
G1 X158.120 Y187.666 E8.01102
G1 X158.124 Y184.494 E8.29944
G1 X158.164 Y184.181 E8.32819
G1 X158.292 Y183.738 E8.37008
G1 X158.501 Y183.328 E8.41196
G1 X158.687 Y183.072 E8.44073
G1 X158.900 Y182.845 E8.46900
G1 X159.144 Y182.644 E8.49777
G1 X159.536 Y182.412 E8.53915
G1 X159.830 Y182.295 E8.56792
G1 X160.136 Y182.217 E8.59668
G1 X160.590 Y182.174 E8.63816
G1 X161.068 Y182.217 E8.68181
G1 X161.517 Y182.347 E8.72425
G1 X161.932 Y182.559 E8.76663
G1 X162.296 Y182.841 E8.80851
G1 X162.513 Y183.072 E8.83728
G1 X162.699 Y183.328 E8.86606
G1 X162.908 Y183.738 E8.90794
G1 X163.038 Y184.186 E8.95032
G1 X163.080 Y184.634 E8.99122
G1 X163.076 Y187.806 E9.27965
G1 X163.036 Y188.119 E9.30840
G1 X162.908 Y188.562 E9.35028
G1 X162.699 Y188.972 E9.39216
G1 X162.513 Y189.228 E9.42093
G1 X162.296 Y189.459 E9.44970
G1 X161.932 Y189.741 E9.49158
G1 X161.522 Y189.950 E9.53347
G1 X161.221 Y190.048 E9.56224
G1 X160.915 Y190.106 E9.59054
G1 X160.589 Y190.126 E9.62022
G1 X160.131 Y190.083 E9.66207
G1 X159.683 Y189.953 E9.70445
G1 X159.273 Y189.744 E9.74633
G1 X159.017 Y189.558 E9.77511
G1 X158.786 Y189.341 E9.80388
G1 X158.504 Y188.977 E9.84576
G1 X158.292 Y188.562 E9.88814
G1 X158.156 Y188.051 E9.93618
G1 X157.854 Y187.866 F5400.000
G1 F4320.000
G1 X158.120 Y187.666 E9.73214
G1 F4320.000
G1 X158.124 Y184.494 E8.05805
G1 F4320.000
G1 X158.164 Y184.181 E7.89117
G1 F4320.000
G1 X158.292 Y183.738 E7.64809
G1 F4320.000
G1 X158.501 Y183.328 E7.40500
G1 F4320.000
G1 X158.687 Y183.072 E7.23799
G1 F4320.000
G1 X158.884 Y182.862 E7.08618
G1 E6.93618 F2400.00000
G92 E0
G1 X154.035 Y174.058 F5400.000
G1 E3.00000 F2400.00000
G1 F450.000
G1 X153.448 Y174.151 E3.05403
G1 X152.854 Y174.132 E3.10805
G1 X152.274 Y174.002 E3.16209
G1 X151.729 Y173.766 E3.21611
G1 X151.238 Y173.432 E3.27014
G1 X150.800 Y172.994 E3.32648
G1 X150.402 Y172.368 E3.39393
G1 X150.192 Y171.785 E3.45027
G1 X150.099 Y171.198 E3.50430
G1 X150.118 Y170.604 E3.55832
G1 X150.248 Y170.024 E3.61236
G1 X150.484 Y169.479 E3.66638
G1 X150.818 Y168.988 E3.72041
G1 X151.256 Y168.550 E3.77675
G1 X151.882 Y168.152 E3.84420
G1 X152.465 Y167.942 E3.90054
G1 X153.052 Y167.849 E3.95457
G1 X153.646 Y167.868 E4.00859
G1 X154.226 Y167.998 E4.06262
G1 X154.771 Y168.234 E4.11665
G1 X155.262 Y168.568 E4.17068
G1 X155.700 Y169.006 E4.22702
G1 X156.098 Y169.632 E4.29447
G1 X156.308 Y170.215 E4.35080
G1 X156.401 Y170.802 E4.40483
G1 X156.382 Y171.396 E4.45886
G1 X156.252 Y171.976 E4.51289
G1 X156.016 Y172.521 E4.56692
G1 X155.682 Y173.012 E4.62094
G1 X155.244 Y173.450 E4.67728
G1 X154.618 Y173.848 E4.74473
G1 X154.099 Y174.035 E4.79494
G1 X153.879 Y173.450 F5400.000
G1 F450.000
G1 X153.409 Y173.524 E4.83822
G1 X152.933 Y173.509 E4.88151
G1 X152.468 Y173.405 E4.92480
G1 X152.032 Y173.216 E4.96808
G1 X151.638 Y172.949 E5.01137
G1 X151.290 Y172.601 E5.05606
G1 X150.967 Y172.091 E5.11096
G1 X150.800 Y171.629 E5.15566
G1 X150.726 Y171.159 E5.19894
G1 X150.741 Y170.683 E5.24223
G1 X150.845 Y170.218 E5.28552
G1 X151.034 Y169.782 E5.32880
G1 X151.301 Y169.388 E5.37209
G1 X151.649 Y169.040 E5.41678
G1 X152.159 Y168.717 E5.47169
G1 X152.621 Y168.550 E5.51638
G1 X153.091 Y168.476 E5.55967
G1 X153.567 Y168.491 E5.60295
G1 X154.032 Y168.595 E5.64624
G1 X154.468 Y168.784 E5.68953
G1 X154.862 Y169.051 E5.73281
G1 X155.210 Y169.399 E5.77751
G1 X155.533 Y169.909 E5.83241
G1 X155.700 Y170.371 E5.87710
G1 X155.774 Y170.841 E5.92039
G1 X155.759 Y171.317 E5.96367
G1 X155.655 Y171.782 E6.00696
G1 X155.466 Y172.218 E6.05025
G1 X155.199 Y172.612 E6.09353
G1 X154.851 Y172.960 E6.13823
G1 X154.341 Y173.283 E6.19313
G1 X153.943 Y173.427 E6.23169
G1 X153.723 Y172.842 F5400.000
G1 F450.000
G1 X153.369 Y172.898 E6.26423
G1 X153.012 Y172.887 E6.29678
G1 X152.662 Y172.808 E6.32932
G1 X152.334 Y172.666 E6.36186
G1 X152.038 Y172.465 E6.39441
G1 X151.781 Y172.208 E6.42746
G1 X151.531 Y171.815 E6.46981
G1 X151.408 Y171.473 E6.50286
G1 X151.352 Y171.119 E6.53541
G1 X151.363 Y170.762 E6.56795
G1 X151.442 Y170.412 E6.60050
G1 X151.584 Y170.084 E6.63304
G1 X151.785 Y169.788 E6.66558
G1 X152.042 Y169.531 E6.69863
G1 X152.435 Y169.281 E6.74099
G1 X152.777 Y169.158 E6.77404
G1 X153.131 Y169.102 E6.80658
G1 X153.488 Y169.113 E6.83913
