; generated by Slic3r 1.3.1-dev (Build 18ddd3a36dc69d81fb9b7440498bff9e1dde8b7e) on 2021-08-28 at 16:42:12

; external perimeters extrusion width = 0.49mm (3.88mm^3/s)
; perimeters extrusion width = 0.59mm (9.54mm^3/s)
; infill extrusion width = 0.56mm (11.95mm^3/s)
; solid infill extrusion width = 0.59mm (3.18mm^3/s)
; top infill extrusion width = 0.59mm (2.39mm^3/s)
; support material extrusion width = 0.49mm (7.75mm^3/s)

M107
G92 E0
M190 S45 ; set bed temperature and wait for it to be reached
M104 S226 ; set temperature
G28 ; home all axes
G1 Z5 F5000 ; lift nozzle

; Filament gcode

M109 S226 ; set temperature and wait for it to be reached
G21 ; set units to millimeters
G90 ; use absolute coordinates
M82 ; use absolute distances for extrusion
G92 E0
G1 E-3.00000 F2400.00000
G92 E0
G1 Z0.350 F5400.000
G1 X135.729 Y130.112 F5400.000
G1 E3.00000 F2400.00000
G1 F1800.000
G1 X136.307 Y129.569 E3.07210
G1 X136.776 Y129.188 E3.12707
G1 X137.113 Y128.943 E3.16495
G1 X137.782 Y128.519 E3.23703
G1 X138.315 Y128.233 E3.29196
G1 X138.692 Y128.055 E3.32984
G1 X139.429 Y127.764 E3.40193
G1 X140.006 Y127.582 E3.45691
G1 X140.409 Y127.479 E3.49477
G1 X141.188 Y127.330 E3.56686
G1 X141.788 Y127.260 E3.62180
G1 X142.204 Y127.234 E3.65968
G1 X187.400 Y127.225 E7.76937
G1 X188.400 Y127.278 E7.86041
G1 X188.998 Y127.360 E7.91534
G1 X189.591 Y127.479 E7.97030
G1 X189.994 Y127.582 E8.00817
G1 X190.571 Y127.764 E8.06315
G1 X191.135 Y127.981 E8.11812
G1 X191.685 Y128.233 E8.17312
G1 X192.218 Y128.519 E8.22806
G1 X192.731 Y128.838 E8.28301
G1 X193.373 Y129.304 E8.35514
G1 X193.835 Y129.694 E8.41011
G1 X194.138 Y129.979 E8.44796
G1 X194.556 Y130.415 E8.50294
G1 X194.946 Y130.877 E8.55791
G1 X195.307 Y131.363 E8.61291
G1 X195.731 Y132.032 E8.68499
G1 X196.017 Y132.565 E8.73993
G1 X196.195 Y132.942 E8.77781
G1 X196.423 Y133.502 E8.83278
G1 X196.668 Y134.256 E8.90487
G1 X196.812 Y134.843 E8.95987
G1 X196.890 Y135.252 E8.99770
G1 X196.972 Y135.850 E9.05265
G1 X197.016 Y136.454 E9.10765
G1 X197.022 Y193.358 E14.28195
G1 X196.972 Y194.150 E14.35408
G1 X196.890 Y194.748 E14.40902
G1 X196.771 Y195.341 E14.46399
G1 X196.668 Y195.744 E14.50186
G1 X196.486 Y196.321 E14.55683
G1 X196.269 Y196.885 E14.61179
G1 X196.017 Y197.435 E14.66680
G1 X195.731 Y197.968 E14.72174
G1 X195.412 Y198.481 E14.77669
G1 X194.946 Y199.123 E14.84883
G1 X194.556 Y199.585 E14.90379
G1 X194.138 Y200.021 E14.95877
G1 X193.835 Y200.306 E14.99661
G1 X193.373 Y200.696 E15.05159
G1 X192.887 Y201.057 E15.10659
G1 X192.218 Y201.481 E15.17867
G1 X191.685 Y201.767 E15.23362
G1 X191.308 Y201.945 E15.27149
G1 X190.749 Y202.172 E15.32644
G1 X189.994 Y202.418 E15.39855
G1 X189.407 Y202.562 E15.45356
G1 X188.998 Y202.640 E15.49138
G1 X188.400 Y202.722 E15.54631
G1 X187.796 Y202.766 E15.60132
G1 X142.392 Y202.772 E19.72994
G1 X141.600 Y202.722 E19.80208
G1 X141.002 Y202.640 E19.85701
G1 X140.409 Y202.521 E19.91196
G1 X140.006 Y202.418 E19.94984
G1 X139.429 Y202.236 E20.00482
G1 X138.865 Y202.019 E20.05978
G1 X138.315 Y201.767 E20.11478
G1 X137.782 Y201.481 E20.16973
G1 X137.269 Y201.162 E20.22468
G1 X136.627 Y200.696 E20.29681
G1 X136.165 Y200.306 E20.35178
G1 X135.729 Y199.888 E20.40675
G1 X135.444 Y199.585 E20.44461
G1 X135.054 Y199.123 E20.49957
G1 X134.693 Y198.637 E20.55458
G1 X134.269 Y197.968 E20.62666
G1 X133.983 Y197.435 E20.68160
G1 X133.805 Y197.058 E20.71947
G1 X133.577 Y196.499 E20.77443
G1 X133.332 Y195.744 E20.84654
G1 X133.188 Y195.157 E20.90154
G1 X133.110 Y194.748 E20.93937
G1 X133.028 Y194.150 E20.99431
G1 X132.984 Y193.546 E21.04931
G1 X132.975 Y136.850 E26.20470
G1 X133.028 Y135.850 E26.29573
G1 X133.110 Y135.252 E26.35067
G1 X133.188 Y134.843 E26.38850
G1 X133.385 Y134.075 E26.46063
G1 X133.514 Y133.679 E26.49847
G1 X133.731 Y133.115 E26.55344
G1 X134.068 Y132.397 E26.62557
G1 X134.365 Y131.870 E26.68051
G1 X134.588 Y131.519 E26.71833
G1 X135.054 Y130.877 E26.79047
G1 X135.682 Y130.161 E26.87712
G1 F4320.000
G1 X135.862 Y129.979 E26.74203
G1 F4320.000
G1 X136.165 Y129.694 E26.52236
G1 F4320.000
G1 X136.307 Y129.569 E26.42289
G1 F4320.000
G1 X136.627 Y129.304 E26.20330
G1 F4320.000
G1 X136.776 Y129.188 E26.10383
G1 F4320.000
G1 X137.113 Y128.943 E25.88397
G1 F4320.000
G1 X137.269 Y128.838 E25.78450
G1 F4320.000
G1 X137.620 Y128.615 E25.56498
G1 F4320.000
G1 X137.782 Y128.519 E25.46552
G1 F4320.000
G1 X138.147 Y128.318 E25.24609
G1 F4320.000
G1 X138.315 Y128.233 E25.14662
G1 F4320.000
G1 X138.692 Y128.055 E24.92676
G1 F4320.000
G1 X138.865 Y127.981 E24.82730
G1 F4320.000
G1 X139.251 Y127.827 E24.60771
G1 F4320.000
G1 X139.429 Y127.764 E24.50824
G1 F4320.000
G1 X139.825 Y127.635 E24.28857
G1 F4320.000
G1 X140.006 Y127.582 E24.18910
G1 F4320.000
G1 X140.303 Y127.506 E24.02712
G1 E23.87712 F2400.00000
G92 E0
G1 X187.682 Y193.012 F5400.000
G1 E3.00000 F2400.00000
G1 F450.000
G1 X187.244 Y193.450 E3.05634
G1 X186.618 Y193.848 E3.12379
G1 X186.035 Y194.058 E3.18013
G1 X185.448 Y194.151 E3.23416
G1 X184.854 Y194.132 E3.28818
G1 X184.274 Y194.002 E3.34222
G1 X183.729 Y193.766 E3.39624
G1 X183.238 Y193.432 E3.45027
G1 X182.800 Y192.994 E3.50661
G1 X182.402 Y192.368 E3.57406
G1 X182.192 Y191.785 E3.63040
G1 X182.099 Y191.198 E3.68443
G1 X182.118 Y190.604 E3.73845
G1 X182.248 Y190.024 E3.79248
G1 X182.484 Y189.479 E3.84651
G1 X182.818 Y188.988 E3.90054
G1 X183.256 Y188.550 E3.95688
G1 X183.882 Y188.152 E4.02433
G1 X184.465 Y187.942 E4.08067
G1 X185.052 Y187.849 E4.13470
G1 X185.646 Y187.868 E4.18872
G1 X186.226 Y187.998 E4.24275
G1 X186.771 Y188.234 E4.29678
G1 X187.262 Y188.568 E4.35081
G1 X187.700 Y189.006 E4.40715
G1 X188.098 Y189.632 E4.47460
G1 X188.308 Y190.215 E4.53094
G1 X188.401 Y190.802 E4.58496
G1 X188.382 Y191.396 E4.63899
G1 X188.252 Y191.976 E4.69302
G1 X188.016 Y192.521 E4.74705
G1 X187.720 Y192.956 E4.79494
G1 X187.199 Y192.612 F5400.000
G1 F450.000
G1 X186.851 Y192.960 E4.83963
G1 X186.341 Y193.283 E4.89453
G1 X185.879 Y193.450 E4.93923
G1 X185.409 Y193.524 E4.98252
G1 X184.933 Y193.509 E5.02580
G1 X184.468 Y193.405 E5.06909
G1 X184.032 Y193.216 E5.11237
G1 X183.638 Y192.949 E5.15566
G1 X183.290 Y192.601 E5.20035
G1 X182.967 Y192.091 E5.25526
G1 X182.800 Y191.629 E5.29995
G1 X182.726 Y191.159 E5.34324
G1 X182.741 Y190.683 E5.38652
G1 X182.845 Y190.218 E5.42981
G1 X183.034 Y189.782 E5.47310
G1 X183.301 Y189.388 E5.51638
G1 X183.649 Y189.040 E5.56108
G1 X184.159 Y188.717 E5.61598
G1 X184.621 Y188.550 E5.66067
G1 X185.091 Y188.476 E5.70396
G1 X185.567 Y188.491 E5.74725
G1 X186.032 Y188.595 E5.79053
G1 X186.468 Y188.784 E5.83382
G1 X186.862 Y189.051 E5.87710
G1 X187.210 Y189.399 E5.92180
G1 X187.533 Y189.909 E5.97670
G1 X187.700 Y190.371 E6.02140
G1 X187.774 Y190.841 E6.06468
G1 X187.759 Y191.317 E6.10797
G1 X187.655 Y191.782 E6.15126
G1 X187.466 Y192.218 E6.19454
G1 X187.237 Y192.556 E6.23169
G1 X186.715 Y192.212 F5400.000
G1 F450.000
G1 X186.458 Y192.469 E6.26474
G1 X186.065 Y192.719 E6.30709
G1 X185.723 Y192.842 E6.34014
G1 X185.369 Y192.898 E6.37269
G1 X185.012 Y192.887 E6.40523
G1 X184.662 Y192.808 E6.43778
G1 X184.334 Y192.666 E6.47032
G1 X184.038 Y192.465 E6.50286
G1 X183.781 Y192.208 E6.53591
G1 X183.531 Y191.815 E6.57827
G1 X183.408 Y191.473 E6.61132
G1 X183.352 Y191.119 E6.64386
G1 X183.363 Y190.762 E6.67641
G1 X183.442 Y190.412 E6.70895
G1 X183.584 Y190.084 E6.74150
G1 X183.785 Y189.788 E6.77404
G1 X184.042 Y189.531 E6.80709
G1 X184.435 Y189.281 E6.84945
G1 X184.777 Y189.158 E6.88250
G1 X185.131 Y189.102 E6.91504
G1 X185.488 Y189.113 E6.94758
G1 X185.838 Y189.191 E6.98013
G1 X186.166 Y189.334 E7.01267
G1 X186.462 Y189.535 E7.04522
G1 X186.719 Y189.792 E7.07827
G1 X186.969 Y190.185 E7.12062
G1 X187.092 Y190.527 E7.15367
G1 X187.148 Y190.881 E7.18622
G1 X187.137 Y191.238 E7.21876
G1 X187.058 Y191.588 E7.25130
G1 X186.916 Y191.916 E7.28385
G1 X186.753 Y192.156 E7.31025
G1 X186.715 Y192.212 F5400.000
G1 F4320.000
G1 X186.715 Y192.212 E7.27463
G1 F4320.000
G1 X186.458 Y192.469 E7.08280
G1 F4320.000
G1 X186.065 Y192.719 E6.83695
G1 F4320.000
G1 X185.723 Y192.842 E6.64512
G1 F4320.000
G1 X185.369 Y192.898 E6.45623
G1 F4320.000
G1 X185.012 Y192.887 E6.26734
G1 F4320.000
G1 X184.662 Y192.808 E6.07844
G1 F4320.000
G1 X184.334 Y192.666 E5.88955
G1 F4320.000
G1 X184.038 Y192.465 E5.70066
G1 F4320.000
G1 X183.781 Y192.208 E5.50883
G1 F4320.000
G1 X183.531 Y191.815 E5.26298
G1 F4320.000
G1 X183.408 Y191.473 E5.07115
G1 F4320.000
G1 X183.352 Y191.119 E4.88226
G1 F4320.000
G1 X183.363 Y190.762 E4.69337
G1 F4320.000
G1 X183.442 Y190.412 E4.50446
G1 F4320.000
G1 X183.475 Y190.335 E4.46025
G1 E4.31025 F2400.00000
G92 E0
G1 X178.635 Y184.132 F5400.000
G1 E3.00000 F2400.00000
G1 F1800.000
G1 X178.218 Y184.550 E3.05369
G1 X177.601 Y185.094 E3.12853
G1 X176.950 Y185.599 E3.20336
G1 X176.270 Y186.061 E3.27819
G1 X175.561 Y186.480 E3.35303
G1 X174.828 Y186.854 E3.42786
G1 X174.073 Y187.181 E3.50270
G1 X173.298 Y187.459 E3.57754
G1 X172.508 Y187.689 E3.65237
G1 X171.705 Y187.869 E3.72720
G1 X170.892 Y187.997 E3.80204
G1 X170.073 Y188.075 E3.87687
G1 X169.250 Y188.101 E3.95171
G1 X168.427 Y188.075 E4.02654
G1 X167.608 Y187.997 E4.10138
G1 X166.795 Y187.869 E4.17621
G1 X165.992 Y187.689 E4.25104
G1 X165.202 Y187.459 E4.32588
G1 X164.427 Y187.181 E4.40072
G1 X163.672 Y186.854 E4.47555
G1 X162.939 Y186.480 E4.55039
G1 X162.230 Y186.061 E4.62522
G1 X161.550 Y185.599 E4.70005
G1 X160.899 Y185.094 E4.77489
G1 X160.282 Y184.550 E4.84972
G1 X159.700 Y183.968 E4.92456
G1 X159.156 Y183.351 E4.99940
G1 X158.651 Y182.700 E5.07423
G1 X158.189 Y182.020 E5.14906
G1 X157.770 Y181.311 E5.22390
G1 X157.396 Y180.578 E5.29873
G1 X157.069 Y179.823 E5.37357
G1 X156.791 Y179.048 E5.44840
G1 X156.561 Y178.258 E5.52324
G1 X156.381 Y177.455 E5.59807
G1 X156.253 Y176.642 E5.67291
G1 X156.175 Y175.823 E5.74774
G1 X156.149 Y175.000 E5.82258
G1 X156.175 Y174.177 E5.89741
G1 X156.253 Y173.358 E5.97224
G1 X156.381 Y172.545 E6.04708
G1 X156.561 Y171.742 E6.12191
G1 X156.791 Y170.952 E6.19675
G1 X157.069 Y170.177 E6.27159
G1 X157.396 Y169.422 E6.34642
G1 X157.770 Y168.689 E6.42125
G1 X158.189 Y167.980 E6.49609
G1 X158.651 Y167.300 E6.57092
G1 X159.156 Y166.649 E6.64576
G1 X159.700 Y166.032 E6.72059
G1 X160.282 Y165.450 E6.79543
G1 X160.899 Y164.906 E6.87026
G1 X161.550 Y164.401 E6.94510
G1 X162.230 Y163.939 E7.01993
G1 X162.939 Y163.520 E7.09477
G1 X163.672 Y163.146 E7.16960
G1 X164.427 Y162.819 E7.24444
G1 X165.202 Y162.541 E7.31927
G1 X165.992 Y162.311 E7.39411
G1 X166.795 Y162.131 E7.46894
G1 X167.608 Y162.003 E7.54378
G1 X168.427 Y161.925 E7.61861
G1 X169.250 Y161.899 E7.69345
G1 X170.073 Y161.925 E7.76828
G1 X170.892 Y162.003 E7.84311
G1 X171.705 Y162.131 E7.91795
G1 X172.508 Y162.311 E7.99278
G1 X173.298 Y162.541 E8.06762
G1 X174.073 Y162.819 E8.14245
G1 X174.828 Y163.146 E8.21729
G1 X175.561 Y163.520 E8.29212
G1 X176.270 Y163.939 E8.36696
G1 X176.950 Y164.401 E8.44179
G1 X177.601 Y164.906 E8.51663
G1 X178.218 Y165.450 E8.59146
G1 X178.800 Y166.032 E8.66630
G1 X179.344 Y166.649 E8.74113
G1 X179.849 Y167.300 E8.81597
G1 X180.311 Y167.980 E8.89080
G1 X180.730 Y168.689 E8.96564
G1 X181.104 Y169.422 E9.04047
G1 X181.431 Y170.177 E9.11531
G1 X181.709 Y170.952 E9.19014
G1 X181.939 Y171.742 E9.26498
G1 X182.119 Y172.545 E9.33981
G1 X182.247 Y173.358 E9.41465
G1 X182.325 Y174.177 E9.48948
G1 X182.351 Y175.000 E9.56431
G1 X182.325 Y175.823 E9.63915
G1 X182.247 Y176.642 E9.71398
G1 X182.119 Y177.455 E9.78882
G1 X181.939 Y178.258 E9.86365
G1 X181.709 Y179.048 E9.93849
G1 X181.431 Y179.823 E10.01332
G1 X181.104 Y180.578 E10.08816
G1 X180.730 Y181.311 E10.16299
G1 X180.311 Y182.020 E10.23783
G1 X179.849 Y182.700 E10.31266
G1 X179.344 Y183.351 E10.38750
G1 X178.683 Y184.085 E10.47731
G1 X178.194 Y183.691 F5400.000
G1 F1800.000
G1 X177.790 Y184.094 E10.52922
G1 X177.202 Y184.612 E10.60048
G1 X176.583 Y185.093 E10.67175
G1 X175.935 Y185.533 E10.74301
G1 X175.260 Y185.932 E10.81427
G1 X174.562 Y186.288 E10.88554
G1 X173.842 Y186.599 E10.95680
G1 X173.105 Y186.865 E11.02806
G1 X172.352 Y187.083 E11.09933
G1 X171.588 Y187.254 E11.17059
G1 X170.814 Y187.377 E11.24185
G1 X170.033 Y187.451 E11.31312
G1 X169.250 Y187.475 E11.38438
G1 X168.467 Y187.451 E11.45564
G1 X167.686 Y187.377 E11.52691
G1 X166.912 Y187.254 E11.59817
G1 X166.148 Y187.083 E11.66943
G1 X165.395 Y186.865 E11.74069
G1 X164.658 Y186.599 E11.81196
G1 X163.938 Y186.288 E11.88322
G1 X163.240 Y185.932 E11.95449
G1 X162.565 Y185.533 E12.02575
G1 X161.917 Y185.093 E12.09701
G1 X161.298 Y184.612 E12.16828
G1 X160.710 Y184.094 E12.23954
G1 X160.156 Y183.540 E12.31080
G1 X159.638 Y182.952 E12.38207
G1 X159.157 Y182.333 E12.45333
G1 X158.717 Y181.685 E12.52459
G1 X158.318 Y181.010 E12.59586
G1 X157.962 Y180.312 E12.66712
G1 X157.651 Y179.592 E12.73838
G1 X157.385 Y178.855 E12.80965
G1 X157.167 Y178.102 E12.88091
G1 X156.996 Y177.338 E12.95218
G1 X156.873 Y176.564 E13.02344
G1 X156.799 Y175.783 E13.09470
G1 X156.775 Y175.000 E13.16597
G1 X156.799 Y174.217 E13.23723
G1 X156.873 Y173.436 E13.30849
G1 X156.996 Y172.662 E13.37976
G1 X157.167 Y171.898 E13.45102
G1 X157.385 Y171.145 E13.52228
G1 X157.651 Y170.408 E13.59355
G1 X157.962 Y169.688 E13.66481
G1 X158.318 Y168.990 E13.73607
G1 X158.717 Y168.315 E13.80734
G1 X159.157 Y167.667 E13.87860
G1 X159.638 Y167.048 E13.94986
G1 X160.156 Y166.460 E14.02113
G1 X160.710 Y165.906 E14.09239
G1 X161.298 Y165.388 E14.16365
G1 X161.917 Y164.907 E14.23492
G1 X162.565 Y164.467 E14.30618
G1 X163.240 Y164.068 E14.37744
G1 X163.938 Y163.712 E14.44871
G1 X164.658 Y163.401 E14.51997
G1 X165.395 Y163.135 E14.59124
G1 X166.148 Y162.917 E14.66250
G1 X166.912 Y162.746 E14.73376
G1 X167.686 Y162.623 E14.80502
G1 X168.467 Y162.549 E14.87629
G1 X169.250 Y162.525 E14.94755
G1 X170.033 Y162.549 E15.01881
G1 X170.814 Y162.623 E15.09008
G1 X171.588 Y162.746 E15.16134
G1 X172.352 Y162.917 E15.23260
G1 X173.105 Y163.135 E15.30387
G1 X173.842 Y163.401 E15.37513
G1 X174.562 Y163.712 E15.44640
G1 X175.260 Y164.068 E15.51766
G1 X175.935 Y164.467 E15.58892
G1 X176.583 Y164.907 E15.66019
G1 X177.202 Y165.388 E15.73145
G1 X177.790 Y165.906 E15.80271
G1 X178.344 Y166.460 E15.87398
G1 X178.862 Y167.048 E15.94524
G1 X179.343 Y167.667 E16.01650
G1 X179.783 Y168.315 E16.08777
G1 X180.182 Y168.990 E16.15903
G1 X180.538 Y169.688 E16.23029
G1 X180.849 Y170.408 E16.30156
G1 X181.115 Y171.145 E16.37282
G1 X181.333 Y171.898 E16.44408
G1 X181.504 Y172.662 E16.51535
G1 X181.627 Y173.436 E16.58661
G1 X181.701 Y174.217 E16.65787
G1 X181.725 Y175.000 E16.72914
G1 X181.701 Y175.783 E16.80040
G1 X181.627 Y176.564 E16.87166
G1 X181.504 Y177.338 E16.94293
G1 X181.333 Y178.102 E17.01419
G1 X181.115 Y178.855 E17.08545
G1 X180.849 Y179.592 E17.15672
G1 X180.538 Y180.312 E17.22798
G1 X180.182 Y181.010 E17.29924
G1 X179.783 Y181.685 E17.37051
G1 X179.343 Y182.333 E17.44177
G1 X178.862 Y182.952 E17.51303
G1 X178.241 Y183.643 E17.59750
G1 X177.752 Y183.249 F5400.000
G1 F900.000
G1 X177.362 Y183.638 E17.64762
G1 X176.804 Y184.131 E17.71531
G1 X176.215 Y184.587 E17.78300
G1 X175.600 Y185.005 E17.85069
G1 X174.959 Y185.384 E17.91838
G1 X174.296 Y185.722 E17.98608
G1 X173.612 Y186.018 E18.05377
G1 X172.912 Y186.270 E18.12146
G1 X172.197 Y186.478 E18.18915
G1 X171.470 Y186.640 E18.25685
G1 X170.735 Y186.757 E18.32454
G1 X169.994 Y186.827 E18.39223
G1 X169.250 Y186.850 E18.45992
G1 X168.506 Y186.827 E18.52761
G1 X167.765 Y186.757 E18.59531
G1 X167.030 Y186.640 E18.66300
G1 X166.303 Y186.478 E18.73069
G1 X165.588 Y186.270 E18.79838
G1 X164.888 Y186.018 E18.86607
G1 X164.204 Y185.722 E18.93377
G1 X163.541 Y185.384 E19.00146
G1 X162.900 Y185.005 E19.06915
G1 X162.285 Y184.587 E19.13684
G1 X161.696 Y184.131 E19.20453
G1 X161.138 Y183.638 E19.27223
G1 X160.612 Y183.112 E19.33992
G1 X160.119 Y182.554 E19.40761
G1 X159.663 Y181.965 E19.47530
G1 X159.245 Y181.350 E19.54299
G1 X158.866 Y180.709 E19.61069
G1 X158.528 Y180.046 E19.67838
G1 X158.232 Y179.362 E19.74607
G1 X157.980 Y178.662 E19.81376
G1 X157.772 Y177.947 E19.88146
G1 X157.610 Y177.220 E19.94915
G1 X157.493 Y176.485 E20.01684
G1 X157.423 Y175.744 E20.08453
G1 X157.400 Y175.000 E20.15222
G1 X157.423 Y174.256 E20.21991
