; generated by Slic3r 1.3.1-dev (Build 18ddd3a36dc69d81fb9b7440498bff9e1dde8b7e) on 2021-07-09 at 14:59:56

; external perimeters extrusion width = 0.49mm (2.26mm^3/s)
; perimeters extrusion width = 0.63mm (3.52mm^3/s)
; infill extrusion width = 0.56mm (4.16mm^3/s)
; solid infill extrusion width = 0.63mm (1.17mm^3/s)
; top infill extrusion width = 0.63mm (0.94mm^3/s)
; support material extrusion width = 0.49mm (2.71mm^3/s)

M107
G92 E0
M190 S100 ; set bed temperature and wait for it to be reached
M104 S240 ; set temperature
G28 ; home all axes
G1 Z5 F5000 ; lift nozzle

; Filament gcode

M109 S240 ; set temperature and wait for it to be reached
G21 ; set units to millimeters
G90 ; use absolute coordinates
M82 ; use absolute distances for extrusion
G92 E0
G1 E-5.00000 F2400.00000
G92 E0
G1 Z0.350 F4200.000
G1 X85.040 Y90.003 F4200.000
G1 E5.00000 F2400.00000
G1 F900.000
G1 X86.793 Y88.524 E5.20854
G1 X88.635 Y87.795 E5.38869
G1 X134.135 Y77.295 E9.63472
G1 X135.625 Y77.125 E9.77105
G1 X137.875 Y77.125 E9.97565
G1 X140.134 Y77.522 E10.18419
G1 X142.082 Y78.633 E10.38811
G1 X145.372 Y81.337 E10.77541
G1 X146.865 Y83.079 E10.98395
G1 X147.675 Y85.224 E11.19249
G1 X147.790 Y86.455 E11.30487
G1 X147.790 Y134.295 E15.65495
G1 X147.393 Y136.554 E15.86350
G1 X145.592 Y139.224 E16.15636
G1 X142.302 Y142.179 E16.55848
G1 X140.356 Y143.393 E16.76702
G1 X139.165 Y143.748 E16.88000
G1 X93.840 Y152.748 E21.08185
G1 X92.550 Y152.875 E21.19974
G1 X90.125 Y152.875 E21.42024
G1 X87.866 Y152.478 E21.62878
G1 X85.878 Y151.335 E21.83732
G1 X84.399 Y149.582 E22.04587
G1 X83.606 Y147.430 E22.25441
G1 X83.500 Y146.250 E22.36212
G1 X83.500 Y94.250 E27.09046
G1 X83.897 Y91.991 E27.29900
G1 X85.007 Y90.062 E27.50140
G1 F3360.000
G1 X86.793 Y88.524 E25.90200
G1 F3360.000
G1 X88.635 Y87.795 E24.55761
G1 F3360.000
G1 X91.229 Y87.196 E22.75140
G1 E22.50140 F2400.00000
G92 E0
G1 X110.015 Y134.011 F4200.000
G1 E5.00000 F2400.00000
G1 F900.000
G1 X117.150 Y134.011 E5.64878
G1 X117.150 Y135.650 E5.79781
G1 X97.089 Y135.650 E7.62199
G1 X98.275 Y127.328 E8.38637
G1 X98.275 Y122.429 E8.83179
G1 X110.015 Y122.429 E9.89934
G1 X110.015 Y133.944 E10.94633
G1 X110.640 Y133.386 F4200.000
G1 F900.000
G1 X116.854 Y133.386 E11.51136
G1 X117.775 Y132.906 E11.60583
G1 X117.775 Y136.275 E11.91218
G1 X91.575 Y136.275 E14.29454
G1 X91.575 Y145.275 E15.11290
G1 X91.100 Y145.275 E15.15611
G1 X91.100 Y135.654 E16.03097
G1 X91.529 Y135.225 E16.08613
G1 X96.518 Y135.225 E16.53982
G1 X97.650 Y127.284 E17.26920
G1 X97.650 Y121.805 E17.76741
G1 X110.640 Y121.805 E18.94861
G1 X110.640 Y133.319 E19.99560
G1 X111.265 Y132.762 F4200.000
G1 F750.000
G1 X116.701 Y132.762 E20.48988
G1 X118.400 Y131.875 E20.66414
G1 X118.400 Y136.900 E21.12103
G1 X92.200 Y136.900 E23.50338
G1 X92.200 Y145.900 E24.32175
G1 X90.475 Y145.900 E24.47860
G1 X90.475 Y135.395 E25.43382
G1 X91.270 Y134.600 E25.53605
G1 X95.976 Y134.600 E25.96397
G1 X97.025 Y127.239 E26.64004
G1 X97.025 Y121.180 E27.19104
G1 X111.265 Y121.180 E28.48588
G1 X111.265 Y132.694 E29.53287
G1 X111.396 Y133.192 F4200.000
G1 F3360.000
G1 X116.701 Y132.762 E25.84402
G1 F3360.000
G1 X118.087 Y132.038 E24.78287
G1 E24.53287 F2400.00000
G92 E0
G1 X126.350 Y130.900 F4200.000
G1 E5.00000 F2400.00000
G1 F900.000
G1 X123.590 Y130.900 E5.25093
G1 X123.520 Y130.615 E5.27767
G1 X130.018 Y127.226 E5.94407
G1 X130.213 Y127.429 E5.96965
G1 X129.813 Y128.122 E6.04246
G1 X129.559 Y128.750 E6.10403
G1 X129.395 Y129.407 E6.16560
G1 X129.327 Y130.053 E6.22463
G1 X129.327 Y130.447 E6.26051
G1 X129.395 Y131.093 E6.31953
G1 X129.559 Y131.750 E6.38111
G1 X129.813 Y132.378 E6.44268
G1 X130.151 Y132.964 E6.50425
G1 X130.551 Y133.476 E6.56328
G1 X130.825 Y133.759 E6.59915
G1 X131.322 Y134.177 E6.65817
G1 X131.896 Y134.536 E6.71975
G1 X132.515 Y134.811 E6.78132
G1 X133.139 Y134.990 E6.84034
G1 X133.527 Y135.058 E6.87622
G1 X134.119 Y135.100 E6.93015
G1 X137.763 Y135.100 E7.26147
G1 X137.212 Y135.650 E7.33225
G1 X126.350 Y135.650 E8.31998
G1 X126.350 Y130.968 E8.74576
G1 F3360.000
G1 X123.590 Y130.900 E6.87262
G1 F3360.000
G1 X123.520 Y130.615 E6.67303
G1 F3360.000
G1 X127.018 Y128.790 E3.99576
G1 E3.74576 F2400.00000
G92 E0
G1 X134.136 Y125.400 F4200.000
G1 E5.00000 F2400.00000
G1 F240.000
G1 X134.066 Y125.115 E5.02675
G1 X138.275 Y122.919 E5.45840
G1 X138.275 Y125.400 E5.68398
G1 X134.204 Y125.400 E6.05420
G1 F3360.000
G1 X134.066 Y125.115 E5.83906
G1 F3360.000
G1 X138.275 Y122.919 E2.61782
G1 F3360.000
G1 X138.275 Y124.855 E1.30420
G1 E1.05420 F2400.00000
G92 E0
G1 X138.275 Y108.740 F4200.000
G1 E5.00000 F2400.00000
G1 F240.000
G1 X133.735 Y106.372 E5.46562
G1 X133.818 Y106.079 E5.49334
G1 X134.119 Y106.100 E5.52081
G1 X138.275 Y106.100 E5.89872
G1 X138.275 Y108.672 E6.13265
G1 F3360.000
G1 X133.735 Y106.372 E2.67886
G1 F3360.000
G1 X133.818 Y106.079 E2.47199
G1 F3360.000
G1 X134.119 Y106.100 E2.26700
G1 F3360.000
G1 X135.422 Y106.100 E1.38266
G1 E1.13265 F2400.00000
G92 E0
G1 X137.225 Y95.850 F4200.000
G1 E5.00000 F2400.00000
G1 F900.000
G1 X137.225 Y94.850 E5.09093
G1 X138.275 Y94.850 E5.18645
G1 X138.275 Y96.400 E5.32743
G1 X134.147 Y96.400 E5.70280
G1 X133.809 Y96.412 E5.73359
G1 X133.165 Y96.502 E5.79265
G1 X132.512 Y96.690 E5.85451
G1 X131.894 Y96.966 E5.91596
G1 X131.325 Y97.321 E5.97700
G1 X130.800 Y97.762 E6.03938
G1 X130.343 Y98.271 E6.10152
G1 X129.966 Y98.834 E6.16318
G1 X129.689 Y99.402 E6.22058
G1 X129.556 Y99.765 E6.25581
G1 X129.395 Y100.405 E6.31575
G1 X129.324 Y101.079 E6.37741
G1 X129.348 Y101.757 E6.43909
G1 X129.467 Y102.428 E6.50105
G1 X129.666 Y103.042 E6.55974
G1 X129.827 Y103.402 E6.59559
G1 X130.151 Y103.964 E6.65461
G1 X130.422 Y104.311 E6.69464
G1 X130.229 Y104.544 E6.72214
G1 X117.007 Y97.648 E8.07805
G1 X110.015 Y97.648 E8.71382
G1 X110.015 Y109.230 E9.76695
G1 X98.275 Y109.230 E10.83450
G1 X98.275 Y104.172 E11.29442
G1 X97.313 Y97.423 E11.91430
G1 X95.500 Y95.850 E12.13259
G1 X137.157 Y95.850 E15.92050
G1 X136.600 Y95.225 F4200.000
G1 F900.000
G1 X136.600 Y94.225 E16.01143
G1 X138.900 Y94.225 E16.22059
G1 X138.900 Y97.025 E16.47521
G1 X133.863 Y97.035 E16.93322
G1 X133.296 Y97.115 E16.98531
G1 X132.726 Y97.279 E17.03921
G1 X132.189 Y97.519 E17.09273
G1 X131.693 Y97.828 E17.14583
G1 X131.235 Y98.212 E17.20021
G1 X130.838 Y98.655 E17.25433
G1 X130.509 Y99.146 E17.30808
G1 X130.265 Y99.646 E17.35866
G1 X130.154 Y99.949 E17.38799
G1 X130.012 Y100.514 E17.44095
G1 X129.950 Y101.101 E17.49461
G1 X129.971 Y101.692 E17.54833
G1 X130.074 Y102.276 E17.60232
G1 X130.250 Y102.818 E17.65407
G1 X130.384 Y103.118 E17.68397
G1 X130.670 Y103.614 E17.73604
G1 X131.023 Y104.065 E17.78812
G1 X131.252 Y104.302 E17.81804
G1 X131.690 Y104.670 E17.87011
G1 X132.190 Y104.982 E17.92374
G1 X132.729 Y105.222 E17.97737
G1 X133.280 Y105.380 E18.02944
G1 X133.604 Y105.437 E18.05936
G1 X134.141 Y105.475 E18.10833
G1 X138.900 Y105.475 E18.54108
G1 X138.900 Y126.025 E20.40970
G1 X134.141 Y126.025 E20.84245
G1 X133.604 Y126.063 E20.89142
G1 X133.280 Y126.120 E20.92134
G1 X132.729 Y126.278 E20.97341
G1 X132.190 Y126.518 E21.02704
G1 X131.690 Y126.830 E21.08067
G1 X131.252 Y127.198 E21.13274
G1 X131.023 Y127.435 E21.16265
G1 X130.670 Y127.886 E21.21473
G1 X130.376 Y128.397 E21.26836
G1 X130.155 Y128.944 E21.32198
G1 X130.012 Y129.516 E21.37561
G1 X129.952 Y130.085 E21.42768
G1 X129.952 Y130.415 E21.45761
G1 X130.012 Y130.984 E21.50968
G1 X130.155 Y131.556 E21.56330
G1 X130.376 Y132.103 E21.61693
G1 X130.670 Y132.614 E21.67056
G1 X131.023 Y133.065 E21.72263
G1 X131.252 Y133.302 E21.75255
G1 X131.690 Y133.670 E21.80462
G1 X132.190 Y133.982 E21.85825
G1 X132.729 Y134.222 E21.91188
G1 X133.280 Y134.380 E21.96395
G1 X133.604 Y134.437 E21.99387
G1 X134.141 Y134.475 E22.04284
G1 X138.900 Y134.475 E22.47559
G1 X138.900 Y134.846 E22.50935
G1 X137.471 Y136.275 E22.69310
G1 X125.725 Y136.275 E23.76119
G1 X125.725 Y131.525 E24.19310
G1 X121.041 Y131.525 E24.61904
G1 X120.971 Y131.239 E24.64578
G1 X138.350 Y122.176 E26.42807
G1 X138.350 Y109.484 E27.58215
G1 X116.854 Y98.273 E29.78662
G1 X110.640 Y98.273 E30.35164
G1 X110.640 Y109.855 E31.40477
G1 X97.650 Y109.855 E32.58597
G1 X97.650 Y104.216 E33.09867
G1 X96.727 Y97.742 E33.69331
G1 X95.036 Y96.275 E33.89687
G1 X91.529 Y96.275 E34.21581
G1 X91.100 Y95.846 E34.27097
G1 X91.100 Y95.225 E34.32746
G1 X136.532 Y95.225 E38.45862
G1 X135.975 Y94.600 F4200.000
G1 F750.000
G1 X135.975 Y93.600 E38.54955
G1 X139.525 Y93.600 E38.87235
G1 X139.525 Y97.650 E39.24061
G1 X134.169 Y97.650 E39.72764
G1 X133.918 Y97.659 E39.75050
G1 X133.426 Y97.728 E39.79563
G1 X132.941 Y97.867 E39.84156
G1 X132.483 Y98.072 E39.88715
G1 X132.061 Y98.335 E39.93232
G1 X131.671 Y98.663 E39.97870
G1 X131.332 Y99.040 E40.02479
G1 X131.052 Y99.459 E40.07063
G1 X130.841 Y99.891 E40.11439
G1 X130.752 Y100.133 E40.13783
G1 X130.629 Y100.624 E40.18381
G1 X130.576 Y101.123 E40.22947
G1 X130.594 Y101.626 E40.27521
G1 X130.682 Y102.124 E40.32125
G1 X130.834 Y102.593 E40.36606
G1 X130.942 Y102.834 E40.39002
G1 X131.190 Y103.264 E40.43514
G1 X131.495 Y103.655 E40.48026
G1 X131.678 Y103.844 E40.50423
G1 X132.058 Y104.163 E40.54934
G1 X132.484 Y104.429 E40.59503
G1 X132.943 Y104.634 E40.64071
G1 X133.420 Y104.770 E40.68583
G1 X133.680 Y104.816 E40.70979
G1 X134.163 Y104.850 E40.75380
G1 X139.525 Y104.850 E41.24139
G1 X139.525 Y126.650 E43.22365
G1 X134.163 Y126.650 E43.71124
G1 X133.680 Y126.684 E43.75525
G1 X133.420 Y126.730 E43.77921
G1 X132.943 Y126.866 E43.82433
G1 X132.484 Y127.071 E43.87001
G1 X132.058 Y127.337 E43.91570
G1 X131.678 Y127.656 E43.96081
G1 X131.495 Y127.845 E43.98478
G1 X131.190 Y128.236 E44.02990
G1 X130.939 Y128.671 E44.07558
G1 X130.750 Y129.137 E44.12126
G1 X130.629 Y129.625 E44.16694
G1 X130.577 Y130.118 E44.21206
G1 X130.577 Y130.382 E44.23603
G1 X130.629 Y130.875 E44.28115
G1 X130.750 Y131.363 E44.32683
G1 X130.939 Y131.829 E44.37251
G1 X131.190 Y132.264 E44.41819
G1 X131.495 Y132.655 E44.46331
G1 X131.678 Y132.844 E44.48727
G1 X132.058 Y133.163 E44.53239
G1 X132.484 Y133.429 E44.57807
G1 X132.943 Y133.634 E44.62376
G1 X133.420 Y133.770 E44.66888
G1 X133.680 Y133.816 E44.69284
G1 X134.163 Y133.850 E44.73685
G1 X139.525 Y133.850 E45.22444
G1 X139.525 Y135.105 E45.33855
G1 X137.730 Y136.900 E45.56938
G1 X125.100 Y136.900 E46.71782
G1 X125.100 Y132.150 E47.14974
G1 X118.491 Y132.150 E47.75068
G1 X118.421 Y131.864 E47.77743
G1 X137.725 Y121.797 E49.75709
G1 X137.725 Y109.863 E50.84227
G1 X116.701 Y98.898 E52.99836
G1 X111.265 Y98.898 E53.49264
G1 X111.265 Y110.480 E54.54577
G1 X97.025 Y110.480 E55.84060
G1 X97.025 Y104.261 E56.40610
G1 X96.142 Y98.061 E56.97550
G1 X94.803 Y96.900 E57.13663
G1 X91.270 Y96.900 E57.45789
G1 X90.475 Y96.105 E57.56012
G1 X90.475 Y94.600 E57.69697
G1 X135.907 Y94.600 E61.82813
G1 X136.425 Y94.595 F4200.000
G1 X137.750 Y95.162 F4200.000
G1 F300.000
G1 X137.750 Y96.088 E61.87533
G1 X132.961 Y96.198 F4200.000
G1 F300.000
G1 X132.666 Y96.240 E61.87739
G1 F300.000
G1 X131.311 Y96.469 E61.90233
G1 X131.430 Y96.884 F4200.000
G1 F300.000
G1 X131.600 Y96.446 E61.93600
G1 X132.754 Y96.162 E62.02122
G1 F3360.000
G1 X131.600 Y96.446 E61.21472
G1 F3360.000
G1 X131.430 Y96.884 E60.89604
G1 E57.02122 F2400.00000
G92 E0
G1 X129.587 Y103.688 F4200.000
G1 E5.00000 F2400.00000
G1 F300.000
G1 X129.650 Y103.829 E5.00073
G1 X129.711 Y103.887 E5.00112
G1 X128.828 Y103.476 F4200.000
G1 F300.000
G1 X129.314 Y102.990 E5.06473
G1 X129.097 Y102.309 E5.13090
G1 X128.236 Y103.169 E5.24349
G1 X127.645 Y102.861 E5.30513
G1 X128.967 Y101.540 E5.47796
G1 X128.941 Y100.814 E5.54515
G1 X128.959 Y100.649 E5.56052
G1 X127.055 Y102.553 E5.80961
G1 X126.464 Y102.245 E5.87125
G1 X129.144 Y99.564 E6.22192
G1 X129.201 Y99.339 E6.24345
G1 X129.356 Y98.914 E6.28528
G1 X129.666 Y98.279 E6.35062
G1 X129.940 Y97.870 E6.39620
G1 X125.873 Y101.937 E6.92827
G1 X125.282 Y101.629 E6.98990
G1 X130.679 Y96.232 E7.69592
G1 X129.780 Y96.232 E7.77907
G1 X124.691 Y101.321 E8.44477
G1 X124.100 Y101.012 E8.50641
G1 X128.881 Y96.232 E9.13180
G1 X127.982 Y96.232 E9.21496
G1 X123.509 Y100.704 E9.80004
G1 X122.919 Y100.396 E9.86168
G1 X127.083 Y96.232 E10.40646
G1 X126.184 Y96.232 E10.48961
G1 X122.328 Y100.088 E10.99408
G1 X121.737 Y99.780 E11.05572
G1 X125.285 Y96.232 E11.51988
G1 X124.386 Y96.232 E11.60303
G1 X121.146 Y99.472 E12.02688
G1 X120.555 Y99.164 E12.08852
G1 X123.487 Y96.232 E12.47206
G1 X122.588 Y96.232 E12.55521
G1 X119.964 Y98.855 E12.89844
G1 X119.374 Y98.547 E12.96008
G1 X121.689 Y96.232 E13.26300
G1 X120.790 Y96.232 E13.34616
G1 X118.783 Y98.239 E13.60877
G1 X118.192 Y97.931 E13.67041
G1 X119.891 Y96.232 E13.89271
G1 X118.992 Y96.232 E13.97587
G1 X117.601 Y97.623 E14.15786
G1 X117.010 Y97.315 E14.21950
G1 X118.093 Y96.232 E14.36118
G1 X117.194 Y96.232 E14.44434
G1 X116.160 Y97.266 E14.57968
G1 X115.261 Y97.266 E14.66284
G1 X116.295 Y96.232 E14.79818
G1 X115.396 Y96.232 E14.88134
G1 X114.362 Y97.266 E15.01668
G1 X113.463 Y97.266 E15.09984
G1 X114.497 Y96.232 E15.23518
G1 X113.598 Y96.232 E15.31834
G1 X112.564 Y97.266 E15.45368
G1 X111.665 Y97.266 E15.53684
G1 X112.699 Y96.232 E15.67218
G1 X111.800 Y96.232 E15.75534
G1 X110.766 Y97.266 E15.89068
G1 X109.867 Y97.266 E15.97384
G1 X110.901 Y96.232 E16.10918
G1 X110.002 Y96.232 E16.19234
G1 X98.657 Y107.577 E17.67652
G1 X98.657 Y106.678 E17.75968
G1 X109.103 Y96.232 E19.12627
G1 X108.204 Y96.232 E19.20942
G1 X98.657 Y105.779 E20.45841
G1 X98.657 Y104.880 E20.54156
G1 X107.305 Y96.232 E21.67295
G1 X106.406 Y96.232 E21.75611
G1 X98.608 Y104.030 E22.77625
G1 X98.496 Y103.243 E22.84977
G1 X105.507 Y96.232 E23.76697
G1 X104.608 Y96.232 E23.85013
G1 X98.384 Y102.456 E24.66441
G1 X98.272 Y101.669 E24.73793
G1 X103.709 Y96.232 E25.44927
G1 X102.811 Y96.232 E25.53243
G1 X98.160 Y100.883 E26.14084
G1 X98.047 Y100.096 E26.21436
G1 X101.912 Y96.232 E26.71984
G1 X101.013 Y96.232 E26.80300
G1 X97.935 Y99.309 E27.20555
G1 X97.823 Y98.522 E27.27907
G1 X100.114 Y96.232 E27.57869
G1 X99.215 Y96.232 E27.66185
G1 X97.711 Y97.735 E27.85853
G1 X97.656 Y97.347 E27.89481
G1 X97.412 Y97.135 E27.92467
G1 X98.316 Y96.232 E28.04290
G1 X97.417 Y96.232 E28.12605
G1 X96.931 Y96.718 E28.18963
G1 F3360.000
G1 X97.417 Y96.232 E27.72320
G1 F3360.000
G1 X98.316 Y96.232 E27.11317
G1 F3360.000
G1 X97.412 Y97.135 E26.24588
G1 F3360.000
G1 X97.656 Y97.347 E26.02682
G1 F3360.000
G1 X97.711 Y97.735 E25.76070
G1 F3360.000
G1 X99.215 Y96.232 E24.31780
G1 F3360.000
G1 X100.114 Y96.232 E23.70778
G1 F3360.000
G1 X99.834 Y96.511 E23.43963
G1 E23.18963 F2400.00000
G92 E0
G1 X109.633 Y97.500 F4200.000
G1 E5.00000 F2400.00000
G1 F300.000
G1 X98.657 Y108.476 E6.43591
G1 X98.657 Y108.848 E6.47029
G1 X99.184 Y108.848 E6.51907
G1 X109.633 Y98.399 E7.88600
G1 X109.633 Y99.298 E7.96916
G1 X100.083 Y108.848 E9.21850
G1 X100.982 Y108.848 E9.30165
G1 X109.633 Y100.197 E10.43339
G1 X109.633 Y101.096 E10.51654
G1 X101.881 Y108.848 E11.53068
G1 X102.780 Y108.848 E11.61384
G1 X109.633 Y101.995 E12.51037
G1 X109.633 Y102.894 E12.59353
G1 X103.679 Y108.848 E13.37246
G1 X104.578 Y108.848 E13.45562
G1 X109.633 Y103.793 E14.11696
G1 X109.633 Y104.691 E14.20011
G1 X105.477 Y108.848 E14.74385
G1 X106.376 Y108.848 E14.82701
G1 X109.633 Y105.590 E15.25314
G1 X109.633 Y106.489 E15.33630
G1 X107.275 Y108.848 E15.64484
G1 X108.174 Y108.848 E15.72799
G1 X109.633 Y107.388 E15.91893
G1 X109.633 Y108.287 E16.00209
G1 X109.073 Y108.848 E16.07542
G1 F3360.000
G1 X109.633 Y108.287 E15.53742
G1 F3360.000
G1 X109.633 Y107.388 E14.92739
G1 F3360.000
G1 X108.174 Y108.848 E13.52668
G1 F3360.000
G1 X107.275 Y108.848 E12.91665
G1 F3360.000
G1 X108.933 Y107.190 E11.32542
G1 E11.07542 F2400.00000
G92 E0
G1 X94.908 Y95.750 F4200.000
G1 E5.00000 F2400.00000
G1 F300.000
G1 X91.446 Y95.750 E5.17645
G1 F3360.000
G1 X94.908 Y95.750 E2.82700
G1 E0.17645 F2400.00000
G92 E0
G1 X98.657 Y123.297 F4200.000
G1 E5.00000 F2400.00000
G1 F300.000
G1 X99.143 Y122.811 E5.06343
G1 X100.040 Y122.811 E5.14620
G1 X98.657 Y124.194 E5.32669
G1 X98.657 Y125.091 E5.40946
G1 X100.937 Y122.811 E5.70700
G1 X101.833 Y122.811 E5.78976
G1 X98.657 Y125.988 E6.20435
G1 X98.657 Y126.885 E6.28712
G1 X102.730 Y122.811 E6.81875
