; generated by Slic3r 1.3.1-dev (Build 18ddd3a36dc69d81fb9b7440498bff9e1dde8b7e) on 2021-07-23 at 12:37:48

; external perimeters extrusion width = 0.49mm (2.26mm^3/s)
; perimeters extrusion width = 0.63mm (3.52mm^3/s)
; infill extrusion width = 0.56mm (4.16mm^3/s)
; solid infill extrusion width = 0.63mm (1.17mm^3/s)
; top infill extrusion width = 0.63mm (0.94mm^3/s)
; support material extrusion width = 0.49mm (2.71mm^3/s)

M107
G92 E0
M190 S100 ; set bed temperature and wait for it to be reached
M104 S240 ; set temperature
G28 ; home all axes
G1 Z5 F5000 ; lift nozzle

; Filament gcode

M109 S240 ; set temperature and wait for it to be reached
G21 ; set units to millimeters
G90 ; use absolute coordinates
M82 ; use absolute distances for extrusion
G92 E0
G1 E-5.00000 F2400.00000
G92 E0
G1 Z0.350 F4200.000
G1 X85.040 Y84.818 F4200.000
G1 E5.00000 F2400.00000
G1 F900.000
G1 X86.793 Y83.339 E5.20854
G1 X88.945 Y82.546 E5.41708
G1 X90.125 Y82.440 E5.52479
G1 X137.875 Y82.440 E9.86668
G1 X140.134 Y82.837 E10.07522
G1 X142.559 Y84.380 E10.33665
G1 X144.559 Y86.380 E10.59384
G1 X145.876 Y88.258 E10.80238
G1 X146.493 Y90.767 E11.03726
G1 X146.614 Y93.442 E11.28077
G1 X146.620 Y127.130 E14.34404
G1 X146.494 Y130.220 E14.62520
G1 X146.000 Y132.459 E14.83374
G1 X144.560 Y134.620 E15.06985
G1 X142.560 Y136.620 E15.32704
G1 X140.682 Y137.936 E15.53558
G1 X139.165 Y138.433 E15.68067
G1 X93.840 Y147.433 E19.88252
G1 X92.550 Y147.560 E20.00041
G1 X90.125 Y147.560 E20.22091
G1 X87.866 Y147.163 E20.42946
G1 X85.878 Y146.020 E20.63800
G1 X84.399 Y144.267 E20.84654
G1 X83.606 Y142.115 E21.05508
G1 X83.500 Y140.935 E21.16279
G1 X83.500 Y89.065 E25.87934
G1 X83.897 Y86.806 E26.08788
G1 X85.007 Y84.876 E26.29028
G1 F3360.000
G1 X86.793 Y83.339 E24.69088
G1 F3360.000
G1 X88.945 Y82.546 E23.13461
G1 F3360.000
G1 X90.125 Y82.440 E22.33082
G1 F3360.000
G1 X91.290 Y82.440 E21.54028
G1 E21.29028 F2400.00000
G92 E0
G1 X110.015 Y128.696 F4200.000
G1 E5.00000 F2400.00000
G1 F900.000
G1 X117.150 Y128.696 E5.64878
G1 X117.150 Y130.335 E5.79781
G1 X97.089 Y130.335 E7.62198
G1 X98.275 Y122.013 E8.38637
G1 X98.275 Y117.115 E8.83179
G1 X110.015 Y117.115 E9.89934
G1 X110.015 Y128.629 E10.94633
G1 X110.640 Y128.072 F4200.000
G1 F900.000
G1 X116.854 Y128.072 E11.51135
G1 X117.775 Y127.591 E11.60582
G1 X117.775 Y130.960 E11.91217
G1 X91.575 Y130.960 E14.29453
G1 X91.575 Y139.960 E15.11290
G1 X91.100 Y139.960 E15.15611
G1 X91.100 Y130.339 E16.03097
G1 X91.529 Y129.910 E16.08613
G1 X96.518 Y129.910 E16.53981
G1 X97.650 Y121.969 E17.26920
G1 X97.650 Y116.490 E17.76741
G1 X110.640 Y116.490 E18.94861
G1 X110.640 Y128.004 E19.99560
G1 X111.265 Y127.447 F4200.000
G1 F750.000
G1 X116.701 Y127.447 E20.48987
G1 X118.400 Y126.560 E20.66413
G1 X118.400 Y131.585 E21.12103
G1 X92.200 Y131.585 E23.50338
G1 X92.200 Y140.585 E24.32175
G1 X90.475 Y140.585 E24.47860
G1 X90.475 Y130.080 E25.43382
G1 X91.270 Y129.285 E25.53605
G1 X95.976 Y129.285 E25.96397
G1 X97.025 Y121.925 E26.64003
G1 X97.025 Y115.865 E27.19104
G1 X111.265 Y115.865 E28.48588
G1 X111.265 Y127.379 E29.53287
G1 X111.396 Y127.877 F4200.000
G1 F3360.000
G1 X116.701 Y127.447 E25.84402
G1 F3360.000
G1 X118.087 Y126.724 E24.78287
G1 E24.53287 F2400.00000
G92 E0
G1 X126.350 Y125.585 F4200.000
G1 E5.00000 F2400.00000
G1 F900.000
G1 X123.590 Y125.585 E5.25093
G1 X123.520 Y125.300 E5.27767
G1 X130.042 Y121.898 E5.94649
G1 X130.236 Y122.116 E5.97301
G1 X129.972 Y122.508 E6.01604
G1 X129.675 Y123.117 E6.07761
G1 X129.474 Y123.734 E6.13663
G1 X129.392 Y124.120 E6.17251
G1 X129.324 Y124.766 E6.23153
G1 X129.348 Y125.443 E6.29311
G1 X129.465 Y126.109 E6.35468
G1 X129.675 Y126.753 E6.41625
G1 X129.972 Y127.362 E6.47782
G1 X130.350 Y127.923 E6.53940
G1 X130.803 Y128.427 E6.60097
G1 X131.322 Y128.862 E6.66254
G1 X131.873 Y129.206 E6.72157
G1 X132.227 Y129.379 E6.75744
G1 X132.837 Y129.601 E6.81647
G1 X133.472 Y129.736 E6.87549
G1 X133.863 Y129.777 E6.91127
G1 X137.766 Y129.782 E7.26610
G1 X137.212 Y130.335 E7.33724
G1 X126.350 Y130.335 E8.32497
G1 X126.350 Y125.653 E8.75075
G1 F3360.000
G1 X123.590 Y125.585 E6.87761
G1 F3360.000
G1 X123.520 Y125.300 E6.67802
G1 F3360.000
G1 X127.018 Y123.475 E4.00075
G1 E3.75075 F2400.00000
G92 E0
G1 X134.136 Y120.085 F4200.000
G1 E5.00000 F2400.00000
G1 F240.000
G1 X134.066 Y119.800 E5.02675
G1 X138.275 Y117.605 E5.45840
G1 X138.275 Y120.085 E5.68398
G1 X134.204 Y120.085 E6.05420
G1 F3360.000
G1 X134.066 Y119.800 E5.83906
G1 F3360.000
G1 X138.275 Y117.605 E2.61781
G1 F3360.000
G1 X138.275 Y119.540 E1.30420
G1 E1.05420 F2400.00000
G92 E0
G1 X138.275 Y103.425 F4200.000
G1 E5.00000 F2400.00000
G1 F240.000
G1 X133.735 Y101.057 E5.46562
G1 X133.818 Y100.764 E5.49334
G1 X134.119 Y100.785 E5.52081
G1 X138.275 Y100.785 E5.89872
G1 X138.275 Y103.358 E6.13265
G1 F3360.000
G1 X133.735 Y101.057 E2.67886
G1 F3360.000
G1 X133.818 Y100.764 E2.47200
G1 F3360.000
G1 X134.119 Y100.785 E2.26702
G1 F3360.000
G1 X135.422 Y100.785 E1.38265
G1 E1.13265 F2400.00000
G92 E0
G1 X110.015 Y92.333 F4200.000
G1 E5.00000 F2400.00000
G1 F900.000
G1 X110.015 Y103.915 E6.05313
G1 X98.275 Y103.915 E7.12068
G1 X98.275 Y98.857 E7.58059
G1 X97.313 Y92.108 E8.20048
G1 X95.649 Y90.665 E8.40078
G1 X137.212 Y90.665 E12.18010
G1 X137.636 Y91.088 E12.23459
G1 X133.863 Y91.093 E12.57764
G1 X133.472 Y91.135 E12.61342
G1 X132.864 Y91.264 E12.66998
G1 X132.483 Y91.388 E12.70636
G1 X131.896 Y91.650 E12.76484
G1 X131.318 Y92.011 E12.82679
G1 X130.799 Y92.448 E12.88851
G1 X130.351 Y92.946 E12.94940
G1 X129.973 Y93.506 E13.01082
G1 X129.677 Y94.111 E13.07204
G1 X129.476 Y94.728 E13.13113
G1 X129.390 Y95.131 E13.16857
G1 X129.324 Y95.772 E13.22714
G1 X129.346 Y96.400 E13.28428
G1 X129.401 Y96.802 E13.32119
G1 X129.559 Y97.435 E13.38046
G1 X129.813 Y98.063 E13.44207
G1 X130.151 Y98.649 E13.50365
G1 X130.422 Y98.996 E13.54368
G1 X130.229 Y99.229 E13.57118
G1 X117.007 Y92.333 E14.92710
G1 X110.083 Y92.333 E15.55673
G1 X110.640 Y92.958 F4200.000
G1 F900.000
G1 X110.640 Y104.540 E16.60986
G1 X97.650 Y104.540 E17.79105
G1 X97.650 Y98.901 E18.30375
G1 X96.727 Y92.427 E18.89840
G1 X95.036 Y90.960 E19.10195
G1 X91.529 Y90.960 E19.42090
G1 X91.100 Y90.531 E19.47605
G1 X91.100 Y90.040 E19.52076
G1 X137.471 Y90.040 E23.73728
G1 X139.143 Y91.711 E23.95223
G1 X133.897 Y91.718 E24.42926
G1 X133.570 Y91.753 E24.45912
G1 X133.026 Y91.868 E24.50969
G1 X132.708 Y91.972 E24.54010
G1 X132.190 Y92.203 E24.59164
G1 X131.687 Y92.518 E24.64563
G1 X131.234 Y92.898 E24.69940
G1 X130.845 Y93.332 E24.75239
G1 X130.515 Y93.819 E24.80591
G1 X130.258 Y94.346 E24.85921
G1 X130.080 Y94.891 E24.91130
G1 X130.009 Y95.228 E24.94269
G1 X129.950 Y95.793 E24.99434
G1 X129.969 Y96.346 E25.04467
G1 X130.016 Y96.684 E25.07562
G1 X130.154 Y97.241 E25.12785
G1 X130.376 Y97.788 E25.18151
G1 X130.670 Y98.299 E25.23514
G1 X131.034 Y98.764 E25.28877
G1 X131.458 Y99.173 E25.34239
G1 X131.921 Y99.510 E25.39447
G1 X132.206 Y99.675 E25.42439
G1 X132.714 Y99.901 E25.47491
G1 X133.027 Y100.002 E25.50483
G1 X133.587 Y100.121 E25.55690
G1 X134.141 Y100.160 E25.60742
G1 X138.900 Y100.160 E26.04017
G1 X138.900 Y120.710 E27.90879
G1 X133.863 Y120.721 E28.36680
G1 X133.296 Y120.800 E28.41887
G1 X132.729 Y120.963 E28.47250
G1 X132.190 Y121.203 E28.52612
G1 X131.690 Y121.515 E28.57975
G1 X131.238 Y121.894 E28.63338
G1 X130.844 Y122.333 E28.68700
G1 X130.514 Y122.822 E28.74063
G1 X130.256 Y123.352 E28.79426
G1 X130.079 Y123.896 E28.84633
G1 X130.010 Y124.218 E28.87625
G1 X129.950 Y124.788 E28.92832
G1 X129.971 Y125.377 E28.98195
G1 X130.073 Y125.958 E29.03558
G1 X130.256 Y126.519 E29.08920
G1 X130.514 Y127.049 E29.14283
G1 X130.844 Y127.538 E29.19646
G1 X131.238 Y127.976 E29.25008
G1 X131.690 Y128.355 E29.30371
G1 X132.176 Y128.659 E29.35578
G1 X132.472 Y128.803 E29.38570
G1 X133.010 Y128.999 E29.43777
G1 X133.570 Y129.118 E29.48985
G1 X133.897 Y129.152 E29.51971
G1 X138.900 Y129.159 E29.97468
G1 X138.900 Y129.531 E30.00856
G1 X137.471 Y130.960 E30.19231
G1 X125.725 Y130.960 E31.26040
G1 X125.725 Y126.210 E31.69231
G1 X121.041 Y126.210 E32.11825
G1 X120.971 Y125.925 E32.14499
G1 X138.350 Y116.861 E33.92728
G1 X138.350 Y104.169 E35.08136
G1 X116.854 Y92.958 E37.28583
G1 X110.708 Y92.958 E37.84471
G1 X111.265 Y93.583 F4200.000
G1 F750.000
G1 X111.265 Y105.165 E38.89784
G1 X97.025 Y105.165 E40.19268
G1 X97.025 Y98.946 E40.75818
G1 X96.142 Y92.746 E41.32758
G1 X94.803 Y91.585 E41.48871
G1 X91.270 Y91.585 E41.80997
G1 X90.475 Y90.790 E41.91220
G1 X90.475 Y89.415 E42.03726
G1 X137.730 Y89.415 E46.33414
G1 X139.525 Y91.210 E46.56496
G1 X139.525 Y92.336 E46.66733
G1 X133.930 Y92.343 E47.17611
G1 X133.668 Y92.371 E47.20005
G1 X133.188 Y92.473 E47.24464
G1 X132.933 Y92.556 E47.26907
G1 X132.485 Y92.756 E47.31368
G1 X132.056 Y93.024 E47.35970
G1 X131.670 Y93.349 E47.40553
G1 X131.338 Y93.717 E47.45063
G1 X131.058 Y94.133 E47.49623
G1 X130.838 Y94.581 E47.54162
G1 X130.684 Y95.053 E47.58671
G1 X130.627 Y95.325 E47.61204
G1 X130.576 Y95.815 E47.65678
G1 X130.593 Y96.293 E47.70030
G1 X130.630 Y96.565 E47.72529
G1 X130.750 Y97.048 E47.77048
G1 X130.939 Y97.514 E47.81619
G1 X131.190 Y97.949 E47.86187
G1 X131.499 Y98.345 E47.90755
G1 X131.860 Y98.694 E47.95323
G1 X132.262 Y98.985 E47.99836
G1 X132.490 Y99.117 E48.02232
G1 X132.938 Y99.316 E48.06688
G1 X133.188 Y99.398 E48.09085
G1 X133.674 Y99.501 E48.13597
G1 X134.163 Y99.535 E48.18053
G1 X139.525 Y99.535 E48.66812
G1 X139.525 Y121.335 E50.65038
G1 X134.169 Y121.335 E51.13741
G1 X133.918 Y121.344 E51.16026
G1 X133.426 Y121.413 E51.20538
G1 X132.943 Y121.551 E51.25106
G1 X132.485 Y121.756 E51.29674
G1 X132.058 Y122.022 E51.34242
G1 X131.674 Y122.345 E51.38810
G1 X131.337 Y122.718 E51.43378
G1 X131.057 Y123.135 E51.47946
G1 X130.836 Y123.586 E51.52514
G1 X130.683 Y124.058 E51.57027
G1 X130.628 Y124.316 E51.59423
G1 X130.576 Y124.809 E51.63935
G1 X130.594 Y125.312 E51.68503
G1 X130.681 Y125.806 E51.73071
G1 X130.836 Y126.284 E51.77639
G1 X131.057 Y126.736 E51.82207
G1 X131.337 Y127.152 E51.86775
G1 X131.674 Y127.525 E51.91343
G1 X132.058 Y127.848 E51.95911
G1 X132.479 Y128.111 E52.00423
G1 X132.716 Y128.227 E52.02820
G1 X133.182 Y128.397 E52.07332
G1 X133.668 Y128.500 E52.11844
G1 X133.930 Y128.527 E52.14238
G1 X139.525 Y128.535 E52.65116
G1 X139.525 Y129.790 E52.76532
G1 X137.730 Y131.585 E52.99614
G1 X125.100 Y131.585 E54.14459
G1 X125.100 Y126.835 E54.57650
G1 X118.491 Y126.835 E55.17745
G1 X118.421 Y126.549 E55.20419
G1 X137.725 Y116.482 E57.18386
G1 X137.725 Y104.548 E58.26904
G1 X116.701 Y93.583 E60.42513
G1 X111.333 Y93.583 E60.91327
G1 X110.819 Y93.524 F4200.000
G1 X109.633 Y91.612 F4200.000
G1 F300.000
G1 X98.657 Y102.589 E62.35457
G1 X98.657 Y103.491 E62.43835
G1 X109.633 Y92.515 E63.87965
G1 X109.633 Y93.417 E63.96344
G1 X99.517 Y103.533 E65.29176
G1 X100.419 Y103.533 E65.37554
G1 X109.633 Y94.319 E66.58538
G1 X109.633 Y95.222 E66.66916
G1 X101.322 Y103.533 E67.76051
G1 X102.224 Y103.533 E67.84429
G1 X109.633 Y96.124 E68.81716
G1 X109.633 Y97.026 E68.90094
G1 X103.127 Y103.533 E69.75533
G1 X104.029 Y103.533 E69.83911
G1 X109.633 Y97.929 E70.57501
G1 X109.633 Y98.831 E70.65879
G1 X104.931 Y103.533 E71.27621
G1 X105.834 Y103.533 E71.35999
G1 X109.633 Y99.733 E71.85892
G1 X109.633 Y100.636 E71.94270
G1 X106.736 Y103.533 E72.32315
G1 X107.638 Y103.533 E72.40693
G1 X109.633 Y101.538 E72.66890
G1 X109.633 Y102.441 E72.75268
G1 X108.541 Y103.533 E72.89616
G1 F3360.000
G1 X109.633 Y102.441 E71.84753
G1 F3360.000
G1 X109.633 Y101.538 E71.23522
G1 F3360.000
G1 X107.638 Y103.533 E69.32065
G1 F3360.000
G1 X106.736 Y103.533 E68.70833
G1 F3360.000
G1 X107.322 Y102.947 E68.14616
G1 E67.89616 F2400.00000
G92 E0
G1 X97.566 Y91.046 F4200.000
G1 E5.00000 F2400.00000
G1 F300.000
G1 X97.080 Y91.533 E5.06383
G1 X97.563 Y91.952 E5.12322
G1 X98.468 Y91.046 E5.24209
G1 X99.371 Y91.046 E5.32587
G1 X97.747 Y92.671 E5.53913
G1 X97.859 Y93.460 E5.61320
G1 X100.273 Y91.046 E5.93016
G1 X101.176 Y91.046 E6.01394
G1 X97.972 Y94.250 E6.43460
G1 X98.084 Y95.040 E6.50868
G1 X102.078 Y91.046 E7.03305
G1 X102.980 Y91.046 E7.11683
G1 X98.197 Y95.830 E7.74490
G1 X98.309 Y96.620 E7.81898
G1 X103.883 Y91.046 E8.55076
G1 X104.785 Y91.046 E8.63454
G1 X98.422 Y97.409 E9.47003
G1 X98.535 Y98.199 E9.54410
G1 X105.687 Y91.046 E10.48330
G1 X106.590 Y91.046 E10.56708
G1 X98.647 Y98.989 E11.60998
G1 X98.657 Y99.882 E11.69288
G1 X107.492 Y91.046 E12.85302
G1 X108.394 Y91.046 E12.93680
G1 X98.657 Y100.784 E14.21542
G1 X98.657 Y101.687 E14.29920
G1 X109.297 Y91.046 E15.69630
G1 X110.199 Y91.046 E15.78008
G1 X109.294 Y91.951 E15.89890
G1 X110.197 Y91.951 E15.98269
G1 X111.101 Y91.046 E16.10151
G1 X112.004 Y91.046 E16.18529
G1 X111.099 Y91.951 E16.30411
G1 X112.001 Y91.951 E16.38789
G1 X112.906 Y91.046 E16.50672
G1 X113.809 Y91.046 E16.59050
G1 X112.904 Y91.951 E16.70932
G1 X113.806 Y91.951 E16.79310
G1 X114.711 Y91.046 E16.91193
G1 X115.613 Y91.046 E16.99571
G1 X114.708 Y91.951 E17.11453
G1 X115.611 Y91.951 E17.19831
G1 X116.516 Y91.046 E17.31713
G1 X117.418 Y91.046 E17.40091
G1 X116.513 Y91.951 E17.51974
G1 X116.917 Y91.951 E17.55726
G1 X117.245 Y92.122 E17.59155
G1 X118.320 Y91.046 E17.73279
G1 X119.223 Y91.046 E17.81658
G1 X117.838 Y92.431 E17.99843
G1 X118.431 Y92.741 E18.06054
G1 X120.125 Y91.046 E18.28300
G1 X121.027 Y91.046 E18.36679
G1 X119.024 Y93.050 E18.62987
G1 X119.617 Y93.359 E18.69197
G1 X121.930 Y91.046 E18.99566
G1 X122.832 Y91.046 E19.07944
G1 X120.210 Y93.669 E19.42375
G1 X120.803 Y93.978 E19.48585
G1 X123.734 Y91.046 E19.87077
G1 X124.637 Y91.046 E19.95455
G1 X121.396 Y94.287 E20.38008
G1 X121.989 Y94.597 E20.44218
G1 X125.539 Y91.046 E20.90832
G1 X126.442 Y91.046 E20.99211
G1 X122.582 Y94.906 E21.49886
G1 X123.175 Y95.215 E21.56096
G1 X127.344 Y91.046 E22.10833
G1 X128.246 Y91.046 E22.19211
G1 X123.768 Y95.524 E22.78009
G1 X124.361 Y95.834 E22.84219
G1 X129.149 Y91.046 E23.47078
G1 X130.051 Y91.046 E23.55456
G1 X124.954 Y96.143 E24.22377
G1 X125.548 Y96.452 E24.28587
G1 X130.952 Y91.047 E24.99555
G1 X131.140 Y91.306 E25.02521
G1 X130.606 Y91.755 E25.08999
G1 X130.100 Y92.317 E25.16023
G1 X129.674 Y92.949 E25.23102
G1 X129.407 Y93.495 E25.28746
G1 X126.141 Y96.762 E25.71634
G1 X126.734 Y97.071 E25.77844
G1 X129.016 Y94.789 E26.07809
G1 X128.941 Y95.507 E26.14517
G1 X128.950 Y95.757 E26.16835
G1 X127.327 Y97.380 E26.38149
G1 X127.920 Y97.690 E26.44359
G1 X129.018 Y96.591 E26.58777
G1 X129.190 Y97.321 E26.65742
G1 X128.704 Y97.808 E26.72127
G1 X129.434 Y98.064 F4200.000
G1 F300.000
G1 X129.487 Y98.226 E26.72195
G1 F300.000
G1 X129.621 Y98.560 E26.72675
G1 X130.570 Y99.307 F4200.000
G1 F300.000
G1 X130.803 Y99.475 E26.75285
G1 F300.000
G1 X131.332 Y99.828 E26.80404
G1 F300.000
G1 X131.934 Y100.178 E26.85302
G1 X132.515 Y100.458 E26.89842
G1 F300.000
G1 X132.880 Y100.611 E26.93017
G1 F300.000
G1 X133.476 Y100.825 E26.98792
G1 X135.519 Y101.653 F4200.000
G1 F300.000
G1 X136.005 Y101.167 E27.05564
G1 X136.963 Y101.167 E27.14997
G1 X136.149 Y101.981 E27.26342
G1 X136.778 Y102.309 E27.33335
G1 X137.893 Y101.194 E27.48876
G1 X137.893 Y102.151 E27.58309
G1 X137.407 Y102.637 E27.65082
G1 F3360.000
G1 X137.893 Y102.151 E27.18430
G1 F3360.000
G1 X137.893 Y101.194 E26.53457
G1 F3360.000
G1 X136.778 Y102.309 E25.46414
G1 F3360.000
G1 X136.149 Y101.981 E24.98254
G1 F3360.000
G1 X136.963 Y101.167 E24.20110
G1 F3360.000
G1 X136.005 Y101.167 E23.55137
G1 F3360.000
G1 X135.519 Y101.653 E23.08494
G1 E22.65082 F2400.00000
G92 E0
G1 X132.513 Y91.012 F4200.000
G1 E5.00000 F2400.00000
G1 F300.000
G1 X131.887 Y91.125 E5.00432
G1 X131.913 Y91.210 F4200.000
G1 F300.000
G1 X131.584 Y91.430 E5.00834
G1 X131.913 Y91.210 F4200.000
G1 F300.000
G1 X132.285 Y90.977 E5.01805
G1 F3360.000
G1 X131.913 Y91.210 E4.72054
G1 E0.01805 F2400.00000
G92 E0
G1 X136.916 Y119.135 F4200.000
G1 E5.00000 F2400.00000
G1 F300.000
G1 X135.825 Y119.704 E5.13423
G1 X136.347 Y119.704 E5.19118
G1 X137.402 Y118.649 E5.35397
G1 X137.893 Y118.392 E5.41449
G1 X137.893 Y119.217 E5.50453
G1 X137.407 Y119.704 E5.57955
G1 X133.799 Y120.023 F4200.000
G1 F300.000
G1 X133.395 Y120.153 E5.61582
G1 F300.000
G1 X132.958 Y120.310 E5.65070
