; generated by Slic3r 1.3.1-dev (Build 18ddd3a36dc69d81fb9b7440498bff9e1dde8b7e) on 2021-07-22 at 16:53:26

; external perimeters extrusion width = 0.49mm (2.26mm^3/s)
; perimeters extrusion width = 0.63mm (3.52mm^3/s)
; infill extrusion width = 0.56mm (4.16mm^3/s)
; solid infill extrusion width = 0.63mm (1.17mm^3/s)
; top infill extrusion width = 0.63mm (0.94mm^3/s)

M107
G92 E0
M190 S100 ; set bed temperature and wait for it to be reached
M104 S240 ; set temperature
G28 ; home all axes
G1 Z5 F5000 ; lift nozzle

; Filament gcode

M109 S240 ; set temperature and wait for it to be reached
G21 ; set units to millimeters
G90 ; use absolute coordinates
M82 ; use absolute distances for extrusion
G92 E0
G1 E-5.00000 F2400.00000
G92 E0
G1 Z0.350 F4200.000
G1 X87.440 Y88.815 F4200.000
G1 E5.00000 F2400.00000
G1 F900.000
G1 X89.318 Y87.499 E5.20854
G1 X92.125 Y86.875 E5.46997
G1 X139.875 Y86.875 E9.81186
G1 X142.134 Y87.272 E10.02040
G1 X144.122 Y88.415 E10.22894
G1 X145.601 Y90.168 E10.43749
G1 X146.394 Y92.320 E10.64603
G1 X146.500 Y93.500 E10.75374
G1 X146.500 Y136.500 E14.66371
G1 X146.103 Y138.759 E14.87225
G1 X144.960 Y140.747 E15.08079
G1 X143.207 Y142.226 E15.28934
G1 X141.055 Y143.019 E15.49788
G1 X139.875 Y143.125 E15.60559
G1 X92.125 Y143.125 E19.94747
G1 X89.866 Y142.728 E20.15602
G1 X87.440 Y141.185 E20.41744
G1 X85.440 Y139.185 E20.67463
G1 X84.124 Y137.307 E20.88317
G1 X83.500 Y134.500 E21.14460
G1 X83.500 Y95.500 E24.69086
G1 X83.897 Y93.241 E24.89940
G1 X85.440 Y90.815 E25.16083
G1 X87.393 Y88.863 E25.41188
G1 F3360.000
G1 X89.318 Y87.499 E23.81048
G1 F3360.000
G1 X92.125 Y86.875 E21.85954
G1 F3360.000
G1 X93.890 Y86.875 E20.66188
G1 E20.41188 F2400.00000
G92 E0
G1 X125.191 Y129.602 F4200.000
G1 E5.00000 F2400.00000
G1 F240.000
G1 X124.847 Y129.936 E5.04362
G1 X124.443 Y130.195 E5.08724
G1 X123.968 Y130.382 E5.13372
G1 X123.371 Y130.465 E5.18846
G1 X122.887 Y130.420 E5.23270
G1 X122.454 Y130.296 E5.27362
G1 X122.054 Y130.096 E5.31425
G1 X121.707 Y129.835 E5.35381
G1 X121.408 Y129.512 E5.39381
G1 X121.157 Y129.113 E5.43670
G1 X120.987 Y128.665 E5.48030
G1 X120.908 Y128.191 E5.52392
G1 X120.923 Y127.720 E5.56683
G1 X121.021 Y127.283 E5.60752
G1 X121.208 Y126.850 E5.65041
G1 X121.480 Y126.455 E5.69404
G1 X121.825 Y126.122 E5.73765
G1 X122.229 Y125.863 E5.78127
G1 X122.676 Y125.688 E5.82489
G1 X123.148 Y125.604 E5.86849
G1 X123.627 Y125.615 E5.91210
G1 X124.096 Y125.719 E5.95573
G1 X124.534 Y125.913 E5.99935
G1 X124.920 Y126.185 E6.04224
G1 X125.231 Y126.507 E6.08295
G1 X125.490 Y126.901 E6.12583
G1 X125.670 Y127.346 E6.16945
G1 X125.758 Y127.817 E6.21307
G1 X125.753 Y128.297 E6.25669
G1 X125.653 Y128.766 E6.30031
G1 X125.464 Y129.207 E6.34392
G1 X125.230 Y129.546 E6.38141
G1 X124.712 Y129.196 F4200.000
G1 F240.000
G1 X124.457 Y129.444 E6.41377
G1 X124.157 Y129.636 E6.44613
G1 X123.808 Y129.773 E6.48023
G1 X123.357 Y129.836 E6.52164
G1 X123.003 Y129.803 E6.55402
G1 X122.682 Y129.711 E6.58438
G1 X122.385 Y129.563 E6.61456
G1 X122.127 Y129.369 E6.64387
G1 X121.906 Y129.131 E6.67346
G1 X121.719 Y128.833 E6.70537
G1 X121.593 Y128.501 E6.73772
G1 X121.534 Y128.150 E6.77008
G1 X121.546 Y127.799 E6.80201
G1 X121.618 Y127.477 E6.83201
G1 X121.757 Y127.155 E6.86392
G1 X121.959 Y126.862 E6.89628
G1 X122.215 Y126.615 E6.92864
G1 X122.515 Y126.422 E6.96100
G1 X122.846 Y126.293 E6.99336
G1 X123.196 Y126.230 E7.02570
G1 X123.552 Y126.238 E7.05806
G1 X123.899 Y126.316 E7.09042
G1 X124.225 Y126.460 E7.12278
G1 X124.512 Y126.662 E7.15470
G1 X124.741 Y126.899 E7.18471
G1 X124.934 Y127.192 E7.21662
G1 X125.067 Y127.522 E7.24898
G1 X125.133 Y127.872 E7.28134
G1 X125.129 Y128.228 E7.31370
G1 X125.055 Y128.576 E7.34606
G1 X124.914 Y128.903 E7.37841
G1 X124.751 Y129.140 E7.40464
G1 X124.233 Y128.790 F4200.000
G1 F240.000
G1 X124.066 Y128.952 E7.42573
G1 X123.871 Y129.077 E7.44683
G1 X123.649 Y129.165 E7.46856
G1 X123.343 Y129.207 E7.49664
G1 X123.118 Y129.186 E7.51716
G1 X122.909 Y129.126 E7.53696
G1 X122.715 Y129.029 E7.55669
G1 X122.547 Y128.903 E7.57576
G1 X122.404 Y128.749 E7.59492
G1 X122.281 Y128.554 E7.61586
G1 X122.199 Y128.337 E7.63695
G1 X122.161 Y128.108 E7.65806
G1 X122.168 Y127.878 E7.67900
G1 X122.215 Y127.670 E7.69831
G1 X122.306 Y127.459 E7.71925
G1 X122.438 Y127.268 E7.74035
G1 X122.605 Y127.107 E7.76145
G1 X122.800 Y126.982 E7.78255
G1 X123.016 Y126.897 E7.80365
G1 X123.244 Y126.856 E7.82474
G1 X123.476 Y126.862 E7.84584
G1 X123.703 Y126.912 E7.86694
G1 X123.915 Y127.006 E7.88804
G1 X124.103 Y127.139 E7.90898
G1 X124.251 Y127.291 E7.92829
G1 X124.377 Y127.484 E7.94923
G1 X124.464 Y127.699 E7.97033
G1 X124.507 Y127.927 E7.99143
G1 X124.505 Y128.159 E8.01253
G1 X124.456 Y128.386 E8.03363
G1 X124.365 Y128.599 E8.05472
G1 X124.271 Y128.735 E8.06969
G1 X124.233 Y128.790 F4200.000
G1 F3360.000
G1 X124.233 Y128.790 E8.02388
G1 F3360.000
G1 X124.066 Y128.952 E7.86645
G1 F3360.000
G1 X123.871 Y129.077 E7.70898
G1 F3360.000
G1 X123.649 Y129.165 E7.54684
G1 F3360.000
G1 X123.343 Y129.207 E7.33732
G1 F3360.000
G1 X123.118 Y129.186 E7.18414
G1 F3360.000
G1 X122.909 Y129.126 E7.03642
G1 F3360.000
G1 X122.715 Y129.029 E6.88914
G1 F3360.000
G1 X122.547 Y128.903 E6.74686
G1 F3360.000
G1 X122.404 Y128.749 E6.60386
G1 F3360.000
G1 X122.281 Y128.554 E6.44762
G1 F3360.000
G1 X122.199 Y128.337 E6.29019
G1 F3360.000
G1 X122.161 Y128.108 E6.13271
G1 F3360.000
G1 X122.168 Y127.878 E5.97642
G1 F3360.000
G1 X122.215 Y127.670 E5.83230
G1 F3360.000
G1 X122.306 Y127.459 E5.67606
G1 F3360.000
G1 X122.438 Y127.268 E5.51860
G1 F3360.000
G1 X122.605 Y127.107 E5.36115
G1 F3360.000
G1 X122.800 Y126.982 E5.20369
G1 F3360.000
G1 X123.016 Y126.897 E5.04623
G1 F3360.000
G1 X123.244 Y126.856 E4.88885
G1 F3360.000
G1 X123.476 Y126.862 E4.73139
G1 F3360.000
G1 X123.703 Y126.912 E4.57391
G1 F3360.000
G1 X123.915 Y127.006 E4.41646
G1 F3360.000
G1 X124.103 Y127.139 E4.26020
G1 F3360.000
G1 X124.251 Y127.291 E4.11606
G1 F3360.000
G1 X124.377 Y127.484 E3.95981
G1 F3360.000
G1 X124.464 Y127.699 E3.80236
G1 F3360.000
G1 X124.507 Y127.927 E3.64490
G1 F3360.000
G1 X124.505 Y128.159 E3.48743
G1 F3360.000
G1 X124.456 Y128.386 E3.32998
G1 F3360.000
G1 X124.450 Y128.400 E3.31969
G1 E3.06969 F2400.00000
G92 E0
G1 X123.344 Y104.462 F4200.000
G1 E5.00000 F2400.00000
G1 F240.000
G1 X122.905 Y104.422 E5.04011
G1 X122.480 Y104.306 E5.08011
G1 X122.057 Y104.099 E5.12301
G1 X121.676 Y103.808 E5.16661
G1 X121.359 Y103.448 E5.21022
G1 X121.123 Y103.039 E5.25314
G1 X120.975 Y102.617 E5.29385
G1 X120.905 Y102.150 E5.33673
G1 X120.929 Y101.671 E5.38033
G1 X121.046 Y101.206 E5.42395
G1 X121.252 Y100.773 E5.46758
G1 X121.539 Y100.389 E5.51120
G1 X121.890 Y100.074 E5.55409
G1 X122.273 Y99.842 E5.59478
G1 X122.715 Y99.677 E5.63768
G1 X123.189 Y99.601 E5.68129
G1 X123.668 Y99.620 E5.72491
G1 X124.135 Y99.732 E5.76854
G1 X124.570 Y99.934 E5.81216
G1 X124.957 Y100.217 E5.85579
G1 X125.281 Y100.570 E5.89938
G1 X125.530 Y100.981 E5.94301
G1 X125.693 Y101.432 E5.98664
G1 X125.764 Y101.906 E6.03025
G1 X125.741 Y102.385 E6.07385
G1 X125.625 Y102.851 E6.11747
G1 X125.419 Y103.284 E6.16109
G1 X125.133 Y103.669 E6.20471
G1 X124.776 Y103.989 E6.24833
G1 X124.350 Y104.242 E6.29335
G1 X123.834 Y104.412 E6.34278
G1 X123.411 Y104.455 E6.38140
G1 X123.341 Y103.834 F4200.000
G1 F240.000
G1 X123.016 Y103.805 E6.41105
G1 X122.702 Y103.719 E6.44063
G1 X122.387 Y103.565 E6.47255
G1 X122.104 Y103.349 E6.50490
G1 X121.869 Y103.082 E6.53725
G1 X121.693 Y102.778 E6.56919
G1 X121.584 Y102.466 E6.59920
G1 X121.533 Y102.119 E6.63111
G1 X121.550 Y101.764 E6.66345
G1 X121.637 Y101.419 E6.69582
G1 X121.790 Y101.097 E6.72818
G1 X122.003 Y100.812 E6.76054
G1 X122.264 Y100.578 E6.79245
G1 X122.546 Y100.407 E6.82246
G1 X122.875 Y100.285 E6.85438
G1 X123.227 Y100.228 E6.88673
G1 X123.582 Y100.242 E6.91909
G1 X123.928 Y100.325 E6.95145
G1 X124.251 Y100.475 E6.98381
G1 X124.539 Y100.685 E7.01618
G1 X124.779 Y100.947 E7.04852
G1 X124.963 Y101.252 E7.08089
G1 X125.084 Y101.586 E7.11325
G1 X125.137 Y101.938 E7.14561
G1 X125.120 Y102.294 E7.17795
G1 X125.034 Y102.639 E7.21031
G1 X124.881 Y102.960 E7.24267
G1 X124.669 Y103.246 E7.27503
G1 X124.404 Y103.484 E7.30739
G1 X124.090 Y103.670 E7.34060
G1 X123.703 Y103.797 E7.37762
G1 X123.408 Y103.827 E7.40463
G1 X123.337 Y103.206 F4200.000
G1 F240.000
G1 X123.127 Y103.188 E7.42382
G1 X122.924 Y103.132 E7.44298
G1 X122.717 Y103.031 E7.46392
G1 X122.532 Y102.890 E7.48501
G1 X122.379 Y102.716 E7.50611
G1 X122.264 Y102.516 E7.52706
G1 X122.194 Y102.316 E7.54637
G1 X122.160 Y102.088 E7.56731
G1 X122.171 Y101.856 E7.58840
G1 X122.228 Y101.631 E7.60950
G1 X122.328 Y101.422 E7.63061
G1 X122.466 Y101.236 E7.65171
G1 X122.638 Y101.082 E7.67264
G1 X122.819 Y100.972 E7.69196
G1 X123.035 Y100.892 E7.71290
G1 X123.264 Y100.855 E7.73399
G1 X123.496 Y100.864 E7.75509
G1 X123.722 Y100.918 E7.77620
G1 X123.932 Y101.016 E7.79729
G1 X124.120 Y101.153 E7.81840
G1 X124.277 Y101.324 E7.83949
G1 X124.397 Y101.522 E7.86059
G1 X124.476 Y101.741 E7.88169
G1 X124.510 Y101.970 E7.90279
G1 X124.499 Y102.202 E7.92389
G1 X124.443 Y102.427 E7.94498
G1 X124.343 Y102.636 E7.96608
G1 X124.205 Y102.822 E7.98718
G1 X124.032 Y102.978 E8.00828
G1 X123.830 Y103.098 E8.02968
G1 X123.573 Y103.183 E8.05429
G1 X123.404 Y103.199 E8.06968
G1 X123.337 Y103.206 F4200.000
G1 F3360.000
G1 X123.337 Y103.206 E8.02388
G1 F3360.000
G1 X123.127 Y103.188 E7.88069
G1 F3360.000
G1 X122.924 Y103.132 E7.73767
G1 F3360.000
G1 X122.717 Y103.031 E7.58141
G1 F3360.000
G1 X122.532 Y102.890 E7.42400
G1 F3360.000
G1 X122.379 Y102.716 E7.26653
G1 F3360.000
G1 X122.264 Y102.516 E7.11022
G1 F3360.000
G1 X122.194 Y102.316 E6.96609
G1 F3360.000
G1 X122.160 Y102.088 E6.80983
G1 F3360.000
G1 X122.171 Y101.856 E6.65243
G1 F3360.000
G1 X122.228 Y101.631 E6.49498
G1 F3360.000
G1 X122.328 Y101.422 E6.33748
G1 F3360.000
G1 X122.466 Y101.236 E6.18003
G1 F3360.000
G1 X122.638 Y101.082 E6.02379
G1 F3360.000
G1 X122.819 Y100.972 E5.87967
G1 F3360.000
G1 X123.035 Y100.892 E5.72340
G1 F3360.000
G1 X123.264 Y100.855 E5.56599
G1 F3360.000
G1 X123.496 Y100.864 E5.40850
G1 F3360.000
G1 X123.722 Y100.918 E5.25101
G1 F3360.000
G1 X123.932 Y101.016 E5.09357
G1 F3360.000
G1 X124.120 Y101.153 E4.93609
G1 F3360.000
G1 X124.277 Y101.324 E4.77868
G1 F3360.000
G1 X124.397 Y101.522 E4.62122
G1 F3360.000
G1 X124.476 Y101.741 E4.46375
G1 F3360.000
G1 X124.510 Y101.970 E4.30630
G1 F3360.000
G1 X124.499 Y102.202 E4.14887
G1 F3360.000
G1 X124.443 Y102.427 E3.99146
G1 F3360.000
G1 X124.343 Y102.636 E3.83399
G1 F3360.000
G1 X124.205 Y102.822 E3.67655
G1 F3360.000
G1 X124.032 Y102.978 E3.51907
G1 F3360.000
G1 X123.830 Y103.098 E3.35934
G1 F3360.000
G1 X123.774 Y103.116 E3.31968
G1 E3.06968 F2400.00000
G92 E0
G1 X98.267 Y104.050 F4200.000
G1 E5.00000 F2400.00000
G1 F240.000
G1 X98.216 Y104.527 E5.04361
G1 X98.072 Y104.985 E5.08727
G1 X97.842 Y105.405 E5.13085
G1 X97.533 Y105.772 E5.17445
G1 X97.113 Y106.107 E5.22334
G1 X96.444 Y106.394 E5.28948
G1 X95.850 Y106.464 E5.34388
G1 X95.358 Y106.415 E5.38888
G1 X94.899 Y106.275 E5.43251
G1 X94.476 Y106.047 E5.47612
G1 X94.107 Y105.742 E5.51976
G1 X93.804 Y105.369 E5.56339
G1 X93.581 Y104.945 E5.60697
G1 X93.445 Y104.485 E5.65060
G1 X93.403 Y104.006 E5.69425
G1 X93.454 Y103.530 E5.73784
G1 X93.599 Y103.072 E5.78147
G1 X93.830 Y102.652 E5.82510
G1 X94.139 Y102.285 E5.86871
G1 X94.515 Y101.987 E5.91234
G1 X94.941 Y101.767 E5.95594
G1 X95.395 Y101.638 E5.99884
G1 X95.841 Y101.598 E6.03954
G1 X96.310 Y101.644 E6.08243
G1 X96.769 Y101.784 E6.12604
G1 X97.192 Y102.010 E6.16966
G1 X97.562 Y102.316 E6.21328
G1 X97.864 Y102.688 E6.25690
G1 X98.088 Y103.112 E6.30051
G1 X98.224 Y103.572 E6.34415
G1 X98.261 Y103.983 E6.38160
G1 X97.640 Y104.045 F4200.000
G1 F240.000
G1 X97.602 Y104.398 E6.41395
G1 X97.495 Y104.738 E6.44634
G1 X97.324 Y105.050 E6.47867
G1 X97.095 Y105.322 E6.51102
G1 X96.789 Y105.566 E6.54659
G1 X96.281 Y105.784 E6.59681
G1 X95.844 Y105.835 E6.63683
G1 X95.481 Y105.799 E6.67003
G1 X95.140 Y105.695 E6.70240
G1 X94.827 Y105.527 E6.73475
G1 X94.553 Y105.300 E6.76713
G1 X94.328 Y105.023 E6.79949
G1 X94.163 Y104.708 E6.83183
G1 X94.062 Y104.367 E6.86420
G1 X94.030 Y104.012 E6.89657
G1 X94.069 Y103.659 E6.92891
G1 X94.176 Y103.319 E6.96128
G1 X94.348 Y103.008 E6.99364
G1 X94.577 Y102.736 E7.02600
G1 X94.856 Y102.514 E7.05837
G1 X95.172 Y102.351 E7.09072
G1 X95.510 Y102.255 E7.12264
G1 X95.838 Y102.225 E7.15264
G1 X96.187 Y102.260 E7.18455
G1 X96.528 Y102.363 E7.21691
G1 X96.841 Y102.532 E7.24927
G1 X97.116 Y102.758 E7.28163
G1 X97.340 Y103.034 E7.31399
G1 X97.506 Y103.349 E7.34634
G1 X97.608 Y103.690 E7.37871
G1 X97.633 Y103.977 E7.40491
G1 X97.012 Y104.039 F4200.000
G1 F240.000
G1 X96.987 Y104.270 E7.42601
G1 X96.917 Y104.492 E7.44712
G1 X96.806 Y104.695 E7.46821
G1 X96.656 Y104.872 E7.48930
G1 X96.465 Y105.025 E7.51155
G1 X96.118 Y105.174 E7.54587
G1 X95.838 Y105.207 E7.57150
G1 X95.604 Y105.184 E7.59290
G1 X95.382 Y105.116 E7.61401
G1 X95.178 Y105.006 E7.63510
G1 X94.999 Y104.858 E7.65621
G1 X94.853 Y104.678 E7.67731
G1 X94.745 Y104.472 E7.69840
G1 X94.679 Y104.250 E7.71950
G1 X94.658 Y104.018 E7.74061
G1 X94.683 Y103.788 E7.76170
G1 X94.753 Y103.567 E7.78281
G1 X94.865 Y103.363 E7.80391
G1 X95.015 Y103.186 E7.82500
G1 X95.196 Y103.041 E7.84611
G1 X95.403 Y102.935 E7.86720
G1 X95.624 Y102.872 E7.88814
G1 X95.836 Y102.853 E7.90746
G1 X96.065 Y102.876 E7.92839
G1 X96.287 Y102.943 E7.94949
G1 X96.491 Y103.053 E7.97059
G1 X96.670 Y103.201 E7.99169
G1 X96.817 Y103.381 E8.01279
G1 X96.925 Y103.586 E8.03388
G1 X96.991 Y103.808 E8.05499
G1 X97.006 Y103.972 E8.06994
G1 X97.012 Y104.039 F4200.000
G1 F3360.000
G1 X97.012 Y104.039 E8.02414
G1 F3360.000
G1 X96.987 Y104.270 E7.86670
G1 F3360.000
G1 X96.917 Y104.492 E7.70916
G1 F3360.000
G1 X96.806 Y104.695 E7.55177
G1 F3360.000
G1 X96.656 Y104.872 E7.39439
G1 F3360.000
G1 X96.465 Y105.025 E7.22832
G1 F3360.000
G1 X96.118 Y105.174 E6.97226
G1 F3360.000
G1 X95.838 Y105.207 E6.78100
G1 F3360.000
G1 X95.604 Y105.184 E6.62127
G1 F3360.000
G1 X95.382 Y105.116 E6.46377
G1 F3360.000
G1 X95.178 Y105.006 E6.30633
G1 F3360.000
G1 X94.999 Y104.858 E6.14882
G1 F3360.000
G1 X94.853 Y104.678 E5.99136
G1 F3360.000
G1 X94.745 Y104.472 E5.83396
G1 F3360.000
G1 X94.679 Y104.250 E5.67647
G1 F3360.000
G1 X94.658 Y104.018 E5.51897
G1 F3360.000
G1 X94.683 Y103.788 E5.36157
G1 F3360.000
G1 X94.753 Y103.567 E5.20406
G1 F3360.000
G1 X94.865 Y103.363 E5.04660
G1 F3360.000
G1 X95.015 Y103.186 E4.88918
G1 F3360.000
G1 X95.196 Y103.041 E4.73168
G1 F3360.000
G1 X95.403 Y102.935 E4.57425
G1 F3360.000
G1 X95.624 Y102.872 E4.41799
G1 F3360.000
G1 X95.836 Y102.853 E4.27386
G1 F3360.000
G1 X96.065 Y102.876 E4.11762
G1 F3360.000
G1 X96.287 Y102.943 E3.96018
G1 F3360.000
G1 X96.491 Y103.053 E3.80273
G1 F3360.000
G1 X96.670 Y103.201 E3.64524
G1 F3360.000
G1 X96.817 Y103.381 E3.48778
G1 F3360.000
G1 X96.925 Y103.586 E3.33038
G1 F3360.000
G1 X96.929 Y103.601 E3.31994
G1 E3.06994 F2400.00000
G92 E0
G1 X95.785 Y123.598 F4200.000
G1 E5.00000 F2400.00000
G1 F240.000
G1 X96.263 Y123.635 E5.04361
G1 X96.724 Y123.765 E5.08724
G1 X97.151 Y123.984 E5.13086
G1 X97.527 Y124.282 E5.17445
G1 X97.837 Y124.648 E5.21808
G1 X98.069 Y125.068 E5.26169
G1 X98.215 Y125.525 E5.30531
G1 X98.267 Y126.002 E5.34892
G1 X98.226 Y126.480 E5.39255
G1 X98.091 Y126.940 E5.43616
G1 X97.868 Y127.365 E5.47978
G1 X97.567 Y127.738 E5.52340
G1 X97.198 Y128.045 E5.56700
G1 X96.786 Y128.268 E5.60966
G1 X96.358 Y128.405 E5.65047
G1 X95.854 Y128.463 E5.69660
G1 X95.405 Y128.422 E5.73762
G1 X94.981 Y128.307 E5.77760
G1 X94.557 Y128.100 E5.82049
G1 X94.176 Y127.808 E5.86412
G1 X93.859 Y127.448 E5.90774
G1 X93.619 Y127.033 E5.95137
G1 X93.465 Y126.578 E5.99497
G1 X93.403 Y126.103 E6.03857
G1 X93.436 Y125.624 E6.08222
G1 X93.563 Y125.161 E6.12584
G1 X93.777 Y124.733 E6.16943
G1 X94.072 Y124.354 E6.21305
G1 X94.435 Y124.040 E6.25668
G1 X94.853 Y123.804 E6.30030
G1 X95.308 Y123.655 E6.34392
G1 X95.718 Y123.606 E6.38140
G1 X95.798 Y124.225 F4200.000
G1 F240.000
G1 X96.152 Y124.253 E6.41375
G1 X96.495 Y124.350 E6.44612
G1 X96.812 Y124.512 E6.47847
G1 X97.090 Y124.733 E6.51082
