; generated by Slic3r 1.3.1-dev (Build 18ddd3a36dc69d81fb9b7440498bff9e1dde8b7e) on 2021-07-23 at 11:33:44

; external perimeters extrusion width = 0.49mm (2.26mm^3/s)
; perimeters extrusion width = 0.63mm (3.52mm^3/s)
; infill extrusion width = 0.56mm (4.16mm^3/s)
; solid infill extrusion width = 0.63mm (1.17mm^3/s)
; top infill extrusion width = 0.63mm (0.94mm^3/s)
; support material extrusion width = 0.49mm (2.71mm^3/s)

M107
G92 E0
M190 S100 ; set bed temperature and wait for it to be reached
M104 S240 ; set temperature
G28 ; home all axes
G1 Z5 F5000 ; lift nozzle

; Filament gcode

M109 S240 ; set temperature and wait for it to be reached
G21 ; set units to millimeters
G90 ; use absolute coordinates
M82 ; use absolute distances for extrusion
G92 E0
G1 E-5.00000 F2400.00000
G92 E0
G1 Z0.350 F4200.000
G1 X110.575 Y95.160 F4200.000
G1 E5.00000 F2400.00000
G1 F900.000
G1 X112.330 Y93.685 E5.20854
G1 X114.484 Y92.897 E5.41708
G1 X115.650 Y92.793 E5.52351
G1 X118.650 Y92.793 E5.79630
G1 X120.909 Y93.190 E6.00484
G1 X122.897 Y94.334 E6.21339
G1 X124.376 Y96.086 E6.42193
G1 X125.169 Y98.238 E6.63047
G1 X125.275 Y99.418 E6.73818
G1 X125.275 Y130.582 E9.57188
G1 X124.878 Y132.841 E9.78042
G1 X123.735 Y134.829 E9.98896
G1 X121.982 Y136.308 E10.19750
G1 X119.830 Y137.101 E10.40604
G1 X118.650 Y137.207 E10.51375
G1 X115.650 Y137.207 E10.78654
G1 X113.391 Y136.810 E10.99508
G1 X111.403 Y135.666 E11.20363
G1 X110.574 Y134.839 E11.31009
G1 X105.514 Y128.807 E12.02604
G1 X104.930 Y127.993 E12.11716
G1 X104.341 Y127.024 E12.22023
G1 X103.506 Y124.888 E12.42877
G1 X103.376 Y123.581 E12.54821
G1 X103.376 Y106.419 E14.10875
G1 X103.773 Y104.160 E14.31729
G1 X104.341 Y102.976 E14.43675
G1 X104.932 Y102.005 E14.54010
G1 X105.516 Y101.190 E14.63124
G1 X110.531 Y95.212 E15.34077
G1 F3360.000
G1 X112.330 Y93.685 E13.73937
G1 F3360.000
G1 X114.484 Y92.897 E12.18310
G1 F3360.000
G1 X115.650 Y92.793 E11.38887
G1 F3360.000
G1 X116.826 Y92.793 E10.59077
G1 E10.34077 F2400.00000
G92 E0
G1 X116.550 Y116.381 F4200.000
G1 E5.00000 F2400.00000
G1 F240.000
G1 X116.235 Y116.688 E5.04003
G1 X115.844 Y116.934 E5.08204
G1 X115.421 Y117.088 E5.12298
G1 X114.975 Y117.151 E5.16389
G1 X114.526 Y117.119 E5.20479
G1 X114.101 Y116.997 E5.24506
G1 X113.777 Y116.841 E5.27774
G1 X113.457 Y116.596 E5.31440
G1 X113.159 Y116.265 E5.35489
G1 X112.937 Y115.881 E5.39524
G1 X112.830 Y115.587 E5.42364
G1 X112.754 Y115.156 E5.46343
G1 X112.754 Y114.844 E5.49183
G1 X112.831 Y114.407 E5.53217
G1 X113.000 Y113.990 E5.57308
G1 X113.250 Y113.619 E5.61369
G1 X113.536 Y113.333 E5.65049
G1 X113.955 Y113.066 E5.69572
G1 X114.379 Y112.912 E5.73675
G1 X114.825 Y112.849 E5.77765
G1 X115.274 Y112.881 E5.81856
G1 X115.706 Y113.005 E5.85947
G1 X116.098 Y113.213 E5.89981
G1 X116.344 Y113.405 E5.92822
G1 X116.641 Y113.735 E5.96856
G1 X116.863 Y114.119 E6.00891
G1 X116.970 Y114.413 E6.03731
G1 X117.046 Y114.844 E6.07710
G1 X117.046 Y115.156 E6.10550
G1 X116.970 Y115.587 E6.14532
G1 X116.840 Y115.941 E6.17954
G1 X116.587 Y116.325 E6.22134
G1 X116.550 Y116.381 F4200.000
G1 X117.050 Y112.304 F4200.000
G1 F240.000
G1 X116.177 Y111.840 E6.31128
G1 X115.492 Y111.643 E6.37608
G1 X114.781 Y111.593 E6.44087
G1 X114.075 Y111.693 E6.50567
G1 X113.400 Y111.938 E6.57101
G1 X112.950 Y112.224 E6.61952
G1 X112.950 Y106.935 E7.10053
G1 X116.549 Y101.018 E7.73026
G1 X117.050 Y101.018 E7.77581
G1 X117.050 Y112.236 E8.79591
G1 X117.675 Y113.721 F4200.000
G1 F240.000
G1 X117.397 Y113.795 E8.82207
G1 X117.149 Y113.366 E8.86716
G1 X116.772 Y112.947 E8.91844
G1 X116.440 Y112.687 E8.95679
G1 X115.942 Y112.422 E9.00808
G1 X115.383 Y112.262 E9.06093
G1 X114.803 Y112.221 E9.11378
G1 X114.227 Y112.302 E9.16663
G1 X113.678 Y112.502 E9.21982
G1 X113.142 Y112.843 E9.27753
G1 X112.765 Y113.220 E9.32606
G1 X112.590 Y113.480 E9.35449
G1 X112.325 Y113.399 E9.37972
G1 X112.325 Y106.759 E9.98341
G1 X116.198 Y100.393 E10.66102
G1 X117.675 Y100.393 E10.79533
G1 X117.675 Y113.653 E12.00108
G1 X117.050 Y117.652 F4200.000
G1 F240.000
G1 X117.050 Y128.982 E13.03129
G1 X116.549 Y128.982 E13.07684
G1 X112.950 Y123.065 E13.70658
G1 X112.950 Y117.830 E14.18262
G1 X113.654 Y118.169 E14.25370
G1 X114.308 Y118.357 E14.31557
G1 X115.019 Y118.407 E14.38037
G1 X115.725 Y118.307 E14.44516
G1 X116.396 Y118.063 E14.51011
G1 X116.993 Y117.688 E14.57423
G1 X117.408 Y116.215 F4200.000
G1 F240.000
G1 X117.675 Y116.295 E14.59961
G1 X117.675 Y129.607 E15.81004
G1 X116.198 Y129.607 E15.94435
G1 X112.325 Y123.241 E16.62196
G1 X112.325 Y116.272 E17.25557
G1 X113.031 Y117.057 E17.35153
G1 X113.448 Y117.376 E17.39927
G1 X113.877 Y117.583 E17.44264
G1 X114.417 Y117.738 E17.49371
G1 X114.997 Y117.779 E17.54656
G1 X115.573 Y117.698 E17.59941
G1 X116.120 Y117.499 E17.65236
G1 X116.623 Y117.182 E17.70644
G1 X117.035 Y116.781 E17.75868
G1 X117.371 Y116.271 E17.81419
G1 F3360.000
G1 X117.675 Y116.295 E17.60698
G1 F3360.000
G1 X117.675 Y122.990 E13.06419
G1 E12.81419 F2400.00000
G92 E0
G1 X118.300 Y130.232 F4200.000
G1 E5.00000 F2400.00000
G1 F750.000
G1 X115.847 Y130.232 E5.22307
G1 X111.700 Y123.416 E5.94855
G1 X111.700 Y106.584 E7.47901
G1 X115.847 Y99.768 E8.20449
G1 X118.300 Y99.768 E8.42756
G1 X118.300 Y130.164 E11.19147
G1 X117.904 Y130.017 F4200.000
G1 X116.182 Y127.819 F4200.000
G1 F300.000
G1 X116.668 Y127.333 E11.25475
G1 X116.668 Y126.438 E11.33710
G1 X115.844 Y127.263 E11.44443
G1 X115.505 Y126.707 E11.50436
G1 X116.668 Y125.544 E11.65574
G1 X116.668 Y124.649 E11.73809
G1 X115.167 Y126.150 E11.93352
G1 X114.829 Y125.594 E11.99345
G1 X116.668 Y123.754 E12.23293
G1 X116.668 Y122.860 E12.31527
G1 X114.490 Y125.038 E12.59880
G1 X114.152 Y124.482 E12.65873
G1 X116.668 Y121.965 E12.98631
G1 X116.668 Y121.071 E13.06866
G1 X113.814 Y123.925 E13.44029
G1 X113.475 Y123.369 E13.50022
G1 X116.668 Y120.176 E13.91590
G1 X116.668 Y119.281 E13.99825
G1 X113.332 Y122.618 E14.43262
G1 X113.332 Y121.724 E14.51497
G1 X116.531 Y118.524 E14.93144
G1 X116.120 Y118.674 E14.97172
G1 X115.383 Y118.777 E15.04019
G1 X113.332 Y120.829 E15.30724
G1 X113.332 Y119.934 E15.38959
G1 X114.527 Y118.739 E15.54525
G1 X114.442 Y118.733 E15.55313
G1 X113.818 Y118.554 E15.61291
G1 X113.332 Y119.040 E15.67618
G1 X112.970 Y117.451 F4200.000
G1 F300.000
G1 X112.637 Y117.228 E15.67885
G1 X112.693 Y116.158 F4200.000
G1 F300.000
G1 X112.602 Y116.032 E15.67956
G1 F300.000
G1 X112.473 Y115.818 E15.68250
G1 F300.000
G1 X112.012 Y114.980 E15.70705
G1 X112.251 Y114.527 F4200.000
G1 F300.000
G1 X112.227 Y114.816 E15.72403
G1 X112.227 Y115.184 E15.74549
G1 X112.275 Y115.750 E15.77873
G1 X112.251 Y114.527 F4200.000
G1 F300.000
G1 X112.281 Y114.220 E15.79945
G1 F300.000
G1 X112.374 Y113.740 E15.83722
G1 X116.182 Y111.507 F4200.000
G1 F300.000
G1 X116.668 Y111.021 E15.89975
G1 X116.668 Y110.137 E15.98015
G1 X115.498 Y111.308 E16.13073
G1 X115.358 Y111.267 E16.14396
G1 X114.700 Y111.221 E16.20396
G1 X116.668 Y109.253 E16.45718
G1 X116.668 Y108.369 E16.53758
G1 X113.716 Y111.321 E16.91730
G1 X113.332 Y111.453 E16.95429
G1 X113.332 Y110.822 E17.01171
G1 X116.668 Y107.485 E17.44092
G1 X116.668 Y106.601 E17.52132
G1 X113.332 Y109.938 E17.95053
G1 X113.332 Y109.054 E18.03093
G1 X116.668 Y105.717 E18.46013
G1 X116.668 Y104.833 E18.54054
G1 X113.332 Y108.170 E18.96974
G1 X113.332 Y107.353 E19.04405
G1 X113.436 Y107.182 E19.06227
G1 X116.668 Y103.949 E19.47808
G1 X116.668 Y103.065 E19.55848
G1 X114.809 Y104.925 E19.79766
G1 X116.182 Y102.667 E20.03797
G1 X116.668 Y102.181 E20.10052
G1 F3360.000
G1 X116.182 Y102.667 E19.63387
G1 F3360.000
G1 X114.809 Y104.925 E17.84105
G1 F3360.000
G1 X116.668 Y103.065 E16.05663
G1 F3360.000
G1 X116.668 Y103.949 E15.45679
G1 F3360.000
G1 X116.558 Y104.060 E15.35052
G1 E15.10052 F2400.00000
G92 E0
G1 X116.959 Y112.695 F4200.000
G1 E5.00000 F2400.00000
G1 F300.000
G1 X117.015 Y112.687 E5.00038
G1 X117.133 Y112.779 E5.00139
G1 F300.000
G1 X117.363 Y112.958 E5.00647
G1 X117.609 Y114.062 F4200.000
G1 F300.000
G1 X117.640 Y114.412 E5.03815
G1 F300.000
G1 X117.673 Y114.816 E5.07120
G1 X117.670 Y115.239 E5.10554
G1 F300.000
G1 X117.608 Y115.949 E5.17004
G1 X117.333 Y116.952 F4200.000
G1 F300.000
G1 X117.298 Y117.051 E5.17031
G1 X117.097 Y117.210 E5.17098
G1 F3360.000
G1 X117.298 Y117.051 E4.99750
G1 F3360.000
G1 X117.333 Y116.952 E4.92593
G1 E0.17098 F2400.00000
G92 E0
G1 Z0.350 F4200.000
G1 X115.000 Y115.737 F4200.000
G1 E5.00000 F2400.00000
G1 F900.000
G1 X115.130 Y115.708 E5.01212
G1 X115.272 Y115.645 E5.02627
G1 X115.470 Y115.478 E5.04978
G1 X115.600 Y115.255 E5.07329
G1 X115.644 Y115.000 E5.09680
G1 X115.600 Y114.745 E5.12030
G1 X115.470 Y114.521 E5.14381
G1 X115.272 Y114.355 E5.16732
G1 X115.130 Y114.292 E5.18147
G1 X115.000 Y114.263 E5.19359
G1 X115.000 Y115.737 E5.32766
G1 F3360.000
G1 X115.000 Y114.263 E4.32715
G1 F3360.000
G1 X115.130 Y114.292 E4.23670
G1 F3360.000
G1 X115.272 Y114.355 E4.13110
G1 F3360.000
G1 X115.470 Y114.521 E3.95566
G1 F3360.000
G1 X115.600 Y114.745 E3.78024
G1 F3360.000
G1 X115.644 Y115.000 E3.60480
G1 F3360.000
G1 X115.600 Y115.255 E3.42938
G1 F3360.000
G1 X115.470 Y115.478 E3.25395
G1 F3360.000
G1 X115.272 Y115.645 E3.07850
G1 F3360.000
G1 X115.130 Y115.708 E2.97291
G1 F3360.000
G1 X115.000 Y115.737 E2.88246
G1 E0.32766 F2400.00000
G92 E0
G1 X110.001 Y123.581 F4200.000
G1 E5.00000 F2400.00000
G1 F900.000
G1 X110.590 Y124.549 E5.10306
G1 X110.745 Y124.549 E5.11719
G1 X110.295 Y123.809 E5.19595
G1 X110.295 Y122.303 E5.33292
G1 X110.001 Y122.303 E5.35966
G1 X110.001 Y123.581 E5.47588
G1 F3360.000
G1 X110.001 Y122.303 E4.60861
G1 F3360.000
G1 X110.295 Y122.303 E4.40899
G1 F3360.000
G1 X110.295 Y123.809 E3.38690
G1 F3360.000
G1 X110.745 Y124.549 E2.79908
G1 F3360.000
G1 X110.590 Y124.549 E2.69369
G1 F3360.000
G1 X110.001 Y123.581 E1.92457
G1 E0.47588 F2400.00000
G92 E0
G1 X110.001 Y107.697 F4200.000
G1 E5.00000 F2400.00000
G1 F900.000
G1 X110.001 Y106.419 E5.11622
G1 X110.592 Y105.448 E5.21957
G1 X110.747 Y105.448 E5.23369
G1 X110.295 Y106.191 E5.31273
G1 X110.295 Y107.697 E5.44970
G1 X110.001 Y107.697 E5.47645
M104 S233 ; set temperature
M140 S95 ; set bed temperature
G1 F3360.000
G1 X110.295 Y107.697 E5.27682
G1 F3360.000
G1 X110.295 Y106.191 E4.25473
G1 F3360.000
G1 X110.747 Y105.448 E3.66483
G1 F3360.000
G1 X110.592 Y105.448 E3.55947
G1 F3360.000
G1 X110.001 Y106.419 E2.78822
G1 F3360.000
G1 X110.001 Y107.697 E1.92092
G1 E0.47645 F2400.00000
G92 E0
G1 Z0.601 F4200.000
G1 X111.254 Y105.216 F4200.000
G1 E5.00000 F2400.00000
G1 F1800.000
G1 X111.303 Y105.135 E5.00437
G1 X110.416 Y105.136 E5.04514
G1 X108.667 Y108.011 E5.19988
G1 X110.608 Y108.009 E5.28911
G1 X110.608 Y106.278 E5.36869
G1 X111.254 Y105.216 E5.42583
G1 F3360.000
G1 X110.608 Y106.278 E4.58242
G1 F3360.000
G1 X110.608 Y108.009 E3.40793
G1 F3360.000
G1 X108.667 Y108.011 E2.09100
G1 F3360.000
G1 X109.751 Y106.229 E0.67583
G1 E0.42583 F2400.00000
G92 E0
G1 X115.011 Y113.949 F4200.000
G1 E5.00000 F2400.00000
G1 F1800.000
G1 X114.789 Y113.949 E5.01016
G1 X114.644 Y113.974 E5.01694
G1 X114.437 Y114.050 E5.02710
G1 X114.249 Y114.167 E5.03726
G1 X114.090 Y114.321 E5.04742
G1 X113.967 Y114.504 E5.05758
G1 X113.884 Y114.709 E5.06774
G1 X113.846 Y114.926 E5.07790
G1 X113.846 Y115.074 E5.08468
G1 X113.884 Y115.291 E5.09484
G1 X113.967 Y115.496 E5.10500
G1 X114.090 Y115.679 E5.11516
G1 X114.249 Y115.833 E5.12533
G1 X114.371 Y115.915 E5.13210
G1 X114.573 Y116.005 E5.14226
G1 X114.789 Y116.051 E5.15242
G1 X115.011 Y116.051 E5.16259
G1 X115.156 Y116.026 E5.16937
G1 X115.363 Y115.950 E5.17953
G1 X115.551 Y115.833 E5.18969
G1 X115.710 Y115.679 E5.19985
G1 X115.833 Y115.496 E5.21001
G1 X115.916 Y115.291 E5.22017
G1 X115.954 Y115.074 E5.23033
G1 X115.954 Y114.926 E5.23711
G1 X115.916 Y114.709 E5.24727
G1 X115.833 Y114.504 E5.25743
G1 X115.710 Y114.321 E5.26759
G1 X115.551 Y114.167 E5.27775
G1 X115.363 Y114.050 E5.28791
G1 X115.227 Y113.995 E5.29469
G1 X115.011 Y113.949 E5.30485
G1 X115.289 Y115.000 F4200.000
G1 F1800.000
G1 X115.266 Y114.867 E5.31107
G1 X115.180 Y114.730 E5.31851
G1 X115.071 Y114.650 E5.32473
G1 X114.914 Y114.611 E5.33217
G1 X114.780 Y114.630 E5.33839
G1 X114.639 Y114.711 E5.34584
G1 X114.544 Y114.842 E5.35328
G1 X114.511 Y115.000 E5.36073
G1 X115.289 Y115.000 E5.39653
G1 F3360.000
G1 X114.511 Y115.000 E4.86807
G1 F3360.000
G1 X114.544 Y114.842 E4.75820
G1 F3360.000
G1 X114.639 Y114.711 E4.64832
G1 F3360.000
G1 X114.780 Y114.630 E4.53846
G1 F3360.000
G1 X114.914 Y114.611 E4.44667
G1 F3360.000
G1 X115.071 Y114.650 E4.33684
G1 F3360.000
G1 X115.180 Y114.730 E4.24502
G1 F3360.000
G1 X115.266 Y114.867 E4.13518
G1 F3360.000
G1 X115.289 Y115.000 E4.04340
G1 E0.39653 F2400.00000
G92 E0
G1 X120.215 Y119.152 F4200.000
G1 E5.00000 F2400.00000
G1 F1800.000
G1 X120.215 Y110.847 E5.38184
G1 X119.392 Y110.847 E5.41965
G1 X119.392 Y119.152 E5.80150
G1 X120.215 Y119.152 E5.83930
G1 F3360.000
G1 X119.392 Y119.152 E5.28129
G1 F3360.000
G1 X119.392 Y112.975 E1.08930
G1 E0.83930 F2400.00000
G92 E0
G1 X110.608 Y121.991 F4200.000
G1 E5.00000 F2400.00000
G1 F1800.000
G1 X108.667 Y121.989 E5.08923
G1 X110.414 Y124.862 E5.24381
G1 X111.301 Y124.862 E5.28460
G1 X110.608 Y123.722 E5.34598
G1 X110.608 Y121.991 E5.42556
G1 F3360.000
G1 X110.608 Y123.722 E4.25106
G1 F3360.000
G1 X111.301 Y124.862 E3.34511
G1 F3360.000
G1 X110.414 Y124.862 E2.74310
G1 F3360.000
G1 X108.831 Y122.259 E0.67556
G1 E0.42556 F2400.00000
G92 E0
G1 Z0.652 F4200.000
G1 X115.396 Y116.988 F4200.000
G1 E5.00000 F2400.00000
G1 F480.000
G1 X114.971 Y117.048 E5.02314
G1 X114.544 Y117.018 E5.04628
G1 X114.132 Y116.900 E5.06943
G1 X113.758 Y116.701 E5.09233
G1 X113.526 Y116.519 E5.10824
G1 X113.242 Y116.204 E5.13115
G1 X113.030 Y115.837 E5.15405
G1 X112.930 Y115.560 E5.16996
G1 X112.857 Y115.147 E5.19263
G1 X112.857 Y114.853 E5.20854
G1 X112.930 Y114.435 E5.23145
G1 X113.091 Y114.038 E5.25459
G1 X113.330 Y113.683 E5.27773
G1 X113.639 Y113.385 E5.30087
G1 X114.002 Y113.158 E5.32401
G1 X114.404 Y113.012 E5.34716
G1 X114.829 Y112.952 E5.37030
G1 X115.256 Y112.982 E5.39344
G1 X115.668 Y113.100 E5.41658
G1 X116.042 Y113.299 E5.43949
G1 X116.274 Y113.481 E5.45540
G1 X116.558 Y113.796 E5.47830
G1 X116.772 Y114.167 E5.50144
G1 X116.902 Y114.568 E5.52426
G1 X116.943 Y114.857 E5.54002
G1 X116.943 Y115.147 E5.55570
G1 X116.870 Y115.565 E5.57861
G1 X116.709 Y115.962 E5.60175
G1 X116.470 Y116.317 E5.62489
G1 X116.161 Y116.615 E5.64803
G1 X115.798 Y116.842 E5.67117
G1 X115.459 Y116.965 E5.69067
G1 X115.396 Y116.988 F4200.000
G1 X117.398 Y116.817 F4200.000
G1 F480.000
G1 X117.398 Y129.330 E6.51800
G1 X116.354 Y129.330 E6.58702
G1 X112.602 Y123.163 E7.06431
G1 X112.602 Y117.073 E7.46701
G1 X113.209 Y117.547 E7.51790
G1 X113.754 Y117.836 E7.55874
G1 X114.369 Y118.013 E7.60102
G1 X115.007 Y118.057 E7.64331
G1 X115.640 Y117.968 E7.68560
G1 X116.241 Y117.750 E7.72789
G1 X116.783 Y117.411 E7.77017
G1 X117.349 Y116.864 E7.82218
G1 X117.398 Y113.227 F4200.000
G1 F480.000
G1 X116.962 Y112.743 E7.86526
G1 X116.591 Y112.453 E7.89636
G1 X116.046 Y112.164 E7.93719
G1 X115.431 Y111.987 E7.97947
G1 X114.793 Y111.943 E8.02176
G1 X114.160 Y112.032 E8.06405
G1 X113.559 Y112.250 E8.10634
G1 X113.017 Y112.589 E8.14863
G1 X112.602 Y112.989 E8.18671
G1 X112.602 Y106.837 E8.59351
G1 X116.354 Y100.670 E9.07080
G1 X117.398 Y100.670 E9.13982
G1 X117.398 Y113.160 E9.96564
G1 F3360.000
G1 X116.962 Y112.743 E9.55640
G1 F3360.000
G1 X116.591 Y112.453 E9.23732
G1 F3360.000
G1 X116.046 Y112.164 E8.81829
G1 F3360.000
G1 X115.431 Y111.987 E8.38431
G1 F3360.000
G1 X114.793 Y111.943 E7.95035
G1 F3360.000
G1 X114.160 Y112.032 E7.51638
G1 F3360.000
G1 X113.559 Y112.250 E7.08239
G1 F3360.000
G1 X113.017 Y112.589 E6.64842
G1 F3360.000
G1 X112.602 Y112.989 E6.25759
G1 F3360.000
G1 X112.602 Y111.454 E5.21564
G1 E4.96564 F2400.00000
G92 E0
G1 X112.364 Y114.893 F4200.000
G1 E5.00000 F2400.00000
G1 F1800.000
G1 X112.076 Y114.867 E5.01914
G1 X112.076 Y106.690 E5.55987
G1 X116.058 Y100.144 E6.06649
G1 X117.924 Y100.144 E6.18989
G1 X117.924 Y129.856 E8.15452
G1 X116.058 Y129.856 E8.27792
G1 X112.076 Y123.310 E8.78454
G1 X112.076 Y115.133 E9.32527
G1 X112.364 Y115.107 E9.34441
