; generated by Slic3r 1.3.1-dev (Build 18ddd3a36dc69d81fb9b7440498bff9e1dde8b7e) on 2021-07-09 at 17:31:04

; external perimeters extrusion width = 0.49mm (2.26mm^3/s)
; perimeters extrusion width = 0.63mm (3.52mm^3/s)
; infill extrusion width = 0.56mm (4.16mm^3/s)
; solid infill extrusion width = 0.63mm (1.17mm^3/s)
; top infill extrusion width = 0.63mm (0.94mm^3/s)

M107
G92 E0
M190 S100 ; set bed temperature and wait for it to be reached
M104 S240 ; set temperature
G28 ; home all axes
G1 Z5 F5000 ; lift nozzle

; Filament gcode

M109 S240 ; set temperature and wait for it to be reached
G21 ; set units to millimeters
G90 ; use absolute coordinates
M82 ; use absolute distances for extrusion
G92 E0
G1 E-5.00000 F2400.00000
G92 E0
G1 Z0.350 F4200.000
G1 X85.040 Y88.753 F4200.000
G1 E5.00000 F2400.00000
G1 F900.000
G1 X86.793 Y87.274 E5.20854
G1 X88.945 Y86.481 E5.41708
G1 X90.125 Y86.375 E5.52479
G1 X139.875 Y86.375 E10.04854
G1 X142.134 Y86.772 E10.25708
G1 X144.122 Y87.915 E10.46562
G1 X145.601 Y89.668 E10.67417
G1 X146.394 Y91.820 E10.88271
G1 X146.500 Y93.000 E10.99042
G1 X146.500 Y137.000 E14.99132
G1 X146.103 Y139.259 E15.19986
G1 X144.960 Y141.247 E15.40840
G1 X143.207 Y142.726 E15.61695
G1 X141.055 Y143.519 E15.82549
G1 X139.875 Y143.625 E15.93320
G1 X90.125 Y143.625 E20.45695
G1 X87.866 Y143.228 E20.66549
G1 X85.878 Y142.085 E20.87403
G1 X84.399 Y140.332 E21.08257
G1 X83.606 Y138.180 E21.29111
G1 X83.500 Y137.000 E21.39882
G1 X83.500 Y93.000 E25.39973
G1 X83.897 Y90.741 E25.60827
G1 X85.007 Y88.812 E25.81067
G1 F3360.000
G1 X86.793 Y87.274 E24.21127
G1 F3360.000
G1 X88.945 Y86.481 E22.65500
G1 F3360.000
G1 X90.125 Y86.375 E21.85121
G1 F3360.000
G1 X91.290 Y86.375 E21.06067
G1 E20.81067 F2400.00000
G92 E0
G1 X95.184 Y101.953 F4200.000
G1 E5.00000 F2400.00000
G1 F240.000
G1 X94.850 Y102.254 E5.04091
G1 X94.466 Y102.476 E5.08125
G1 X94.172 Y102.583 E5.10965
G1 X93.735 Y102.660 E5.15000
G1 X93.285 Y102.644 E5.19091
G1 X92.849 Y102.536 E5.23182
G1 X92.445 Y102.338 E5.27272
G1 X92.094 Y102.065 E5.31313
G1 X91.863 Y101.806 E5.34465
G1 X91.650 Y101.455 E5.38206
G1 X91.497 Y101.034 E5.42275
G1 X91.434 Y100.589 E5.46366
G1 X91.466 Y100.140 E5.50457
G1 X91.590 Y99.707 E5.54547
G1 X91.798 Y99.316 E5.58582
G1 X91.990 Y99.069 E5.61422
G1 X92.315 Y98.777 E5.65401
G1 X92.580 Y98.611 E5.68241
G1 X92.992 Y98.445 E5.72276
G1 X93.435 Y98.367 E5.76367
G1 X93.884 Y98.383 E5.80457
G1 X94.321 Y98.491 E5.84548
G1 X94.725 Y98.689 E5.88639
G1 X95.075 Y98.962 E5.92680
G1 X95.306 Y99.221 E5.95832
G1 X95.520 Y99.572 E5.99572
G1 X95.673 Y99.993 E6.03642
G1 X95.736 Y100.438 E6.07733
G1 X95.705 Y100.881 E6.11767
G1 X95.629 Y101.184 E6.14608
G1 X95.449 Y101.589 E6.18642
G1 X95.224 Y101.899 E6.22119
G1 X95.184 Y101.953 F4200.000
G1 F3360.000
G1 X95.184 Y101.953 E6.17539
G1 F3360.000
G1 X94.850 Y102.254 E5.87011
G1 F3360.000
G1 X94.466 Y102.476 E5.56905
G1 F3360.000
G1 X94.172 Y102.583 E5.35709
G1 F3360.000
G1 X93.735 Y102.660 E5.05599
G1 F3360.000
G1 X93.285 Y102.644 E4.75070
G1 F3360.000
G1 X92.849 Y102.536 E4.44543
G1 F3360.000
G1 X92.445 Y102.338 E4.14018
G1 F3360.000
G1 X92.094 Y102.065 E3.83860
G1 F3360.000
G1 X91.863 Y101.806 E3.60340
G1 F3360.000
G1 X91.650 Y101.455 E3.32424
G1 F3360.000
G1 X91.497 Y101.034 E3.02055
G1 F3360.000
G1 X91.434 Y100.589 E2.71527
G1 F3360.000
G1 X91.466 Y100.140 E2.40998
G1 F3360.000
G1 X91.590 Y99.707 E2.10474
G1 F3360.000
G1 X91.798 Y99.316 E1.80365
G1 F3360.000
G1 X91.990 Y99.069 E1.59168
G1 F3360.000
G1 X92.122 Y98.951 E1.47119
G1 E1.22119 F2400.00000
G92 E0
G1 X105.119 Y125.777 F4200.000
G1 E5.00000 F2400.00000
G1 F240.000
G1 X105.554 Y125.620 E5.04205
G1 X106.011 Y125.548 E5.08410
G1 X106.473 Y125.562 E5.12615
G1 X106.924 Y125.663 E5.16820
G1 X107.349 Y125.847 E5.21026
G1 X107.752 Y126.121 E5.25461
G1 X108.140 Y126.534 E5.30610
G1 X108.388 Y126.954 E5.35046
G1 X108.545 Y127.389 E5.39251
G1 X108.617 Y127.846 E5.43456
G1 X108.603 Y128.308 E5.47660
G1 X108.502 Y128.759 E5.51865
G1 X108.308 Y129.207 E5.56301
G1 X107.975 Y129.665 E5.61451
G1 X107.609 Y129.988 E5.65886
G1 X107.211 Y130.223 E5.70090
G1 X106.776 Y130.380 E5.74295
G1 X106.319 Y130.452 E5.78500
G1 X105.857 Y130.438 E5.82706
G1 X105.406 Y130.337 E5.86911
G1 X104.981 Y130.153 E5.91116
G1 X104.599 Y129.893 E5.95321
G1 X104.272 Y129.566 E5.99525
G1 X103.998 Y129.163 E6.03961
G1 X103.789 Y128.636 E6.09110
G1 X103.713 Y128.154 E6.13546
G1 X103.727 Y127.692 E6.17751
G1 X103.828 Y127.241 E6.21955
G1 X104.012 Y126.816 E6.26160
G1 X104.286 Y126.413 E6.30597
G1 X104.699 Y126.025 E6.35745
G1 X105.061 Y125.811 E6.39567
G1 X105.386 Y126.345 F4200.000
G1 F240.000
G1 X105.710 Y126.228 E6.42698
G1 X106.050 Y126.174 E6.45828
G1 X106.394 Y126.185 E6.48960
G1 X106.730 Y126.260 E6.52090
G1 X107.046 Y126.397 E6.55221
G1 X107.344 Y126.599 E6.58492
G1 X107.637 Y126.911 E6.62387
G1 X107.820 Y127.221 E6.65658
G1 X107.937 Y127.545 E6.68789
G1 X107.991 Y127.885 E6.71919
G1 X107.980 Y128.229 E6.75050
G1 X107.905 Y128.565 E6.78181
G1 X107.762 Y128.895 E6.81452
G1 X107.510 Y129.242 E6.85347
G1 X107.240 Y129.480 E6.88618
G1 X106.944 Y129.655 E6.91748
G1 X106.620 Y129.772 E6.94879
G1 X106.280 Y129.826 E6.98010
G1 X105.936 Y129.815 E7.01141
G1 X105.600 Y129.740 E7.04271
G1 X105.284 Y129.603 E7.07402
G1 X104.999 Y129.409 E7.10533
G1 X104.756 Y129.166 E7.13663
G1 X104.553 Y128.868 E7.16935
G1 X104.396 Y128.470 E7.20829
G1 X104.339 Y128.115 E7.24101
G1 X104.350 Y127.771 E7.27231
G1 X104.425 Y127.435 E7.30362
G1 X104.562 Y127.119 E7.33492
G1 X104.764 Y126.821 E7.36764
G1 X105.076 Y126.528 E7.40658
G1 X105.328 Y126.379 E7.43316
G1 X105.653 Y126.913 F4200.000
G1 F240.000
G1 X105.866 Y126.836 E7.45372
G1 X106.090 Y126.801 E7.47429
G1 X106.316 Y126.808 E7.49485
G1 X106.536 Y126.857 E7.51542
G1 X106.744 Y126.947 E7.53598
G1 X106.935 Y127.077 E7.55705
G1 X107.134 Y127.289 E7.58345
G1 X107.252 Y127.488 E7.60452
G1 X107.329 Y127.701 E7.62508
G1 X107.364 Y127.925 E7.64565
G1 X107.357 Y128.151 E7.66621
G1 X107.308 Y128.371 E7.68678
G1 X107.216 Y128.584 E7.70785
G1 X107.045 Y128.819 E7.73425
G1 X106.871 Y128.972 E7.75531
G1 X106.677 Y129.087 E7.77588
G1 X106.464 Y129.164 E7.79644
G1 X106.240 Y129.199 E7.81701
G1 X106.014 Y129.192 E7.83757
G1 X105.794 Y129.143 E7.85814
G1 X105.586 Y129.053 E7.87870
G1 X105.399 Y128.926 E7.89927
G1 X105.239 Y128.766 E7.91983
G1 X105.109 Y128.574 E7.94090
G1 X105.002 Y128.304 E7.96730
G1 X104.966 Y128.075 E7.98837
G1 X104.973 Y127.849 E8.00893
G1 X105.022 Y127.629 E8.02949
G1 X105.112 Y127.421 E8.05006
G1 X105.242 Y127.229 E8.07113
G1 X105.454 Y127.031 E8.09753
G1 X105.595 Y126.947 E8.11246
G1 X105.653 Y126.913 F4200.000
G1 F3360.000
G1 X105.653 Y126.913 E8.06665
G1 F3360.000
G1 X105.866 Y126.836 E7.91320
G1 F3360.000
G1 X106.090 Y126.801 E7.75973
G1 F3360.000
G1 X106.316 Y126.808 E7.60624
G1 F3360.000
G1 X106.536 Y126.857 E7.45278
G1 F3360.000
G1 X106.744 Y126.947 E7.29930
G1 F3360.000
G1 X106.935 Y127.077 E7.14208
G1 F3360.000
G1 X107.134 Y127.289 E6.94509
G1 F3360.000
G1 X107.252 Y127.488 E6.78784
G1 F3360.000
G1 X107.329 Y127.701 E6.63438
G1 F3360.000
G1 X107.364 Y127.925 E6.48091
G1 F3360.000
G1 X107.357 Y128.151 E6.32747
G1 F3360.000
G1 X107.308 Y128.371 E6.17400
G1 F3360.000
G1 X107.216 Y128.584 E6.01676
G1 F3360.000
G1 X107.045 Y128.819 E5.81974
G1 F3360.000
G1 X106.871 Y128.972 E5.66252
G1 F3360.000
G1 X106.677 Y129.087 E5.50907
G1 F3360.000
G1 X106.464 Y129.164 E5.35562
G1 F3360.000
G1 X106.240 Y129.199 E5.20215
G1 F3360.000
G1 X106.014 Y129.192 E5.04866
G1 F3360.000
G1 X105.794 Y129.143 E4.89520
G1 F3360.000
G1 X105.586 Y129.053 E4.74172
G1 F3360.000
G1 X105.399 Y128.926 E4.58826
G1 F3360.000
G1 X105.239 Y128.766 E4.43483
G1 F3360.000
G1 X105.109 Y128.574 E4.27758
G1 F3360.000
G1 X105.002 Y128.304 E4.08057
G1 F3360.000
G1 X104.966 Y128.075 E3.92334
G1 F3360.000
G1 X104.973 Y127.849 E3.76988
G1 F3360.000
G1 X105.022 Y127.629 E3.61642
G1 F3360.000
G1 X105.112 Y127.421 E3.46297
G1 F3360.000
G1 X105.195 Y127.299 E3.36246
G1 E3.11246 F2400.00000
G92 E0
G1 X106.319 Y104.452 F4200.000
G1 E5.00000 F2400.00000
G1 F240.000
G1 X105.857 Y104.438 E5.04205
G1 X105.406 Y104.337 E5.08410
G1 X104.981 Y104.153 E5.12615
G1 X104.599 Y103.893 E5.16820
G1 X104.272 Y103.566 E5.21024
G1 X103.998 Y103.163 E5.25460
G1 X103.789 Y102.636 E5.30610
G1 X103.713 Y102.154 E5.35045
G1 X103.727 Y101.692 E5.39250
G1 X103.828 Y101.241 E5.43455
G1 X104.012 Y100.816 E5.47660
G1 X104.272 Y100.434 E5.51865
G1 X104.599 Y100.107 E5.56069
G1 X105.002 Y99.833 E5.60505
G1 X105.529 Y99.624 E5.65655
G1 X106.011 Y99.548 E5.70091
G1 X106.473 Y99.562 E5.74295
G1 X106.924 Y99.663 E5.78500
G1 X107.349 Y99.847 E5.82705
G1 X107.731 Y100.107 E5.86910
G1 X108.076 Y100.452 E5.91346
G1 X108.379 Y100.930 E5.96495
G1 X108.545 Y101.389 E6.00931
G1 X108.617 Y101.846 E6.05136
G1 X108.603 Y102.308 E6.09340
G1 X108.502 Y102.759 E6.13545
G1 X108.308 Y103.207 E6.17982
G1 X107.975 Y103.665 E6.23131
G1 X107.609 Y103.988 E6.27566
G1 X107.211 Y104.223 E6.31771
G1 X106.776 Y104.380 E6.35976
G1 X106.386 Y104.441 E6.39567
G1 X106.280 Y103.826 F4200.000
G1 F240.000
G1 X105.936 Y103.815 E6.42698
G1 X105.600 Y103.740 E6.45828
G1 X105.284 Y103.603 E6.48959
G1 X104.999 Y103.409 E6.52090
G1 X104.756 Y103.166 E6.55220
G1 X104.553 Y102.868 E6.58492
G1 X104.396 Y102.470 E6.62387
G1 X104.339 Y102.115 E6.65658
G1 X104.350 Y101.771 E6.68788
G1 X104.425 Y101.435 E6.71919
G1 X104.562 Y101.119 E6.75050
G1 X104.756 Y100.834 E6.78180
G1 X104.999 Y100.591 E6.81311
G1 X105.297 Y100.388 E6.84582
G1 X105.695 Y100.231 E6.88477
G1 X106.050 Y100.174 E6.91748
G1 X106.394 Y100.185 E6.94879
G1 X106.730 Y100.260 E6.98009
G1 X107.046 Y100.397 E7.01140
G1 X107.331 Y100.591 E7.04271
G1 X107.585 Y100.845 E7.07542
G1 X107.815 Y101.207 E7.11437
G1 X107.937 Y101.545 E7.14708
G1 X107.991 Y101.885 E7.17839
G1 X107.980 Y102.229 E7.20969
G1 X107.905 Y102.565 E7.24100
G1 X107.762 Y102.895 E7.27372
G1 X107.510 Y103.242 E7.31266
G1 X107.240 Y103.480 E7.34538
G1 X106.944 Y103.655 E7.37668
G1 X106.620 Y103.772 E7.40799
G1 X106.347 Y103.815 E7.43316
G1 X106.240 Y103.199 F4200.000
G1 F240.000
G1 X106.014 Y103.192 E7.45372
G1 X105.794 Y103.143 E7.47428
G1 X105.586 Y103.053 E7.49485
G1 X105.399 Y102.926 E7.51541
G1 X105.239 Y102.766 E7.53598
G1 X105.109 Y102.574 E7.55705
G1 X105.002 Y102.304 E7.58345
G1 X104.966 Y102.075 E7.60452
G1 X104.973 Y101.849 E7.62508
G1 X105.022 Y101.629 E7.64564
G1 X105.112 Y101.421 E7.66621
G1 X105.239 Y101.234 E7.68677
G1 X105.399 Y101.074 E7.70734
G1 X105.591 Y100.944 E7.72841
G1 X105.861 Y100.837 E7.75481
G1 X106.090 Y100.801 E7.77588
G1 X106.316 Y100.808 E7.79644
G1 X106.536 Y100.857 E7.81700
G1 X106.744 Y100.947 E7.83757
G1 X106.931 Y101.074 E7.85813
G1 X107.095 Y101.238 E7.87920
G1 X107.250 Y101.483 E7.90560
G1 X107.329 Y101.701 E7.92667
G1 X107.364 Y101.925 E7.94724
G1 X107.357 Y102.151 E7.96780
G1 X107.308 Y102.371 E7.98836
G1 X107.216 Y102.584 E8.00944
G1 X107.045 Y102.819 E8.03584
G1 X106.871 Y102.972 E8.05690
G1 X106.677 Y103.087 E8.07747
G1 X106.464 Y103.164 E8.09803
G1 X106.307 Y103.189 E8.11246
G1 X106.240 Y103.199 F4200.000
G1 F3360.000
G1 X106.240 Y103.199 E8.06666
G1 F3360.000
G1 X106.014 Y103.192 E7.91319
G1 F3360.000
G1 X105.794 Y103.143 E7.75974
G1 F3360.000
G1 X105.586 Y103.053 E7.60627
G1 F3360.000
G1 X105.399 Y102.926 E7.45281
G1 F3360.000
G1 X105.239 Y102.766 E7.29935
G1 F3360.000
G1 X105.109 Y102.574 E7.14212
G1 F3360.000
G1 X105.002 Y102.304 E6.94509
G1 F3360.000
G1 X104.966 Y102.075 E6.78786
G1 F3360.000
G1 X104.973 Y101.849 E6.63440
G1 F3360.000
G1 X105.022 Y101.629 E6.48095
G1 F3360.000
G1 X105.112 Y101.421 E6.32748
G1 F3360.000
G1 X105.239 Y101.234 E6.17403
G1 F3360.000
G1 X105.399 Y101.074 E6.02056
G1 F3360.000
G1 X105.591 Y100.944 E5.86333
G1 F3360.000
G1 X105.861 Y100.837 E5.66630
G1 F3360.000
G1 X106.090 Y100.801 E5.50907
G1 F3360.000
G1 X106.316 Y100.808 E5.35562
G1 F3360.000
G1 X106.536 Y100.857 E5.20216
G1 F3360.000
G1 X106.744 Y100.947 E5.04869
G1 F3360.000
G1 X106.931 Y101.074 E4.89523
G1 F3360.000
G1 X107.095 Y101.238 E4.73800
G1 F3360.000
G1 X107.250 Y101.483 E4.54099
G1 F3360.000
G1 X107.329 Y101.701 E4.38374
G1 F3360.000
G1 X107.364 Y101.925 E4.23028
G1 F3360.000
G1 X107.357 Y102.151 E4.07683
G1 F3360.000
G1 X107.308 Y102.371 E3.92336
G1 F3360.000
G1 X107.216 Y102.584 E3.76612
G1 F3360.000
G1 X107.045 Y102.819 E3.56911
G1 F3360.000
G1 X106.871 Y102.972 E3.41188
G1 F3360.000
G1 X106.809 Y103.009 E3.36246
G1 E3.11246 F2400.00000
G92 E0
G1 X132.654 Y106.271 F4200.000
G1 E5.00000 F2400.00000
G1 F240.000
G1 X132.099 Y105.893 E5.06108
G1 X131.772 Y105.566 E5.10312
G1 X131.498 Y105.163 E5.14748
G1 X131.289 Y104.636 E5.19898
G1 X131.213 Y104.154 E5.24334
G1 X131.227 Y103.692 E5.28539
G1 X131.328 Y103.241 E5.32744
G1 X131.512 Y102.816 E5.36949
G1 X131.772 Y102.434 E5.41153
G1 X132.099 Y102.107 E5.45358
G1 X132.502 Y101.833 E5.49794
G1 X133.029 Y101.624 E5.54944
G1 X133.511 Y101.548 E5.59379
G1 X133.973 Y101.562 E5.63584
G1 X134.424 Y101.663 E5.67789
G1 X134.849 Y101.847 E5.71993
G1 X135.252 Y102.121 E5.76430
G1 X135.640 Y102.534 E5.81579
G1 X135.888 Y102.954 E5.86014
G1 X136.045 Y103.389 E5.90219
G1 X136.117 Y103.846 E5.94424
G1 X136.103 Y104.308 E5.98629
G1 X136.002 Y104.759 E6.02834
G1 X135.818 Y105.184 E6.07039
G1 X135.558 Y105.566 E6.11244
G1 X135.231 Y105.893 E6.15448
G1 X134.684 Y106.265 E6.21461
G1 X135.431 Y106.629 E6.29018
G1 X135.993 Y107.068 E6.35498
G1 X136.433 Y107.592 E6.41721
G1 X136.698 Y108.052 E6.46549
G1 X136.932 Y108.695 E6.52773
G1 X137.031 Y109.401 E6.59252
G1 X136.982 Y110.112 E6.65733
G1 X136.793 Y110.769 E6.71955
G1 X136.560 Y111.247 E6.76783
G1 X136.158 Y111.800 E6.83007
G1 X135.628 Y112.277 E6.89487
G1 X135.036 Y112.619 E6.95710
G1 X134.537 Y112.801 E7.00539
G1 X133.863 Y112.920 E7.06762
G1 X133.151 Y112.895 E7.13242
G1 X132.459 Y112.723 E7.19722
G1 X131.819 Y112.410 E7.26200
G1 X131.257 Y111.972 E7.32680
G1 X130.817 Y111.447 E7.38904
G1 X130.563 Y111.007 E7.43527
G1 X130.338 Y110.439 E7.49078
G1 X130.218 Y109.648 E7.56360
G1 X130.266 Y108.956 E7.62667
G1 X130.395 Y108.440 E7.67496
G1 X130.673 Y107.815 E7.73718
G1 X131.092 Y107.239 E7.80197
G1 X131.621 Y106.762 E7.86677
G1 X132.239 Y106.406 E7.93156
G1 X132.590 Y106.292 E7.96519
G1 X132.848 Y106.865 F4200.000
G1 F240.000
G1 X133.031 Y106.805 E7.98269
G1 X133.448 Y106.747 E8.02103
G1 X134.012 Y106.766 E8.07233
G1 X134.576 Y106.907 E8.12518
G1 X135.098 Y107.162 E8.17803
G1 X135.556 Y107.520 E8.23088
G1 X135.919 Y107.952 E8.28217
G1 X136.130 Y108.317 E8.32052
G1 X136.323 Y108.847 E8.37181
G1 X136.404 Y109.423 E8.42466
G1 X136.363 Y110.003 E8.47751
G1 X136.207 Y110.545 E8.52880
G1 X136.023 Y110.924 E8.56714
G1 X135.691 Y111.380 E8.61843
G1 X135.259 Y111.769 E8.67129
G1 X134.771 Y112.051 E8.72257
G1 X134.374 Y112.195 E8.76092
G1 X133.819 Y112.293 E8.81221
G1 X133.238 Y112.273 E8.86506
G1 X132.674 Y112.132 E8.91791
G1 X132.152 Y111.877 E8.97076
G1 X131.694 Y111.520 E9.02361
G1 X131.331 Y111.088 E9.07491
G1 X131.127 Y110.734 E9.11200
G1 X130.945 Y110.275 E9.15688
G1 X130.846 Y109.622 E9.21695
G1 X130.886 Y109.054 E9.26875
G1 X130.988 Y108.645 E9.30710
G1 X131.217 Y108.130 E9.35838
G1 X131.559 Y107.659 E9.41123
G1 X131.991 Y107.270 E9.46408
G1 X132.494 Y106.980 E9.51693
G1 X132.783 Y106.886 E9.54459
G1 X133.041 Y107.459 F4200.000
G1 F240.000
G1 X133.172 Y107.417 E9.55712
G1 X133.481 Y107.373 E9.58552
G1 X133.924 Y107.389 E9.62587
G1 X134.361 Y107.498 E9.66677
G1 X134.765 Y107.695 E9.70768
G1 X135.120 Y107.972 E9.74859
G1 X135.405 Y108.312 E9.78894
G1 X135.561 Y108.582 E9.81734
G1 X135.713 Y108.999 E9.85768
G1 X135.776 Y109.445 E9.89859
G1 X135.744 Y109.893 E9.93950
G1 X135.622 Y110.320 E9.97984
G1 X135.485 Y110.601 E10.00824
G1 X135.224 Y110.960 E10.04859
G1 X134.890 Y111.261 E10.08950
G1 X134.506 Y111.482 E10.12985
G1 X134.212 Y111.589 E10.15825
G1 X133.775 Y111.666 E10.19860
G1 X133.325 Y111.651 E10.23951
G1 X132.889 Y111.542 E10.28041
G1 X132.485 Y111.345 E10.32132
G1 X132.130 Y111.068 E10.36223
G1 X131.845 Y110.728 E10.40257
G1 X131.691 Y110.462 E10.43053
G1 X131.552 Y110.111 E10.46479
