; generated by Slic3r 1.3.1-dev (Build 18ddd3a36dc69d81fb9b7440498bff9e1dde8b7e) on 2021-05-03 at 17:33:16

; external perimeters extrusion width = 0.49mm (2.71mm^3/s)
; perimeters extrusion width = 0.63mm (7.04mm^3/s)
; infill extrusion width = 0.56mm (8.31mm^3/s)
; solid infill extrusion width = 0.63mm (2.35mm^3/s)
; top infill extrusion width = 0.63mm (1.76mm^3/s)

M107
G92 E0
M190 S47 ; set bed temperature and wait for it to be reached
M104 S209 ; set temperature
G28 ; home all axes
G1 Z5 F5000 ; lift nozzle

; Filament gcode

M109 S209 ; set temperature and wait for it to be reached
G21 ; set units to millimeters
G90 ; use absolute coordinates
M82 ; use absolute distances for extrusion
G92 E0
G1 E-4.00000 F2400.00000
G92 E0
G1 Z0.350 F5400.000
G1 X145.451 Y130.678 F5400.000
G1 E4.00000 F2400.00000
G1 F1800.000
G1 X145.736 Y130.375 E4.03784
G1 X146.928 Y129.201 E4.18992
G1 X148.191 Y128.105 E4.34200
G1 X149.521 Y127.090 E4.49407
G1 X150.560 Y126.384 E4.60832
G1 X151.993 Y125.522 E4.76040
G1 X153.477 Y124.751 E4.91247
G1 X154.786 Y124.170 E5.04268
G1 X157.417 Y123.625 E5.28699
G1 X172.583 Y123.625 E6.66608
G1 X175.214 Y124.170 E6.91039
G1 X176.147 Y124.573 E7.00277
G1 X177.643 Y125.321 E7.15485
G1 X179.089 Y126.161 E7.30692
G1 X179.440 Y126.384 E7.34477
G1 X180.816 Y127.335 E7.49684
G1 X181.809 Y128.105 E7.61109
G1 X183.072 Y129.201 E7.76316
G1 X183.375 Y129.486 E7.80101
G1 X184.549 Y130.678 E7.95308
G1 X185.645 Y131.941 E8.10516
G1 X186.660 Y133.271 E8.25724
G1 X187.366 Y134.310 E8.37148
G1 X188.228 Y135.743 E8.52356
G1 X188.999 Y137.227 E8.67564
G1 X189.676 Y138.756 E8.82771
G1 X190.254 Y140.326 E8.97979
G1 X190.733 Y141.928 E9.13186
G1 X191.111 Y143.557 E9.28394
G1 X191.386 Y145.207 E9.43602
G1 X191.556 Y146.871 E9.58809
G1 X191.625 Y148.750 E9.75909
G1 X191.625 Y199.750 E14.39650
G1 X191.228 Y202.009 E14.60504
G1 X190.085 Y203.997 E14.81358
G1 X188.332 Y205.476 E15.02213
G1 X186.180 Y206.269 E15.23067
G1 X185.000 Y206.375 E15.33838
G1 X145.000 Y206.375 E18.97556
G1 X142.741 Y205.978 E19.18410
G1 X140.753 Y204.835 E19.39264
G1 X139.274 Y203.082 E19.60119
G1 X138.481 Y200.930 E19.80973
G1 X138.375 Y199.750 E19.91744
G1 X138.375 Y148.750 E24.55485
G1 X138.444 Y146.871 E24.72584
G1 X138.562 Y145.620 E24.84009
G1 X138.811 Y143.966 E24.99216
G1 X139.163 Y142.331 E25.14424
G1 X139.617 Y140.721 E25.29632
G1 X139.746 Y140.326 E25.33416
G1 X140.324 Y138.756 E25.48624
G1 X141.001 Y137.227 E25.63831
G1 X141.772 Y135.743 E25.79039
G1 X142.411 Y134.661 E25.90464
G1 X142.634 Y134.310 E25.94248
G1 X143.585 Y132.934 E26.09456
G1 X144.355 Y131.941 E26.20880
G1 X145.407 Y130.729 E26.35474
G1 F4320.000
G1 X145.736 Y130.375 E26.09948
G1 F4320.000
G1 X146.625 Y129.486 E25.43636
G1 F4320.000
G1 X146.928 Y129.201 E25.21670
G1 F4320.000
G1 X147.870 Y128.370 E24.55358
G1 F4320.000
G1 X148.191 Y128.105 E24.33394
G1 F4320.000
G1 X149.184 Y127.335 E23.67082
G1 F4320.000
G1 X149.521 Y127.090 E23.45117
G1 F4320.000
G1 X150.560 Y126.384 E22.78805
G1 F4320.000
G1 X150.911 Y126.161 E22.56839
G1 F4320.000
G1 X150.933 Y126.148 E22.55474
G1 E22.35474 F2400.00000
G92 E0
G1 X149.034 Y194.423 F5400.000
G1 E4.00000 F2400.00000
G1 F1800.000
G1 X148.895 Y194.720 E4.02982
G1 X148.735 Y194.925 E4.05346
G1 X148.544 Y195.093 E4.07659
G1 X148.325 Y195.223 E4.09972
G1 X148.086 Y195.309 E4.12285
G1 X147.835 Y195.349 E4.14598
G1 X147.575 Y195.341 E4.16962
G1 X147.257 Y195.259 E4.19944
G1 X147.026 Y195.141 E4.22307
G1 X146.825 Y194.985 E4.24621
G1 X146.657 Y194.794 E4.26934
G1 X146.527 Y194.575 E4.29247
G1 X146.441 Y194.336 E4.31560
G1 X146.401 Y194.085 E4.33873
G1 X146.409 Y193.831 E4.36186
G1 X146.465 Y193.582 E4.38499
G1 X146.568 Y193.344 E4.40863
G1 X146.761 Y193.078 E4.43845
G1 X146.958 Y192.904 E4.46239
G1 X147.272 Y192.726 E4.49521
G1 X147.659 Y192.651 E4.53103
G1 X147.919 Y192.659 E4.55474
G1 X148.168 Y192.715 E4.57787
G1 X148.401 Y192.816 E4.60100
G1 X148.612 Y192.959 E4.62413
G1 X148.791 Y193.138 E4.64727
G1 X148.938 Y193.353 E4.67090
G1 X149.058 Y193.658 E4.70072
G1 X149.099 Y193.915 E4.72436
G1 X149.091 Y194.169 E4.74749
G1 X149.049 Y194.357 E4.76499
G1 X149.034 Y194.423 F5400.000
G1 F4320.000
G1 X149.034 Y194.423 E4.72936
G1 F4320.000
G1 X148.895 Y194.720 E4.55628
G1 F4320.000
G1 X148.735 Y194.925 E4.41909
G1 F4320.000
G1 X148.544 Y195.093 E4.28483
G1 F4320.000
G1 X148.325 Y195.223 E4.15057
G1 F4320.000
G1 X148.086 Y195.309 E4.01631
G1 F4320.000
G1 X147.835 Y195.349 E3.88205
G1 F4320.000
G1 X147.575 Y195.341 E3.74486
G1 F4320.000
G1 X147.257 Y195.259 E3.57178
G1 F4320.000
G1 X147.026 Y195.141 E3.43459
G1 F4320.000
G1 X146.825 Y194.985 E3.30033
G1 F4320.000
G1 X146.657 Y194.794 E3.16607
G1 F4320.000
G1 X146.527 Y194.575 E3.03181
G1 F4320.000
G1 X146.441 Y194.336 E2.89755
G1 F4320.000
G1 X146.401 Y194.085 E2.76329
G1 F4320.000
G1 X146.409 Y193.831 E2.62903
G1 F4320.000
G1 X146.465 Y193.582 E2.49477
G1 F4320.000
G1 X146.568 Y193.344 E2.35758
G1 F4320.000
G1 X146.761 Y193.078 E2.18450
G1 F4320.000
G1 X146.958 Y192.904 E2.04556
G1 F4320.000
G1 X147.272 Y192.726 E1.85503
G1 F4320.000
G1 X147.659 Y192.651 E1.64712
G1 F4320.000
G1 X147.919 Y192.659 E1.50951
G1 F4320.000
G1 X148.168 Y192.715 E1.37525
G1 F4320.000
G1 X148.401 Y192.816 E1.24099
G1 F4320.000
G1 X148.612 Y192.959 E1.10673
G1 F4320.000
G1 X148.791 Y193.138 E0.97247
G1 F4320.000
G1 X148.799 Y193.150 E0.96499
G1 E0.76499 F2400.00000
G92 E0
G1 X180.901 Y194.085 F5400.000
G1 E4.00000 F2400.00000
G1 F1800.000
G1 X180.909 Y193.831 E4.02313
G1 X180.965 Y193.582 E4.04626
G1 X181.066 Y193.349 E4.06939
G1 X181.209 Y193.138 E4.09252
G1 X181.388 Y192.959 E4.11566
G1 X181.603 Y192.812 E4.13929
G1 X181.908 Y192.692 E4.16911
G1 X182.165 Y192.651 E4.19275
G1 X182.419 Y192.659 E4.21588
G1 X182.668 Y192.715 E4.23901
G1 X182.901 Y192.816 E4.26214
G1 X183.112 Y192.959 E4.28527
G1 X183.295 Y193.142 E4.30891
G1 X183.471 Y193.419 E4.33873
G1 X183.559 Y193.664 E4.36237
G1 X183.599 Y193.915 E4.38550
G1 X183.591 Y194.169 E4.40863
G1 X183.534 Y194.423 E4.43227
G1 X183.395 Y194.720 E4.46209
G1 X183.235 Y194.925 E4.48572
G1 X183.044 Y195.093 E4.50885
G1 X182.825 Y195.223 E4.53199
G1 X182.586 Y195.309 E4.55512
G1 X182.335 Y195.349 E4.57825
G1 X182.075 Y195.341 E4.60188
G1 X181.757 Y195.259 E4.63170
G1 X181.526 Y195.141 E4.65534
G1 X181.325 Y194.985 E4.67847
G1 X181.157 Y194.794 E4.70160
G1 X181.027 Y194.575 E4.72473
G1 X180.941 Y194.336 E4.74786
G1 X180.912 Y194.152 E4.76486
G1 X180.901 Y194.085 F5400.000
G1 X179.065 Y193.969 F5400.000
G1 F1800.000
G1 X179.059 Y194.058 E4.77292
G1 X178.889 Y194.644 E4.82840
G1 X178.623 Y195.165 E4.88157
G1 X178.265 Y195.627 E4.93475
G1 X177.826 Y196.014 E4.98792
G1 X177.323 Y196.311 E5.04109
G1 X176.773 Y196.509 E5.09427
G1 X176.170 Y196.605 E5.14975
G1 X175.442 Y196.559 E5.21606
G1 X174.856 Y196.389 E5.27154
G1 X174.335 Y196.123 E5.32471
G1 X173.873 Y195.765 E5.37789
G1 X173.486 Y195.326 E5.43106
G1 X173.189 Y194.823 E5.48423
G1 X172.991 Y194.273 E5.53741
G1 X172.899 Y193.695 E5.59058
G1 X172.918 Y193.111 E5.64375
G1 X173.045 Y192.540 E5.69692
G1 X173.277 Y192.003 E5.75010
G1 X173.606 Y191.520 E5.80327
G1 X174.020 Y191.106 E5.85644
G1 X174.503 Y190.777 E5.90962
G1 X175.063 Y190.535 E5.96510
G1 X175.780 Y190.398 E6.03141
G1 X176.389 Y190.418 E6.08689
G1 X176.985 Y190.551 E6.14237
G1 X177.645 Y190.861 E6.20868
G1 X178.127 Y191.235 E6.26416
G1 X178.514 Y191.674 E6.31734
G1 X178.811 Y192.177 E6.37051
G1 X179.009 Y192.727 E6.42368
G1 X179.105 Y193.330 E6.47916
G1 X179.069 Y193.902 E6.53127
G1 X178.441 Y193.930 F5400.000
G1 F1800.000
G1 X178.305 Y194.413 E6.57686
G1 X178.093 Y194.828 E6.61929
G1 X177.807 Y195.197 E6.66172
G1 X177.457 Y195.506 E6.70415
G1 X177.056 Y195.743 E6.74658
G1 X176.617 Y195.901 E6.78901
G1 X176.140 Y195.977 E6.83285
G1 X175.550 Y195.940 E6.88661
G1 X175.087 Y195.805 E6.93045
G1 X174.672 Y195.593 E6.97288
G1 X174.303 Y195.307 E7.01531
G1 X173.994 Y194.957 E7.05774
G1 X173.757 Y194.556 E7.10017
G1 X173.599 Y194.117 E7.14261
G1 X173.526 Y193.656 E7.18504
G1 X173.540 Y193.189 E7.22747
G1 X173.642 Y192.734 E7.26990
G1 X173.827 Y192.306 E7.31233
G1 X174.090 Y191.920 E7.35476
G1 X174.420 Y191.590 E7.39719
G1 X174.806 Y191.327 E7.43962
G1 X175.248 Y191.136 E7.48346
G1 X175.829 Y191.025 E7.53722
G1 X176.311 Y191.040 E7.58106
G1 X176.781 Y191.145 E7.62490
G1 X177.316 Y191.397 E7.67866
G1 X177.697 Y191.693 E7.72250
G1 X178.006 Y192.043 E7.76493
G1 X178.243 Y192.444 E7.80736
G1 X178.401 Y192.883 E7.84979
G1 X178.477 Y193.360 E7.89363
G1 X178.445 Y193.863 E7.93946
G1 X177.820 Y193.842 F5400.000
G1 F1800.000
G1 X177.722 Y194.182 E7.97166
G1 X177.563 Y194.492 E8.00335
G1 X177.350 Y194.767 E8.03503
G1 X177.088 Y194.998 E8.06672
G1 X176.788 Y195.175 E8.09841
G1 X176.460 Y195.293 E8.13010
G1 X176.111 Y195.349 E8.16229
G1 X175.658 Y195.320 E8.20351
G1 X175.318 Y195.222 E8.23570
G1 X175.008 Y195.063 E8.26739
G1 X174.733 Y194.850 E8.29908
G1 X174.502 Y194.588 E8.33077
G1 X174.325 Y194.288 E8.36246
G1 X174.207 Y193.960 E8.39415
G1 X174.152 Y193.616 E8.42583
G1 X174.163 Y193.268 E8.45752
G1 X174.239 Y192.928 E8.48921
G1 X174.377 Y192.608 E8.52090
G1 X174.573 Y192.320 E8.55259
G1 X174.820 Y192.073 E8.58428
G1 X175.108 Y191.877 E8.61596
G1 X175.433 Y191.737 E8.64816
G1 X175.878 Y191.652 E8.68937
G1 X176.232 Y191.663 E8.72157
G1 X176.578 Y191.740 E8.75376
G1 X176.988 Y191.933 E8.79498
G1 X177.267 Y192.150 E8.82717
G1 X177.498 Y192.412 E8.85886
G1 X177.675 Y192.712 E8.89055
G1 X177.793 Y193.040 E8.92224
G1 X177.849 Y193.389 E8.95443
G1 X177.825 Y193.774 E8.98951
G1 X177.820 Y193.842 F5400.000
G1 F4320.000
G1 X177.820 Y193.842 E8.95389
G1 F4320.000
G1 X177.722 Y194.182 E8.76703
G1 F4320.000
G1 X177.563 Y194.492 E8.58310
G1 F4320.000
G1 X177.350 Y194.767 E8.39917
G1 F4320.000
G1 X177.088 Y194.998 E8.21524
G1 F4320.000
G1 X176.788 Y195.175 E8.03132
G1 F4320.000
G1 X176.460 Y195.293 E7.84739
G1 F4320.000
G1 X176.111 Y195.349 E7.66053
G1 F4320.000
G1 X175.658 Y195.320 E7.42130
G1 F4320.000
G1 X175.318 Y195.222 E7.23444
G1 F4320.000
G1 X175.008 Y195.063 E7.05051
G1 F4320.000
G1 X174.733 Y194.850 E6.86658
G1 F4320.000
G1 X174.502 Y194.588 E6.68265
G1 F4320.000
G1 X174.325 Y194.288 E6.49873
G1 F4320.000
G1 X174.207 Y193.960 E6.31480
G1 F4320.000
G1 X174.152 Y193.616 E6.13087
G1 F4320.000
G1 X174.163 Y193.268 E5.94695
G1 F4320.000
G1 X174.239 Y192.928 E5.76302
G1 F4320.000
G1 X174.377 Y192.608 E5.57909
G1 F4320.000
G1 X174.573 Y192.320 E5.39516
G1 F4320.000
G1 X174.820 Y192.073 E5.21123
G1 F4320.000
G1 X174.854 Y192.050 E5.18951
G1 E4.98951 F2400.00000
G92 E0
G1 X157.101 Y193.305 F5400.000
G1 E4.00000 F2400.00000
G1 F1800.000
G1 X157.082 Y193.915 E4.05548
G1 X156.900 Y194.621 E4.12179
G1 X156.623 Y195.165 E4.17727
G1 X156.265 Y195.627 E4.23045
G1 X155.826 Y196.014 E4.28362
G1 X155.323 Y196.311 E4.33679
G1 X154.773 Y196.509 E4.38996
G1 X154.170 Y196.605 E4.44545
G1 X153.442 Y196.559 E4.51176
G1 X152.856 Y196.389 E4.56724
G1 X152.335 Y196.123 E4.62041
G1 X151.873 Y195.765 E4.67359
G1 X151.486 Y195.326 E4.72676
G1 X151.189 Y194.823 E4.77993
G1 X150.991 Y194.273 E4.83310
G1 X150.899 Y193.695 E4.88628
G1 X150.918 Y193.111 E4.93945
G1 X151.045 Y192.540 E4.99262
G1 X151.277 Y192.003 E5.04580
G1 X151.606 Y191.520 E5.09897
G1 X152.020 Y191.106 E5.15214
G1 X152.503 Y190.777 E5.20531
G1 X153.063 Y190.535 E5.26080
G1 X153.780 Y190.398 E5.32711
G1 X154.389 Y190.418 E5.38259
G1 X154.985 Y190.551 E5.43807
G1 X155.645 Y190.861 E5.50438
G1 X156.127 Y191.235 E5.55986
G1 X156.514 Y191.674 E5.61303
G1 X156.811 Y192.177 E5.66621
G1 X157.009 Y192.727 E5.71938
G1 X157.090 Y193.238 E5.76642
G1 X156.474 Y193.344 F5400.000
G1 F1800.000
G1 X156.459 Y193.826 E5.81025
G1 X156.312 Y194.399 E5.86402
G1 X156.093 Y194.828 E5.90785
G1 X155.807 Y195.197 E5.95029
G1 X155.457 Y195.506 E5.99272
G1 X155.056 Y195.743 E6.03515
G1 X154.617 Y195.901 E6.07758
G1 X154.140 Y195.977 E6.12141
G1 X153.550 Y195.940 E6.17518
G1 X153.087 Y195.805 E6.21902
G1 X152.672 Y195.593 E6.26145
G1 X152.303 Y195.307 E6.30388
G1 X151.994 Y194.957 E6.34631
G1 X151.757 Y194.556 E6.38874
G1 X151.599 Y194.117 E6.43117
G1 X151.526 Y193.656 E6.47360
G1 X151.540 Y193.189 E6.51603
G1 X151.642 Y192.734 E6.55846
G1 X151.827 Y192.306 E6.60089
G1 X152.090 Y191.920 E6.64332
G1 X152.420 Y191.590 E6.68575
G1 X152.806 Y191.327 E6.72818
G1 X153.248 Y191.136 E6.77202
G1 X153.829 Y191.025 E6.82579
G1 X154.311 Y191.040 E6.86962
G1 X154.781 Y191.145 E6.91346
G1 X155.316 Y191.397 E6.96722
G1 X155.697 Y191.693 E7.01106
G1 X156.006 Y192.043 E7.05349
G1 X156.243 Y192.444 E7.09592
G1 X156.401 Y192.883 E7.13835
G1 X156.464 Y193.278 E7.17465
G1 X155.848 Y193.384 F5400.000
G1 F1800.000
G1 X155.837 Y193.738 E7.20684
G1 X155.724 Y194.177 E7.24806
G1 X155.563 Y194.492 E7.28025
G1 X155.350 Y194.767 E7.31194
G1 X155.088 Y194.998 E7.34363
G1 X154.788 Y195.175 E7.37532
G1 X154.460 Y195.293 E7.40700
G1 X154.111 Y195.349 E7.43920
G1 X153.658 Y195.320 E7.48041
G1 X153.318 Y195.222 E7.51261
G1 X153.008 Y195.063 E7.54430
G1 X152.733 Y194.850 E7.57599
G1 X152.502 Y194.588 E7.60767
G1 X152.325 Y194.288 E7.63936
G1 X152.207 Y193.960 E7.67105
G1 X152.152 Y193.616 E7.70274
G1 X152.163 Y193.268 E7.73443
G1 X152.239 Y192.928 E7.76612
G1 X152.377 Y192.608 E7.79780
G1 X152.573 Y192.320 E7.82949
G1 X152.820 Y192.073 E7.86118
G1 X153.108 Y191.877 E7.89287
G1 X153.433 Y191.737 E7.92506
G1 X153.878 Y191.652 E7.96628
G1 X154.232 Y191.663 E7.99847
G1 X154.578 Y191.740 E8.03067
G1 X154.988 Y191.933 E8.07188
G1 X155.267 Y192.150 E8.10408
G1 X155.498 Y192.412 E8.13577
G1 X155.675 Y192.712 E8.16745
G1 X155.793 Y193.040 E8.19914
G1 X155.837 Y193.317 E8.22469
G1 X155.848 Y193.384 F5400.000
G1 F4320.000
G1 X155.848 Y193.384 E8.18907
G1 F4320.000
G1 X155.837 Y193.738 E8.00221
G1 F4320.000
G1 X155.724 Y194.177 E7.76298
G1 F4320.000
G1 X155.563 Y194.492 E7.57612
G1 F4320.000
G1 X155.350 Y194.767 E7.39219
G1 F4320.000
G1 X155.088 Y194.998 E7.20826
G1 F4320.000
G1 X154.788 Y195.175 E7.02434
G1 F4320.000
G1 X154.460 Y195.293 E6.84041
G1 F4320.000
G1 X154.111 Y195.349 E6.65355
G1 F4320.000
G1 X153.658 Y195.320 E6.41432
G1 F4320.000
G1 X153.318 Y195.222 E6.22746
G1 F4320.000
G1 X153.008 Y195.063 E6.04353
G1 F4320.000
G1 X152.733 Y194.850 E5.85960
G1 F4320.000
G1 X152.502 Y194.588 E5.67567
G1 F4320.000
G1 X152.325 Y194.288 E5.49175
G1 F4320.000
G1 X152.207 Y193.960 E5.30782
G1 F4320.000
G1 X152.152 Y193.616 E5.12389
G1 F4320.000
G1 X152.163 Y193.268 E4.93996
G1 F4320.000
G1 X152.239 Y192.928 E4.75604
G1 F4320.000
G1 X152.377 Y192.608 E4.57211
G1 F4320.000
G1 X152.534 Y192.377 E4.42469
G1 E4.22469 F2400.00000
G92 E0
G1 X152.220 Y169.102 F5400.000
G1 E4.00000 F2400.00000
G1 F1800.000
G1 X151.611 Y169.082 E4.05548
G1 X151.015 Y168.949 E4.11097
G1 X150.355 Y168.639 E4.17727
G1 X149.873 Y168.265 E4.23276
G1 X149.486 Y167.826 E4.28593
G1 X149.189 Y167.323 E4.33910
G1 X148.991 Y166.773 E4.39227
G1 X148.899 Y166.195 E4.44545
G1 X148.918 Y165.611 E4.49862
G1 X149.051 Y165.015 E4.55410
G1 X149.361 Y164.355 E4.62041
G1 X149.735 Y163.873 E4.67589
G1 X150.174 Y163.486 E4.72907
G1 X150.677 Y163.189 E4.78224
G1 X151.227 Y162.991 E4.83541
G1 X151.830 Y162.895 E4.89089
G1 X152.558 Y162.941 E4.95720
G1 X153.144 Y163.111 E5.01269
G1 X153.665 Y163.377 E5.06586
G1 X154.127 Y163.735 E5.11903
G1 X154.514 Y164.174 E5.17221
G1 X154.811 Y164.677 E5.22538
G1 X155.009 Y165.227 E5.27855
G1 X155.101 Y165.805 E5.33172
G1 X155.082 Y166.389 E5.38490
G1 X154.955 Y166.960 E5.43807
G1 X154.723 Y167.497 E5.49124
G1 X154.394 Y167.980 E5.54442
G1 X153.980 Y168.394 E5.59759
G1 X153.497 Y168.723 E5.65076
G1 X152.937 Y168.965 E5.70624
G1 X152.287 Y169.089 E5.76642
G1 X152.171 Y168.475 F5400.000
G1 F1800.000
G1 X151.689 Y168.460 E5.81025
G1 X151.219 Y168.355 E5.85409
G1 X150.684 Y168.103 E5.90786
G1 X150.303 Y167.807 E5.95169
G1 X149.994 Y167.457 E5.99412
G1 X149.757 Y167.056 E6.03655
G1 X149.599 Y166.617 E6.07898
G1 X149.526 Y166.156 E6.12142
G1 X149.540 Y165.689 E6.16385
G1 X149.645 Y165.219 E6.20768
G1 X149.897 Y164.684 E6.26145
G1 X150.193 Y164.303 E6.30528
G1 X150.543 Y163.994 E6.34772
G1 X150.944 Y163.757 E6.39015
G1 X151.383 Y163.599 E6.43258
