; generated by Slic3r 1.3.1-dev (Build 18ddd3a36dc69d81fb9b7440498bff9e1dde8b7e) on 2021-07-09 at 23:28:51

; external perimeters extrusion width = 0.49mm (3.88mm^3/s)
; perimeters extrusion width = 0.59mm (9.54mm^3/s)
; infill extrusion width = 0.56mm (11.95mm^3/s)
; solid infill extrusion width = 0.59mm (3.18mm^3/s)
; top infill extrusion width = 0.59mm (2.39mm^3/s)

M107
G92 E0
M190 S45 ; set bed temperature and wait for it to be reached
M104 S226 ; set temperature
G28 ; home all axes
G1 Z5 F5000 ; lift nozzle

; Filament gcode

M109 S226 ; set temperature and wait for it to be reached
G21 ; set units to millimeters
G90 ; use absolute coordinates
M82 ; use absolute distances for extrusion
G92 E0
G1 E-3.00000 F2400.00000
G92 E0
G1 Z0.350 F5400.000
G1 X135.678 Y145.451 F5400.000
G1 E3.00000 F2400.00000
G1 F1080.000
G1 X136.620 Y144.620 E3.11425
G1 X137.934 Y143.585 E3.26632
G1 X139.310 Y142.634 E3.41840
G1 X140.743 Y141.772 E3.57047
G1 X141.107 Y141.571 E3.60832
G1 X142.227 Y141.001 E3.72257
G1 X143.756 Y140.324 E3.87464
G1 X145.326 Y139.746 E4.02672
G1 X145.721 Y139.617 E4.06456
G1 X147.331 Y139.163 E4.21664
G1 X148.966 Y138.811 E4.36871
G1 X150.620 Y138.562 E4.52079
G1 X151.871 Y138.444 E4.63504
G1 X153.750 Y138.375 E4.80603
G1 X194.750 Y138.375 E8.53414
G1 X197.009 Y138.772 E8.74269
G1 X198.997 Y139.915 E8.95123
G1 X200.476 Y141.668 E9.15977
G1 X201.269 Y143.820 E9.36831
G1 X201.375 Y145.000 E9.47602
G1 X201.375 Y185.000 E13.11321
G1 X200.978 Y187.259 E13.32175
G1 X199.835 Y189.247 E13.53029
G1 X198.082 Y190.726 E13.73883
G1 X195.930 Y191.519 E13.94738
G1 X194.750 Y191.625 E14.05508
G1 X153.750 Y191.625 E17.78320
G1 X152.286 Y191.582 E17.91637
G1 X150.620 Y191.438 E18.06844
G1 X148.966 Y191.189 E18.22052
G1 X148.557 Y191.111 E18.25836
G1 X146.928 Y190.733 E18.41044
G1 X145.326 Y190.254 E18.56251
G1 X143.756 Y189.676 E18.71459
G1 X142.227 Y188.999 E18.86667
G1 X140.743 Y188.228 E19.01874
G1 X139.661 Y187.589 E19.13299
G1 X138.271 Y186.660 E19.28507
G1 X136.941 Y185.645 E19.43714
G1 X136.620 Y185.380 E19.47499
G1 X135.375 Y184.264 E19.62706
G1 X134.201 Y183.072 E19.77914
G1 X133.370 Y182.130 E19.89339
G1 X132.335 Y180.816 E20.04546
G1 X132.090 Y180.479 E20.08330
G1 X131.384 Y179.440 E20.19755
G1 X130.522 Y178.007 E20.34963
G1 X130.321 Y177.643 E20.38747
G1 X129.573 Y176.147 E20.53955
G1 X129.170 Y175.214 E20.63192
G1 X128.625 Y172.583 E20.87624
G1 X128.625 Y157.417 E22.25532
G1 X129.170 Y154.786 E22.49964
G1 X129.751 Y153.477 E22.62984
G1 X130.522 Y151.993 E22.78192
G1 X131.161 Y150.911 E22.89617
G1 X132.090 Y149.521 E23.04824
G1 X132.335 Y149.184 E23.08609
G1 X133.370 Y147.870 E23.23816
G1 X134.486 Y146.625 E23.39024
G1 X135.629 Y145.497 E23.53618
G1 F4320.000
G1 X136.620 Y144.620 E22.83746
G1 F4320.000
G1 X136.941 Y144.355 E22.61781
G1 F4320.000
G1 X137.934 Y143.585 E21.95470
G1 F4320.000
G1 X138.271 Y143.340 E21.73504
G1 F4320.000
G1 X139.310 Y142.634 E21.07192
G1 F4320.000
G1 X139.661 Y142.411 E20.85227
G1 F4320.000
G1 X139.932 Y142.251 E20.68618
G1 E20.53618 F2400.00000
G92 E0
G1 X189.794 Y183.343 F5400.000
G1 E3.00000 F2400.00000
G1 F270.000
G1 X189.575 Y183.473 E3.02313
G1 X189.336 Y183.559 E3.04626
G1 X189.085 Y183.599 E3.06939
G1 X188.825 Y183.591 E3.09303
G1 X188.507 Y183.509 E3.12285
G1 X188.276 Y183.391 E3.14649
G1 X188.075 Y183.235 E3.16962
G1 X187.907 Y183.044 E3.19275
G1 X187.777 Y182.825 E3.21588
G1 X187.691 Y182.586 E3.23901
G1 X187.651 Y182.335 E3.26214
G1 X187.659 Y182.081 E3.28527
G1 X187.715 Y181.832 E3.30840
G1 X187.816 Y181.599 E3.33154
G1 X187.959 Y181.388 E3.35467
G1 X188.138 Y181.209 E3.37780
G1 X188.353 Y181.062 E3.40143
G1 X188.658 Y180.942 E3.43125
G1 X188.915 Y180.901 E3.45489
G1 X189.169 Y180.909 E3.47802
G1 X189.418 Y180.965 E3.50115
G1 X189.651 Y181.066 E3.52428
G1 X189.862 Y181.209 E3.54742
G1 X190.045 Y181.392 E3.57105
G1 X190.221 Y181.669 E3.60087
G1 X190.309 Y181.914 E3.62451
G1 X190.349 Y182.165 E3.64764
G1 X190.341 Y182.425 E3.67128
G1 X190.259 Y182.743 E3.70110
G1 X190.141 Y182.974 E3.72473
G1 X189.985 Y183.175 E3.74786
G1 X189.845 Y183.299 E3.76486
G1 X189.794 Y183.343 F5400.000
G1 F4320.000
G1 X189.794 Y183.343 E3.72923
G1 F4320.000
G1 X189.575 Y183.473 E3.59497
G1 F4320.000
G1 X189.336 Y183.559 E3.46071
G1 F4320.000
G1 X189.085 Y183.599 E3.32646
G1 F4320.000
G1 X188.825 Y183.591 E3.18927
G1 F4320.000
G1 X188.507 Y183.509 E3.01618
G1 F4320.000
G1 X188.276 Y183.391 E2.87899
G1 F4320.000
G1 X188.075 Y183.235 E2.74473
G1 F4320.000
G1 X187.907 Y183.044 E2.61047
G1 F4320.000
G1 X187.777 Y182.825 E2.47621
G1 F4320.000
G1 X187.691 Y182.586 E2.34195
G1 F4320.000
G1 X187.651 Y182.335 E2.20769
G1 F4320.000
G1 X187.659 Y182.081 E2.07343
G1 F4320.000
G1 X187.715 Y181.832 E1.93918
G1 F4320.000
G1 X187.816 Y181.599 E1.80492
G1 F4320.000
G1 X187.959 Y181.388 E1.67066
G1 F4320.000
G1 X188.138 Y181.209 E1.53640
G1 F4320.000
G1 X188.353 Y181.062 E1.39921
G1 F4320.000
G1 X188.658 Y180.942 E1.22612
G1 F4320.000
G1 X188.915 Y180.901 E1.08893
G1 F4320.000
G1 X189.169 Y180.909 E0.95467
G1 F4320.000
G1 X189.243 Y180.926 E0.91486
G1 E0.76486 F2400.00000
G92 E0
G1 X164.082 Y178.389 F5400.000
G1 E3.00000 F2400.00000
G1 F270.000
G1 X163.955 Y178.960 E3.05317
G1 X163.723 Y179.497 E3.10635
G1 X163.394 Y179.980 E3.15952
G1 X162.980 Y180.394 E3.21269
G1 X162.497 Y180.723 E3.26586
G1 X161.937 Y180.965 E3.32135
G1 X161.195 Y181.106 E3.38997
G1 X160.442 Y181.059 E3.45860
G1 X159.856 Y180.889 E3.51408
G1 X159.335 Y180.623 E3.56725
G1 X158.873 Y180.265 E3.62043
G1 X158.486 Y179.826 E3.67360
G1 X158.189 Y179.323 E3.72677
G1 X157.991 Y178.773 E3.77995
G1 X157.899 Y178.195 E3.83312
G1 X157.918 Y177.611 E3.88629
G1 X158.045 Y177.040 E3.93946
G1 X158.277 Y176.503 E3.99264
G1 X158.620 Y175.999 E4.04812
G1 X159.152 Y175.499 E4.11443
G1 X159.677 Y175.189 E4.16991
G1 X160.227 Y174.991 E4.22308
G1 X160.805 Y174.899 E4.27626
G1 X161.389 Y174.918 E4.32943
G1 X161.960 Y175.045 E4.38260
G1 X162.520 Y175.287 E4.43809
G1 X163.110 Y175.716 E4.50440
G1 X163.514 Y176.174 E4.55988
G1 X163.811 Y176.677 E4.61305
G1 X164.009 Y177.227 E4.66622
G1 X164.101 Y177.805 E4.71940
G1 X164.085 Y178.322 E4.76643
G1 X163.460 Y178.311 F5400.000
G1 F270.000
G1 X163.358 Y178.766 E4.80886
G1 X163.173 Y179.194 E4.85129
G1 X162.910 Y179.580 E4.89372
G1 X162.580 Y179.910 E4.93615
G1 X162.194 Y180.173 E4.97858
G1 X161.752 Y180.364 E5.02242
G1 X161.156 Y180.478 E5.07760
G1 X160.550 Y180.440 E5.13277
G1 X160.087 Y180.305 E5.17661
G1 X159.672 Y180.093 E5.21904
G1 X159.303 Y179.807 E5.26147
G1 X158.994 Y179.457 E5.30390
G1 X158.757 Y179.056 E5.34633
G1 X158.599 Y178.617 E5.38876
G1 X158.526 Y178.156 E5.43120
G1 X158.540 Y177.689 E5.47363
G1 X158.642 Y177.234 E5.51606
G1 X158.827 Y176.806 E5.55849
G1 X159.098 Y176.407 E5.60233
G1 X159.529 Y176.002 E5.65609
G1 X159.944 Y175.757 E5.69993
G1 X160.383 Y175.599 E5.74236
G1 X160.844 Y175.526 E5.78479
G1 X161.311 Y175.540 E5.82722
G1 X161.766 Y175.642 E5.86965
G1 X162.209 Y175.834 E5.91349
G1 X162.687 Y176.181 E5.96725
G1 X163.006 Y176.543 E6.01109
G1 X163.243 Y176.944 E6.05352
G1 X163.401 Y177.383 E6.09595
G1 X163.474 Y177.844 E6.13838
G1 X163.462 Y178.243 E6.17467
G1 X162.837 Y178.232 F5400.000
G1 F270.000
G1 X162.761 Y178.572 E6.20636
G1 X162.623 Y178.892 E6.23805
G1 X162.427 Y179.180 E6.26974
G1 X162.180 Y179.427 E6.30143
G1 X161.892 Y179.623 E6.33311
G1 X161.567 Y179.763 E6.36531
G1 X161.116 Y179.849 E6.40703
G1 X160.658 Y179.820 E6.44875
G1 X160.318 Y179.722 E6.48095
G1 X160.008 Y179.563 E6.51264
G1 X159.733 Y179.350 E6.54433
G1 X159.502 Y179.088 E6.57601
G1 X159.325 Y178.788 E6.60770
G1 X159.207 Y178.460 E6.63939
G1 X159.152 Y178.116 E6.67108
G1 X159.163 Y177.768 E6.70277
G1 X159.239 Y177.428 E6.73446
G1 X159.377 Y177.108 E6.76614
G1 X159.576 Y176.815 E6.79834
G1 X159.907 Y176.505 E6.83955
G1 X160.212 Y176.325 E6.87175
G1 X160.540 Y176.207 E6.90344
G1 X160.884 Y176.152 E6.93513
G1 X161.232 Y176.163 E6.96681
G1 X161.572 Y176.239 E6.99850
G1 X161.897 Y176.380 E7.03070
G1 X162.264 Y176.646 E7.07191
G1 X162.498 Y176.912 E7.10411
G1 X162.675 Y177.212 E7.13579
G1 X162.793 Y177.540 E7.16748
G1 X162.848 Y177.884 E7.19917
G1 X162.839 Y178.165 E7.22472
G1 X162.837 Y178.232 F5400.000
G1 F4320.000
G1 X162.837 Y178.232 E7.18910
G1 F4320.000
G1 X162.761 Y178.572 E7.00517
G1 F4320.000
G1 X162.623 Y178.892 E6.82124
G1 F4320.000
G1 X162.427 Y179.180 E6.63731
G1 F4320.000
G1 X162.180 Y179.427 E6.45339
G1 F4320.000
G1 X161.892 Y179.623 E6.26946
G1 F4320.000
G1 X161.567 Y179.763 E6.08260
G1 F4320.000
G1 X161.116 Y179.849 E5.84042
G1 F4320.000
G1 X160.658 Y179.820 E5.59825
G1 F4320.000
G1 X160.318 Y179.722 E5.41139
G1 F4320.000
G1 X160.008 Y179.563 E5.22746
G1 F4320.000
G1 X159.733 Y179.350 E5.04353
G1 F4320.000
G1 X159.502 Y179.088 E4.85961
G1 F4320.000
G1 X159.325 Y178.788 E4.67568
G1 F4320.000
G1 X159.207 Y178.460 E4.49176
G1 F4320.000
G1 X159.172 Y178.241 E4.37472
G1 E4.22472 F2400.00000
G92 E0
G1 X161.195 Y155.101 F5400.000
G1 E3.00000 F2400.00000
G1 F270.000
G1 X160.585 Y155.082 E3.05548
G1 X159.879 Y154.900 E3.12179
G1 X159.335 Y154.623 E3.17727
G1 X158.873 Y154.265 E3.23045
G1 X158.486 Y153.826 E3.28362
G1 X158.189 Y153.323 E3.33679
G1 X157.991 Y152.773 E3.38996
G1 X157.899 Y152.195 E3.44314
G1 X157.918 Y151.611 E3.49631
G1 X158.045 Y151.040 E3.54948
G1 X158.277 Y150.503 E3.60266
G1 X158.606 Y150.020 E3.65583
G1 X159.020 Y149.606 E3.70900
G1 X159.524 Y149.263 E3.76448
G1 X160.202 Y148.995 E3.83079
G1 X160.782 Y148.903 E3.88416
G1 X161.264 Y148.904 E3.92796
G1 X161.631 Y148.962 E3.96176
G1 X162.144 Y149.111 E4.01033
G1 X162.665 Y149.377 E4.06351
G1 X163.127 Y149.735 E4.11668
G1 X163.514 Y150.174 E4.16985
G1 X163.811 Y150.677 E4.22302
G1 X164.009 Y151.227 E4.27620
G1 X164.101 Y151.805 E4.32937
G1 X164.082 Y152.389 E4.38254
G1 X163.955 Y152.960 E4.43572
G1 X163.723 Y153.497 E4.48889
G1 X163.394 Y153.980 E4.54206
G1 X162.980 Y154.394 E4.59524
G1 X162.476 Y154.737 E4.65072
G1 X161.798 Y155.005 E4.71703
G1 X161.262 Y155.090 E4.76637
G1 X161.156 Y154.474 F5400.000
G1 F270.000
G1 X160.674 Y154.459 E4.81021
G1 X160.101 Y154.312 E4.86397
G1 X159.672 Y154.093 E4.90781
G1 X159.303 Y153.807 E4.95024
G1 X158.994 Y153.457 E4.99267
G1 X158.757 Y153.056 E5.03510
G1 X158.599 Y152.617 E5.07753
G1 X158.526 Y152.156 E5.11996
G1 X158.540 Y151.689 E5.16240
G1 X158.642 Y151.234 E5.20483
G1 X158.827 Y150.806 E5.24726
G1 X159.090 Y150.420 E5.28969
G1 X159.420 Y150.090 E5.33212
G1 X159.818 Y149.819 E5.37596
G1 X160.368 Y149.601 E5.42972
G1 X160.830 Y149.528 E5.47227
G1 X161.214 Y149.529 E5.50713
G1 X161.494 Y149.573 E5.53295
G1 X161.913 Y149.695 E5.57258
G1 X162.328 Y149.907 E5.61501
G1 X162.697 Y150.193 E5.65744
G1 X163.006 Y150.543 E5.69987
G1 X163.243 Y150.944 E5.74230
G1 X163.401 Y151.383 E5.78473
G1 X163.474 Y151.844 E5.82716
G1 X163.460 Y152.311 E5.86959
G1 X163.358 Y152.766 E5.91202
G1 X163.173 Y153.194 E5.95445
G1 X162.910 Y153.580 E5.99688
G1 X162.580 Y153.910 E6.03931
G1 X162.182 Y154.181 E6.08315
G1 X161.632 Y154.399 E6.13691
G1 X161.222 Y154.464 E6.17461
G1 X161.116 Y153.848 F5400.000
G1 F270.000
G1 X160.762 Y153.837 E6.20681
G1 X160.323 Y153.724 E6.24802
G1 X160.008 Y153.563 E6.28022
G1 X159.733 Y153.350 E6.31191
G1 X159.502 Y153.088 E6.34360
G1 X159.325 Y152.788 E6.37528
G1 X159.207 Y152.460 E6.40697
G1 X159.152 Y152.116 E6.43866
G1 X159.163 Y151.768 E6.47035
G1 X159.239 Y151.428 E6.50204
G1 X159.377 Y151.108 E6.53373
G1 X159.573 Y150.820 E6.56541
G1 X159.820 Y150.573 E6.59710
G1 X160.113 Y150.374 E6.62930
G1 X160.534 Y150.207 E6.67051
G1 X160.879 Y150.153 E6.70224
G1 X161.164 Y150.154 E6.72816
G1 X161.358 Y150.184 E6.74601
G1 X161.682 Y150.278 E6.77669
G1 X161.992 Y150.437 E6.80838
G1 X162.267 Y150.650 E6.84007
G1 X162.498 Y150.912 E6.87175
G1 X162.675 Y151.212 E6.90344
G1 X162.793 Y151.540 E6.93513
G1 X162.848 Y151.884 E6.96682
G1 X162.837 Y152.232 E6.99851
G1 X162.761 Y152.572 E7.03020
G1 X162.623 Y152.892 E7.06188
G1 X162.427 Y153.180 E7.09357
G1 X162.180 Y153.427 E7.12526
G1 X161.887 Y153.626 E7.15745
G1 X161.466 Y153.793 E7.19867
G1 X161.183 Y153.837 E7.22473
G1 X161.116 Y153.848 F5400.000
G1 F4320.000
G1 X161.116 Y153.848 E7.18910
G1 F4320.000
G1 X160.762 Y153.837 E7.00224
G1 F4320.000
G1 X160.323 Y153.724 E6.76301
G1 F4320.000
G1 X160.008 Y153.563 E6.57615
G1 F4320.000
G1 X159.733 Y153.350 E6.39223
G1 F4320.000
G1 X159.502 Y153.088 E6.20830
G1 F4320.000
G1 X159.325 Y152.788 E6.02437
G1 F4320.000
G1 X159.207 Y152.460 E5.84045
G1 F4320.000
G1 X159.152 Y152.116 E5.65652
G1 F4320.000
G1 X159.163 Y151.768 E5.47259
G1 F4320.000
G1 X159.239 Y151.428 E5.28866
G1 F4320.000
G1 X159.377 Y151.108 E5.10473
G1 F4320.000
G1 X159.573 Y150.820 E4.92081
G1 F4320.000
G1 X159.820 Y150.573 E4.73688
G1 F4320.000
G1 X160.113 Y150.374 E4.55002
G1 F4320.000
G1 X160.421 Y150.252 E4.37473
G1 E4.22473 F2400.00000
G92 E0
G1 X185.399 Y154.195 F5400.000
G1 E3.00000 F2400.00000
G1 F270.000
G1 X185.418 Y153.611 E3.05317
G1 X185.551 Y153.015 E3.10866
G1 X185.861 Y152.355 E3.17497
G1 X186.235 Y151.873 E3.23045
G1 X186.674 Y151.486 E3.28362
G1 X187.177 Y151.189 E3.33679
G1 X187.727 Y150.991 E3.38997
G1 X188.305 Y150.899 E3.44314
G1 X188.889 Y150.918 E3.49631
G1 X189.485 Y151.051 E3.55180
G1 X190.145 Y151.361 E3.61810
G1 X190.627 Y151.735 E3.67359
G1 X191.014 Y152.174 E3.72676
G1 X191.311 Y152.677 E3.77993
G1 X191.509 Y153.227 E3.83311
G1 X191.605 Y153.830 E3.88859
G1 X191.559 Y154.558 E3.95490
G1 X191.389 Y155.144 E4.01038
G1 X191.123 Y155.665 E4.06355
G1 X190.765 Y156.127 E4.11673
G1 X190.326 Y156.514 E4.16990
G1 X189.823 Y156.811 E4.22307
G1 X189.273 Y157.009 E4.27624
G1 X188.695 Y157.101 E4.32942
G1 X188.111 Y157.082 E4.38259
G1 X187.540 Y156.955 E4.43576
G1 X187.003 Y156.723 E4.48894
G1 X186.499 Y156.380 E4.54442
G1 X185.999 Y155.848 E4.61073
G1 X185.689 Y155.323 E4.66621
G1 X185.491 Y154.773 E4.71938
G1 X185.410 Y154.262 E4.76642
G1 X186.026 Y154.156 F5400.000
G1 F270.000
G1 X186.040 Y153.689 E4.80885
G1 X186.145 Y153.219 E4.85269
G1 X186.397 Y152.684 E4.90645
G1 X186.693 Y152.303 E4.95029
G1 X187.043 Y151.994 E4.99272
G1 X187.444 Y151.757 E5.03515
G1 X187.883 Y151.599 E5.07758
G1 X188.344 Y151.526 E5.12001
G1 X188.811 Y151.540 E5.16244
G1 X189.281 Y151.645 E5.20628
G1 X189.816 Y151.897 E5.26004
G1 X190.197 Y152.193 E5.30388
G1 X190.506 Y152.543 E5.34631
G1 X190.743 Y152.944 E5.38874
G1 X190.901 Y153.383 E5.43117
G1 X190.977 Y153.860 E5.47501
G1 X190.940 Y154.450 E5.52877
G1 X190.805 Y154.913 E5.57261
G1 X190.593 Y155.328 E5.61504
G1 X190.307 Y155.697 E5.65747
G1 X189.957 Y156.006 E5.69990
G1 X189.556 Y156.243 E5.74233
G1 X189.117 Y156.401 E5.78476
G1 X188.656 Y156.474 E5.82719
G1 X188.189 Y156.460 E5.86962
G1 X187.734 Y156.358 E5.91205
G1 X187.306 Y156.173 E5.95449
G1 X186.907 Y155.902 E5.99832
G1 X186.502 Y155.471 E6.05209
G1 X186.257 Y155.056 E6.09592
G1 X186.099 Y154.617 E6.13835
G1 X186.036 Y154.222 E6.17465
G1 X186.652 Y154.116 F5400.000
G1 F270.000
G1 X186.663 Y153.768 E6.20634
G1 X186.740 Y153.422 E6.23853
G1 X186.933 Y153.012 E6.27975
G1 X187.150 Y152.733 E6.31194
G1 X187.412 Y152.502 E6.34363
G1 X187.712 Y152.325 E6.37532
G1 X188.040 Y152.207 E6.40700
G1 X188.384 Y152.152 E6.43869
G1 X188.732 Y152.163 E6.47038
G1 X189.078 Y152.240 E6.50258
G1 X189.488 Y152.433 E6.54379
G1 X189.767 Y152.650 E6.57599
G1 X189.998 Y152.912 E6.60767
G1 X190.175 Y153.212 E6.63936
G1 X190.293 Y153.540 E6.67105
G1 X190.349 Y153.889 E6.70324
G1 X190.320 Y154.342 E6.74446
G1 X190.222 Y154.682 E6.77665
G1 X190.063 Y154.992 E6.80834
G1 X189.850 Y155.267 E6.84003
G1 X189.588 Y155.498 E6.87172
G1 X189.288 Y155.675 E6.90341
G1 X188.960 Y155.793 E6.93510
G1 X188.616 Y155.848 E6.96679
G1 X188.268 Y155.837 E6.99847
G1 X187.928 Y155.761 E7.03016
G1 X187.608 Y155.623 E7.06185
G1 X187.315 Y155.424 E7.09404
G1 X187.005 Y155.093 E7.13526
G1 X186.825 Y154.788 E7.16745
G1 X186.707 Y154.460 E7.19914
G1 X186.663 Y154.183 E7.22469
G1 X186.652 Y154.116 F5400.000
G1 F4320.000
G1 X186.652 Y154.116 E7.18907
G1 F4320.000
G1 X186.663 Y153.768 E7.00514
G1 F4320.000
G1 X186.740 Y153.422 E6.81828
G1 F4320.000
G1 X186.933 Y153.012 E6.57905
G1 F4320.000
